(/Applications/pcbgcode.repo/pcb-gcode.ulp)
(Copyright 2005 - 2012 by John Johnson)
(See readme.txt for licensing terms.)
(This file generated from the board:)
(.../Dropbox/CAM/eurorack/808sn/808sn.brd)
(Current profile is .../pcbgcode.repo/profiles/mach.pp  )
(This file generated 1/10/15 7:37 PM)
(Settings from pcb-machine.h)
(spindle on time = 0.0000)
(  Tool Size)
(0.0103  )
(spindle speed = 30000.0000)
(tool change at 0.0000  0.0000  3.0000  )
(feed rate xy = F20    )
(feed rate z  = F10    )
(Z Axis Settings)
(  High     Up        Down     Drill)
(1.0000  	0.0500  	-0.0040 	-0.0730 )
(Settings from pcb-defaults.h)
(isolate min = 0.0020)
(isolate max = 0.0050)
(isolate step = 0.0010)
(Generated bottom outlines, bottom drill, )
(Unit of measure: inch)
(Inch Mode)
G20
(Absolute Coordinates)
G90
S30000
G00 Z1.0000  
G00 X0.0000  Y0.0000  
M03
G04 P0.000000
G00 Z0.0500  
G00 X-0.5169 Y0.6863  
G01 Z-0.0040 F10    
G01 X-0.5363 Y0.6669  F20    
G01 X-0.5637 Y0.6669  
G01 X-0.5685 Y0.6716  
G01 X-0.7335 Y0.6308  
G01 X-0.7749 Y0.4699  
G01 X-0.7752 Y0.4682  
G01 X-0.7755 Y0.4677  
G01 X-0.7756 Y0.4670  
G01 X-0.7764 Y0.4655  
G01 X-0.7770 Y0.4640  
G01 X-0.7773 Y0.4635  
G01 X-0.7776 Y0.4629  
G01 X-0.7786 Y0.4616  
G01 X-0.7795 Y0.4602  
G01 X-0.7800 Y0.4598  
G01 X-0.7804 Y0.4593  
G01 X-0.7816 Y0.4582  
G01 X-0.7827 Y0.4570  
G01 X-0.7833 Y0.4567  
G01 X-0.7838 Y0.4562  
G01 X-0.7852 Y0.4554  
G01 X-0.7865 Y0.4545  
G01 X-0.7871 Y0.4542  
G01 X-0.7877 Y0.4539  
G01 X-0.7892 Y0.4534  
G01 X-0.7907 Y0.4527  
G01 X-0.7914 Y0.4526  
G01 X-0.7920 Y0.4524  
G01 X-0.7936 Y0.4522  
G01 X-0.7952 Y0.4519  
G01 X-0.7959 Y0.4519  
G01 X-0.7965 Y0.4518  
G01 X-0.7981 Y0.4519  
G01 X-3.3943 Y0.4519  
G01 X-3.3958 Y0.4518  
G01 X-3.3966 Y0.4519  
G01 X-3.3973 Y0.4519  
G01 X-3.3988 Y0.4522  
G01 X-3.4004 Y0.4524  
G01 X-3.4010 Y0.4526  
G01 X-3.4018 Y0.4527  
G01 X-3.4032 Y0.4533  
G01 X-3.4047 Y0.4538  
G01 X-3.4053 Y0.4542  
G01 X-3.4060 Y0.4545  
G01 X-3.4073 Y0.4554  
G01 X-3.4086 Y0.4561  
G01 X-3.4092 Y0.4566  
G01 X-3.4098 Y0.4570  
G01 X-3.4109 Y0.4581  
G01 X-3.6345 Y0.6555  
G01 X-3.6383 Y0.6542  
G01 X-3.6461 Y0.6530  
G01 X-3.6539 Y0.6530  
G01 X-3.6617 Y0.6542  
G01 X-3.6693 Y0.6567  
G01 X-3.6763 Y0.6603  
G01 X-3.6827 Y0.6649  
G01 X-3.6883 Y0.6705  
G01 X-3.6929 Y0.6769  
G01 X-3.6965 Y0.6839  
G01 X-3.6989 Y0.6914  
G01 X-3.7001 Y0.6992  
G01 X-3.7001 Y0.7071  
G01 X-3.6989 Y0.7149  
G01 X-3.6965 Y0.7224  
G01 X-3.6929 Y0.7294  
G01 X-3.6883 Y0.7358  
G01 X-3.6827 Y0.7414  
G01 X-3.6763 Y0.7460  
G01 X-3.6693 Y0.7496  
G01 X-3.6617 Y0.7521  
G01 X-3.6539 Y0.7533  
G01 X-3.6461 Y0.7533  
G01 X-3.6383 Y0.7521  
G01 X-3.6307 Y0.7496  
G01 X-3.6237 Y0.7460  
G01 X-3.6173 Y0.7414  
G01 X-3.6117 Y0.7358  
G01 X-3.6071 Y0.7294  
G01 X-3.6035 Y0.7224  
G01 X-3.6011 Y0.7149  
G01 X-3.5999 Y0.7071  
G01 X-3.5999 Y0.6992  
G01 X-3.6011 Y0.6914  
G01 X-3.6020 Y0.6885  
G01 X-3.3862 Y0.4981  
G01 X-0.8155 Y0.4981  
G01 X-0.7752 Y0.6546  
G01 X-0.7750 Y0.6557  
G01 X-0.7746 Y0.6568  
G01 X-0.7744 Y0.6580  
G01 X-0.7739 Y0.6590  
G01 X-0.7735 Y0.6600  
G01 X-0.7729 Y0.6610  
G01 X-0.7724 Y0.6621  
G01 X-0.7717 Y0.6630  
G01 X-0.7711 Y0.6639  
G01 X-0.7703 Y0.6648  
G01 X-0.7696 Y0.6657  
G01 X-0.7688 Y0.6665  
G01 X-0.7681 Y0.6673  
G01 X-0.7671 Y0.6680  
G01 X-0.7662 Y0.6688  
G01 X-0.7653 Y0.6693  
G01 X-0.7644 Y0.6700  
G01 X-0.7633 Y0.6705  
G01 X-0.7623 Y0.6711  
G01 X-0.7613 Y0.6715  
G01 X-0.7603 Y0.6719  
G01 X-0.7591 Y0.6722  
G01 X-0.7580 Y0.6726  
G01 X-0.7569 Y0.6728  
G01 X-0.5806 Y0.7163  
G01 X-0.5637 Y0.7331  
G01 X-0.5363 Y0.7331  
G01 X-0.5169 Y0.7137  
G01 X-0.5169 Y0.6863  
G00 Z0.0500  
G00 X-0.5169 Y0.8863  
G01 Z-0.0040 F10    
G01 X-0.5363 Y0.8669  F20    
G01 X-0.5637 Y0.8669  
G01 X-0.5639 Y0.8670  
G01 X-0.5644 Y0.8669  
G01 X-0.5661 Y0.8666  
G01 X-0.5670 Y0.8666  
G01 X-0.5680 Y0.8665  
G01 X-0.5697 Y0.8666  
G01 X-0.8910 Y0.8666  
G01 X-0.9916 Y0.7914  
G01 X-0.9916 Y0.7141  
G01 X-0.9915 Y0.7131  
G01 X-0.9916 Y0.7115  
G01 X-0.9916 Y0.7098  
G01 X-0.9918 Y0.7088  
G01 X-0.9919 Y0.7078  
G01 X-0.9923 Y0.7062  
G01 X-0.9926 Y0.7046  
G01 X-0.9930 Y0.7036  
G01 X-0.9933 Y0.7026  
G01 X-0.9941 Y0.7012  
G01 X-0.9947 Y0.6996  
G01 X-0.9953 Y0.6988  
G01 X-1.0453 Y0.5999  
G01 X-1.0459 Y0.5984  
G01 X-1.0465 Y0.5975  
G01 X-1.0470 Y0.5966  
G01 X-1.0480 Y0.5953  
G01 X-1.0489 Y0.5939  
G01 X-1.0496 Y0.5932  
G01 X-1.0503 Y0.5924  
G01 X-1.0515 Y0.5913  
G01 X-1.0527 Y0.5902  
G01 X-1.0536 Y0.5896  
G01 X-1.0543 Y0.5889  
G01 X-1.0558 Y0.5881  
G01 X-1.0571 Y0.5872  
G01 X-1.0581 Y0.5868  
G01 X-1.0590 Y0.5863  
G01 X-1.0606 Y0.5858  
G01 X-1.0621 Y0.5851  
G01 X-1.0631 Y0.5849  
G01 X-1.0641 Y0.5846  
G01 X-1.0657 Y0.5844  
G01 X-1.0673 Y0.5841  
G01 X-1.0684 Y0.5841  
G01 X-1.0694 Y0.5840  
G01 X-1.0710 Y0.5841  
G01 X-1.8643 Y0.5841  
G01 X-1.8662 Y0.5840  
G01 X-1.8669 Y0.5841  
G01 X-1.8677 Y0.5841  
G01 X-1.8696 Y0.5845  
G01 X-1.8715 Y0.5848  
G01 X-1.8722 Y0.5850  
G01 X-1.8729 Y0.5851  
G01 X-1.8747 Y0.5859  
G01 X-1.8766 Y0.5865  
G01 X-1.8772 Y0.5869  
G01 X-1.8779 Y0.5872  
G01 X-1.8795 Y0.5883  
G01 X-2.0255 Y0.6749  
G01 X-2.0627 Y0.6935  
G01 X-2.0632 Y0.6936  
G01 X-2.0651 Y0.6947  
G01 X-2.0670 Y0.6957  
G01 X-2.0674 Y0.6960  
G01 X-2.0678 Y0.6962  
G01 X-2.0695 Y0.6976  
G01 X-2.0713 Y0.6989  
G01 X-2.0716 Y0.6993  
G01 X-2.0720 Y0.6996  
G01 X-2.0733 Y0.7013  
G01 X-2.0748 Y0.7030  
G01 X-2.0750 Y0.7034  
G01 X-2.0753 Y0.7038  
G01 X-2.0763 Y0.7057  
G01 X-2.0774 Y0.7076  
G01 X-2.0776 Y0.7081  
G01 X-2.0778 Y0.7085  
G01 X-2.0784 Y0.7106  
G01 X-2.0791 Y0.7127  
G01 X-2.0829 Y0.7149  
G01 X-2.1046 Y0.7149  
G01 X-2.1153 Y0.7256  
G01 X-2.2750 Y0.7336  
G01 X-2.2836 Y0.7270  
G01 X-2.2926 Y0.7037  
G01 X-2.2926 Y0.7033  
G01 X-2.2935 Y0.7012  
G01 X-2.2944 Y0.6990  
G01 X-2.2946 Y0.6987  
G01 X-2.2947 Y0.6984  
G01 X-2.2960 Y0.6965  
G01 X-2.2972 Y0.6945  
G01 X-2.2975 Y0.6942  
G01 X-2.2977 Y0.6939  
G01 X-2.2993 Y0.6923  
G01 X-2.3009 Y0.6906  
G01 X-2.3012 Y0.6904  
G01 X-2.3014 Y0.6902  
G01 X-2.3034 Y0.6889  
G01 X-2.3053 Y0.6875  
G01 X-2.3056 Y0.6874  
G01 X-2.3059 Y0.6872  
G01 X-2.3080 Y0.6863  
G01 X-2.3102 Y0.6854  
G01 X-2.3105 Y0.6853  
G01 X-2.3108 Y0.6851  
G01 X-2.3131 Y0.6847  
G01 X-2.3154 Y0.6842  
G01 X-2.3157 Y0.6842  
G01 X-2.3161 Y0.6841  
G01 X-2.3184 Y0.6841  
G01 X-2.3207 Y0.6840  
G01 X-2.3211 Y0.6841  
G01 X-3.1224 Y0.6841  
G01 X-3.1251 Y0.6841  
G01 X-3.1277 Y0.6841  
G01 X-3.1279 Y0.6841  
G01 X-3.1304 Y0.6846  
G01 X-3.1329 Y0.6851  
G01 X-3.1331 Y0.6852  
G01 X-3.1355 Y0.6862  
G01 X-3.1379 Y0.6872  
G01 X-3.1380 Y0.6873  
G01 X-3.1402 Y0.6887  
G01 X-3.1423 Y0.6902  
G01 X-3.1424 Y0.6903  
G01 X-3.1443 Y0.6921  
G01 X-3.1461 Y0.6939  
G01 X-3.1462 Y0.6941  
G01 X-3.1476 Y0.6962  
G01 X-3.1491 Y0.6984  
G01 X-3.1491 Y0.6986  
G01 X-3.1501 Y0.7009  
G01 X-3.1511 Y0.7033  
G01 X-3.1512 Y0.7035  
G01 X-3.1516 Y0.7060  
G01 X-3.1521 Y0.7086  
G01 X-3.1754 Y0.8298  
G01 X-3.1759 Y0.8323  
G01 X-3.1759 Y0.8325  
G01 X-3.1759 Y0.8351  
G01 X-3.1759 Y0.9444  
G01 X-3.1760 Y0.9464  
G01 X-3.1759 Y0.9470  
G01 X-3.1759 Y0.9477  
G01 X-3.1755 Y0.9497  
G01 X-3.1752 Y0.9517  
G01 X-3.1750 Y0.9523  
G01 X-3.1749 Y0.9529  
G01 X-3.1741 Y0.9548  
G01 X-3.1079 Y1.1388  
G01 X-3.0883 Y1.3050  
G01 X-3.0882 Y1.3070  
G01 X-3.0880 Y1.3077  
G01 X-3.0879 Y1.3083  
G01 X-3.0873 Y1.3102  
G01 X-3.0867 Y1.3122  
G01 X-3.0865 Y1.3128  
G01 X-3.0863 Y1.3134  
G01 X-3.0853 Y1.3152  
G01 X-3.0844 Y1.3170  
G01 X-3.0840 Y1.3175  
G01 X-3.0836 Y1.3181  
G01 X-3.0823 Y1.3196  
G01 X-3.0811 Y1.3212  
G01 X-3.0806 Y1.3217  
G01 X-3.0802 Y1.3222  
G01 X-3.0786 Y1.3234  
G01 X-2.9334 Y1.4499  
G01 X-2.9334 Y1.5303  
G01 X-2.9335 Y1.5320  
G01 X-2.9334 Y1.5330  
G01 X-2.9334 Y1.5339  
G01 X-2.9331 Y1.5356  
G01 X-2.9330 Y1.5361  
G01 X-2.9331 Y1.5363  
G01 X-2.9331 Y1.5448  
G01 X-3.0552 Y1.6669  
G01 X-3.0637 Y1.6669  
G01 X-3.0831 Y1.6863  
G01 X-3.0831 Y1.7137  
G01 X-3.0637 Y1.7331  
G01 X-3.0363 Y1.7331  
G01 X-3.0169 Y1.7137  
G01 X-3.0169 Y1.7052  
G01 X-2.8948 Y1.5831  
G01 X-2.8863 Y1.5831  
G01 X-2.8669 Y1.5637  
G01 X-2.8669 Y1.5363  
G01 X-2.8791 Y1.5240  
G01 X-2.8791 Y1.4392  
G01 X-2.8790 Y1.4383  
G01 X-2.8791 Y1.4366  
G01 X-2.8791 Y1.4348  
G01 X-2.8793 Y1.4339  
G01 X-2.8793 Y1.4330  
G01 X-2.8798 Y1.4313  
G01 X-2.8801 Y1.4296  
G01 X-2.8805 Y1.4287  
G01 X-2.8808 Y1.4278  
G01 X-2.8815 Y1.4262  
G01 X-2.8822 Y1.4246  
G01 X-2.8827 Y1.4239  
G01 X-2.8831 Y1.4230  
G01 X-2.8842 Y1.4216  
G01 X-2.8852 Y1.4202  
G01 X-2.8858 Y1.4195  
G01 X-2.8864 Y1.4188  
G01 X-2.8877 Y1.4176  
G01 X-2.8889 Y1.4164  
G01 X-2.8897 Y1.4159  
G01 X-3.0355 Y1.2889  
G01 X-3.0540 Y1.1315  
G01 X-3.0540 Y1.1311  
G01 X-3.0543 Y1.1289  
G01 X-3.0546 Y1.1267  
G01 X-3.0547 Y1.1263  
G01 X-3.0548 Y1.1258  
G01 X-3.0556 Y1.1237  
G01 X-3.0562 Y1.1216  
G01 X-3.0565 Y1.1212  
G01 X-3.1216 Y0.9403  
G01 X-3.1216 Y0.8376  
G01 X-3.1026 Y0.7384  
G01 X-2.3374 Y0.7384  
G01 X-2.3360 Y0.7420  
G01 X-2.3524 Y0.7730  
G01 X-2.3535 Y0.7747  
G01 X-2.3537 Y0.7753  
G01 X-2.3540 Y0.7759  
G01 X-2.3546 Y0.7779  
G01 X-2.3552 Y0.7798  
G01 X-2.3629 Y0.7875  
G01 X-2.3629 Y0.8147  
G01 X-2.3436 Y0.8340  
G01 X-2.3164 Y0.8340  
G01 X-2.2971 Y0.8147  
G01 X-2.2971 Y0.7875  
G01 X-2.2981 Y0.7864  
G01 X-2.2973 Y0.7848  
G01 X-2.2968 Y0.7851  
G01 X-2.2954 Y0.7859  
G01 X-2.2944 Y0.7863  
G01 X-2.2935 Y0.7867  
G01 X-2.2919 Y0.7872  
G01 X-2.2903 Y0.7877  
G01 X-2.2893 Y0.7879  
G01 X-2.2884 Y0.7881  
G01 X-2.2867 Y0.7883  
G01 X-2.2851 Y0.7885  
G01 X-2.2840 Y0.7884  
G01 X-2.2830 Y0.7885  
G01 X-2.2814 Y0.7883  
G01 X-2.1100 Y0.7797  
G01 X-2.1046 Y0.7851  
G01 X-2.0754 Y0.7851  
G01 X-2.0591 Y0.7688  
G01 X-2.0212 Y0.7503  
G01 X-2.0206 Y0.7501  
G01 X-2.0200 Y0.7498  
G01 X-2.0194 Y0.7496  
G01 X-2.0182 Y0.7488  
G01 X-2.0169 Y0.7482  
G01 X-2.0164 Y0.7478  
G01 X-2.0159 Y0.7476  
G01 X-2.0154 Y0.7471  
G01 X-2.0148 Y0.7468  
G01 X-2.0138 Y0.7458  
G01 X-2.0127 Y0.7450  
G01 X-2.0123 Y0.7445  
G01 X-2.0118 Y0.7441  
G01 X-2.0114 Y0.7436  
G01 X-2.0109 Y0.7431  
G01 X-2.0101 Y0.7420  
G01 X-2.0091 Y0.7410  
G01 X-2.0088 Y0.7404  
G01 X-2.0084 Y0.7400  
G01 X-2.0081 Y0.7394  
G01 X-1.9996 Y0.7276  
G01 X-1.9982 Y0.7259  
G01 X-1.9980 Y0.7255  
G01 X-1.9977 Y0.7251  
G01 X-1.9968 Y0.7231  
G01 X-1.9958 Y0.7211  
G01 X-1.9957 Y0.7206  
G01 X-1.9955 Y0.7202  
G01 X-1.8576 Y0.6384  
G01 X-1.0867 Y0.6384  
G01 X-1.0459 Y0.7190  
G01 X-1.0459 Y0.8043  
G01 X-1.0460 Y0.8062  
G01 X-1.0459 Y0.8070  
G01 X-1.0459 Y0.8077  
G01 X-1.0455 Y0.8096  
G01 X-1.0452 Y0.8115  
G01 X-1.0450 Y0.8122  
G01 X-1.0449 Y0.8129  
G01 X-1.0441 Y0.8147  
G01 X-1.0435 Y0.8166  
G01 X-1.0431 Y0.8172  
G01 X-1.0428 Y0.8179  
G01 X-1.0417 Y0.8195  
G01 X-1.0407 Y0.8212  
G01 X-1.0402 Y0.8217  
G01 X-1.0398 Y0.8223  
G01 X-1.0385 Y0.8237  
G01 X-1.0371 Y0.8251  
G01 X-1.0366 Y0.8256  
G01 X-1.0361 Y0.8261  
G01 X-1.0344 Y0.8272  
G01 X-0.9178 Y0.9143  
G01 X-0.9173 Y0.9148  
G01 X-0.9157 Y0.9159  
G01 X-0.9141 Y0.9171  
G01 X-0.9135 Y0.9174  
G01 X-0.9129 Y0.9178  
G01 X-0.9111 Y0.9186  
G01 X-0.9093 Y0.9194  
G01 X-0.9086 Y0.9196  
G01 X-0.9079 Y0.9199  
G01 X-0.9060 Y0.9202  
G01 X-0.9041 Y0.9207  
G01 X-0.9034 Y0.9208  
G01 X-0.9027 Y0.9209  
G01 X-0.9007 Y0.9209  
G01 X-0.8988 Y0.9210  
G01 X-0.8980 Y0.9209  
G01 X-0.5760 Y0.9209  
G01 X-0.5637 Y0.9331  
G01 X-0.5552 Y0.9331  
G01 X-0.3898 Y1.0986  
G01 X-0.3884 Y1.1000  
G01 X-0.5052 Y1.2169  
G01 X-0.5137 Y1.2169  
G01 X-0.5331 Y1.2363  
G01 X-0.5331 Y1.2637  
G01 X-0.5271 Y1.2697  
G01 X-0.5271 Y1.3291  
G01 X-0.6839 Y1.3291  
G01 X-0.6892 Y1.3301  
G01 X-0.6937 Y1.3320  
G01 X-0.6983 Y1.3301  
G01 X-0.7036 Y1.3291  
G01 X-1.3121 Y1.3291  
G01 X-1.3145 Y1.3290  
G01 X-1.3148 Y1.3291  
G01 X-1.3152 Y1.3291  
G01 X-1.3174 Y1.3296  
G01 X-1.3197 Y1.3299  
G01 X-1.3201 Y1.3301  
G01 X-1.3204 Y1.3301  
G01 X-1.3226 Y1.3310  
G01 X-1.3247 Y1.3319  
G01 X-1.3250 Y1.3321  
G01 X-1.3254 Y1.3322  
G01 X-1.3273 Y1.3335  
G01 X-1.4841 Y1.4324  
G01 X-1.6443 Y1.4489  
G01 X-1.6507 Y1.3835  
G01 X-1.6221 Y1.3484  
G01 X-1.6076 Y1.3484  
G01 X-1.6064 Y1.3485  
G01 X-1.6050 Y1.3484  
G01 X-1.6036 Y1.3484  
G01 X-1.6023 Y1.3481  
G01 X-1.6010 Y1.3480  
G01 X-1.5997 Y1.3476  
G01 X-1.5983 Y1.3474  
G01 X-1.5971 Y1.3469  
G01 X-1.5959 Y1.3465  
G01 X-1.5947 Y1.3458  
G01 X-1.5934 Y1.3453  
G01 X-1.5923 Y1.3446  
G01 X-1.5100 Y1.3010  
G01 X-1.5091 Y1.3007  
G01 X-1.5077 Y1.2998  
G01 X-1.5062 Y1.2990  
G01 X-1.5054 Y1.2984  
G01 X-1.5046 Y1.2979  
G01 X-1.5034 Y1.2967  
G01 X-1.5020 Y1.2956  
G01 X-1.5014 Y1.2949  
G01 X-1.4826 Y1.2771  
G01 X-1.4814 Y1.2771  
G01 X-1.4788 Y1.2772  
G01 X-1.4786 Y1.2772  
G01 X-1.4761 Y1.2766  
G01 X-1.4735 Y1.2762  
G01 X-1.4734 Y1.2761  
G01 X-1.4710 Y1.2751  
G01 X-1.4686 Y1.2742  
G01 X-1.4684 Y1.2741  
G01 X-1.4663 Y1.2726  
G01 X-1.4641 Y1.2712  
G01 X-1.4640 Y1.2711  
G01 X-1.4621 Y1.2693  
G01 X-1.4603 Y1.2675  
G01 X-1.4602 Y1.2673  
G01 X-1.4587 Y1.2652  
G01 X-1.4573 Y1.2630  
G01 X-1.4572 Y1.2629  
G01 X-1.4562 Y1.2605  
G01 X-1.4552 Y1.2581  
G01 X-1.4552 Y1.2579  
G01 X-1.4546 Y1.2554  
G01 X-1.4541 Y1.2529  
G01 X-1.4541 Y1.2527  
G01 X-1.4541 Y1.2501  
G01 X-1.4541 Y1.2475  
G01 X-1.4541 Y1.2474  
G01 X-1.4546 Y1.2448  
G01 X-1.4551 Y1.2423  
G01 X-1.4551 Y1.2421  
G01 X-1.4561 Y1.2397  
G01 X-1.4571 Y1.2373  
G01 X-1.4572 Y1.2372  
G01 X-1.4582 Y1.2356  
G01 X-1.4582 Y1.2264  
G01 X-1.4767 Y1.2079  
G01 X-1.4869 Y1.1926  
G01 X-1.5313 Y1.0714  
G01 X-1.5314 Y1.0708  
G01 X-1.5322 Y1.0689  
G01 X-1.5329 Y1.0669  
G01 X-1.5332 Y1.0664  
G01 X-1.5334 Y1.0659  
G01 X-1.5346 Y1.0641  
G01 X-1.5357 Y1.0623  
G01 X-1.5361 Y1.0619  
G01 X-1.5364 Y1.0614  
G01 X-1.5379 Y1.0600  
G01 X-1.5393 Y1.0584  
G01 X-1.5398 Y1.0581  
G01 X-1.5402 Y1.0577  
G01 X-1.5419 Y1.0565  
G01 X-1.5437 Y1.0552  
G01 X-1.5442 Y1.0550  
G01 X-1.5446 Y1.0547  
G01 X-1.5466 Y1.0539  
G01 X-1.5485 Y1.0530  
G01 X-1.5491 Y1.0529  
G01 X-1.5496 Y1.0526  
G01 X-1.5517 Y1.0522  
G01 X-1.5537 Y1.0517  
G01 X-1.5543 Y1.0517  
G01 X-1.5548 Y1.0516  
G01 X-1.5569 Y1.0516  
G01 X-1.5590 Y1.0515  
G01 X-1.5596 Y1.0516  
G01 X-1.5752 Y1.0480  
G01 X-1.5863 Y1.0369  
G01 X-1.6137 Y1.0369  
G01 X-1.6331 Y1.0563  
G01 X-1.6331 Y1.0837  
G01 X-1.6137 Y1.1031  
G01 X-1.5863 Y1.1031  
G01 X-1.5846 Y1.1015  
G01 X-1.5775 Y1.1032  
G01 X-1.5375 Y1.2123  
G01 X-1.5374 Y1.2129  
G01 X-1.5366 Y1.2149  
G01 X-1.5358 Y1.2168  
G01 X-1.5355 Y1.2173  
G01 X-1.5353 Y1.2178  
G01 X-1.5341 Y1.2196  
G01 X-1.5330 Y1.2214  
G01 X-1.5327 Y1.2218  
G01 X-1.5240 Y1.2348  
G01 X-1.5240 Y1.2416  
G01 X-1.5372 Y1.2540  
G01 X-1.6130 Y1.2941  
G01 X-1.6337 Y1.2941  
G01 X-1.6351 Y1.2940  
G01 X-1.6364 Y1.2941  
G01 X-1.6377 Y1.2941  
G01 X-1.6390 Y1.2944  
G01 X-1.6404 Y1.2945  
G01 X-1.6417 Y1.2949  
G01 X-1.6429 Y1.2951  
G01 X-1.6442 Y1.2957  
G01 X-1.6455 Y1.2961  
G01 X-1.6467 Y1.2967  
G01 X-1.6479 Y1.2972  
G01 X-1.6490 Y1.2980  
G01 X-1.6502 Y1.2986  
G01 X-1.6512 Y1.2994  
G01 X-1.6523 Y1.3002  
G01 X-1.6533 Y1.3011  
G01 X-1.6544 Y1.3020  
G01 X-1.6552 Y1.3030  
G01 X-1.6561 Y1.3039  
G01 X-1.6569 Y1.3051  
G01 X-1.6998 Y1.3578  
G01 X-1.7014 Y1.3598  
G01 X-1.7015 Y1.3599  
G01 X-1.7027 Y1.3622  
G01 X-1.7039 Y1.3645  
G01 X-1.7040 Y1.3647  
G01 X-1.7047 Y1.3671  
G01 X-1.7055 Y1.3696  
G01 X-1.7055 Y1.3698  
G01 X-1.7058 Y1.3724  
G01 X-1.7060 Y1.3749  
G01 X-1.7060 Y1.3751  
G01 X-1.7058 Y1.3777  
G01 X-1.6960 Y1.4788  
G01 X-1.6959 Y1.4801  
G01 X-1.6959 Y1.5792  
G01 X-1.6960 Y1.5798  
G01 X-1.6959 Y1.5818  
G01 X-1.6959 Y1.5839  
G01 X-1.6958 Y1.5845  
G01 X-1.6958 Y1.5851  
G01 X-1.6953 Y1.5871  
G01 X-1.6949 Y1.5892  
G01 X-1.6946 Y1.5897  
G01 X-1.6945 Y1.5903  
G01 X-1.6936 Y1.5922  
G01 X-1.6931 Y1.5933  
G01 X-1.6931 Y1.6137  
G01 X-1.6834 Y1.6235  
G01 X-1.6834 Y1.6416  
G01 X-2.0063 Y1.6416  
G01 X-1.9534 Y1.5831  
G01 X-1.9463 Y1.5831  
G01 X-1.9269 Y1.5637  
G01 X-1.9269 Y1.5363  
G01 X-1.9463 Y1.5169  
G01 X-1.9737 Y1.5169  
G01 X-1.9931 Y1.5363  
G01 X-1.9931 Y1.5462  
G01 X-2.0742 Y1.6356  
G01 X-2.1495 Y1.6869  
G01 X-2.1637 Y1.6869  
G01 X-2.1831 Y1.7063  
G01 X-2.1831 Y1.7337  
G01 X-2.1637 Y1.7531  
G01 X-2.1363 Y1.7531  
G01 X-2.1169 Y1.7337  
G01 X-2.1169 Y1.7303  
G01 X-2.0592 Y1.6911  
G01 X-2.0566 Y1.6928  
G01 X-2.0517 Y1.6949  
G01 X-2.0464 Y1.6959  
G01 X-1.6834 Y1.6959  
G01 X-1.6834 Y1.7464  
G01 X-1.6824 Y1.7517  
G01 X-1.6803 Y1.7566  
G01 X-1.6773 Y1.7611  
G01 X-1.6331 Y1.8052  
G01 X-1.6331 Y1.8137  
G01 X-1.6137 Y1.8331  
G01 X-1.5863 Y1.8331  
G01 X-1.5669 Y1.8137  
G01 X-1.5669 Y1.7863  
G01 X-1.5863 Y1.7669  
G01 X-1.5948 Y1.7669  
G01 X-1.6291 Y1.7325  
G01 X-1.6291 Y1.6160  
G01 X-1.6269 Y1.6137  
G01 X-1.6269 Y1.5863  
G01 X-1.6416 Y1.5715  
G01 X-1.6416 Y1.5032  
G01 X-1.4740 Y1.4859  
G01 X-1.4730 Y1.4860  
G01 X-1.4713 Y1.4857  
G01 X-1.4696 Y1.4855  
G01 X-1.4687 Y1.4852  
G01 X-1.4678 Y1.4851  
G01 X-1.4661 Y1.4844  
G01 X-1.4644 Y1.4839  
G01 X-1.4636 Y1.4835  
G01 X-1.4628 Y1.4831  
G01 X-1.4613 Y1.4822  
G01 X-1.4597 Y1.4814  
G01 X-1.4590 Y1.4808  
G01 X-1.3047 Y1.3834  
G01 X-0.7468 Y1.3834  
G01 X-0.7545 Y1.3911  
G01 X-0.7597 Y1.3921  
G01 X-0.7657 Y1.3946  
G01 X-0.7711 Y1.3983  
G01 X-0.7757 Y1.4029  
G01 X-0.7794 Y1.4083  
G01 X-0.7819 Y1.4143  
G01 X-0.7831 Y1.4207  
G01 X-0.7831 Y1.4793  
G01 X-0.7819 Y1.4857  
G01 X-0.7794 Y1.4917  
G01 X-0.7757 Y1.4971  
G01 X-0.7711 Y1.5017  
G01 X-0.7657 Y1.5054  
G01 X-0.7597 Y1.5079  
G01 X-0.7533 Y1.5091  
G01 X-0.7467 Y1.5091  
G01 X-0.7403 Y1.5079  
G01 X-0.7343 Y1.5054  
G01 X-0.7289 Y1.5017  
G01 X-0.7243 Y1.4971  
G01 X-0.7206 Y1.4917  
G01 X-0.7181 Y1.4857  
G01 X-0.7169 Y1.4793  
G01 X-0.7169 Y1.4302  
G01 X-0.6764 Y1.3898  
G01 X-0.6727 Y1.3861  
G01 X-0.6700 Y1.3834  
G01 X-0.5271 Y1.3834  
G01 X-0.5271 Y1.4050  
G01 X-0.5294 Y1.4083  
G01 X-0.5319 Y1.4143  
G01 X-0.5331 Y1.4207  
G01 X-0.5331 Y1.4648  
G01 X-0.5334 Y1.4661  
G01 X-0.5334 Y1.4670  
G01 X-0.5335 Y1.4680  
G01 X-0.5334 Y1.4697  
G01 X-0.5334 Y1.8931  
G01 X-0.6519 Y2.0023  
G01 X-0.6610 Y2.0103  
G01 X-0.6625 Y2.0114  
G01 X-0.6630 Y2.0120  
G01 X-0.6636 Y2.0126  
G01 X-0.6648 Y2.0141  
G01 X-0.6660 Y2.0155  
G01 X-0.6664 Y2.0162  
G01 X-0.6669 Y2.0168  
G01 X-0.6677 Y2.0185  
G01 X-0.6687 Y2.0201  
G01 X-0.6689 Y2.0209  
G01 X-0.6693 Y2.0216  
G01 X-0.6696 Y2.0227  
G01 X-0.6831 Y2.0363  
G01 X-0.6831 Y2.0637  
G01 X-0.6675 Y2.0794  
G01 X-0.6471 Y2.1302  
G01 X-0.6471 Y2.1373  
G01 X-0.6472 Y2.1398  
G01 X-0.6471 Y2.1400  
G01 X-0.6471 Y2.1402  
G01 X-0.6467 Y2.1426  
G01 X-0.6462 Y2.1451  
G01 X-0.6461 Y2.1453  
G01 X-0.6461 Y2.1454  
G01 X-0.6451 Y2.1477  
G01 X-0.6307 Y2.1838  
G01 X-0.6331 Y2.1863  
G01 X-0.6331 Y2.2137  
G01 X-0.6137 Y2.2331  
G01 X-0.5863 Y2.2331  
G01 X-0.5669 Y2.2137  
G01 X-0.5669 Y2.1863  
G01 X-0.5741 Y2.1790  
G01 X-0.5749 Y2.1773  
G01 X-0.5856 Y2.1505  
G01 X-0.4294 Y2.1427  
G01 X-0.3940 Y2.1781  
G01 X-0.3961 Y2.1914  
G01 X-0.4160 Y2.1914  
G01 X-0.4386 Y2.2140  
G01 X-0.4386 Y2.2460  
G01 X-0.4160 Y2.2686  
G01 X-0.3840 Y2.2686  
G01 X-0.3738 Y2.2585  
G01 X-0.3736 Y2.2585  
G01 X-0.3725 Y2.2583  
G01 X-0.3713 Y2.2583  
G01 X-0.3698 Y2.2579  
G01 X-0.3684 Y2.2577  
G01 X-0.3672 Y2.2573  
G01 X-0.3661 Y2.2570  
G01 X-0.3647 Y2.2564  
G01 X-0.3633 Y2.2559  
G01 X-0.3623 Y2.2553  
G01 X-0.3612 Y2.2548  
G01 X-0.3600 Y2.2539  
G01 X-0.3587 Y2.2532  
G01 X-0.3579 Y2.2524  
G01 X-0.3569 Y2.2517  
G01 X-0.3559 Y2.2506  
G01 X-0.3548 Y2.2496  
G01 X-0.3541 Y2.2486  
G01 X-0.3533 Y2.2477  
G01 X-0.3525 Y2.2465  
G01 X-0.3516 Y2.2453  
G01 X-0.3511 Y2.2442  
G01 X-0.3505 Y2.2432  
G01 X-0.3500 Y2.2418  
G01 X-0.3493 Y2.2404  
G01 X-0.3490 Y2.2393  
G01 X-0.3486 Y2.2382  
G01 X-0.3484 Y2.2367  
G01 X-0.3480 Y2.2352  
G01 X-0.3480 Y2.2341  
G01 X-0.3383 Y2.1735  
G01 X-0.3379 Y2.1714  
G01 X-0.3379 Y2.1709  
G01 X-0.3378 Y2.1704  
G01 X-0.3379 Y2.1682  
G01 X-0.3379 Y2.1661  
G01 X-0.3380 Y2.1656  
G01 X-0.3380 Y2.1651  
G01 X-0.3385 Y2.1630  
G01 X-0.3389 Y2.1608  
G01 X-0.3391 Y2.1604  
G01 X-0.3392 Y2.1599  
G01 X-0.3401 Y2.1579  
G01 X-0.3409 Y2.1559  
G01 X-0.3412 Y2.1555  
G01 X-0.3414 Y2.1550  
G01 X-0.3427 Y2.1532  
G01 X-0.3439 Y2.1514  
G01 X-0.3443 Y2.1511  
G01 X-0.3446 Y2.1507  
G01 X-0.3462 Y2.1492  
G01 X-0.3981 Y2.0972  
G01 X-0.3985 Y2.0967  
G01 X-0.4000 Y2.0953  
G01 X-0.4014 Y2.0939  
G01 X-0.4020 Y2.0935  
G01 X-0.4025 Y2.0931  
G01 X-0.4042 Y2.0921  
G01 X-0.4059 Y2.0909  
G01 X-0.4065 Y2.0907  
G01 X-0.4071 Y2.0903  
G01 X-0.4090 Y2.0897  
G01 X-0.4108 Y2.0889  
G01 X-0.4115 Y2.0888  
G01 X-0.4121 Y2.0885  
G01 X-0.4141 Y2.0882  
G01 X-0.4161 Y2.0879  
G01 X-0.4168 Y2.0879  
G01 X-0.4174 Y2.0878  
G01 X-0.4194 Y2.0879  
G01 X-0.4214 Y2.0879  
G01 X-0.4221 Y2.0880  
G01 X-0.6020 Y2.0969  
G01 X-0.6169 Y2.0598  
G01 X-0.6169 Y2.0438  
G01 X-0.6156 Y2.0427  
G01 X-0.6139 Y2.0412  
G01 X-0.6136 Y2.0409  
G01 X-0.4894 Y1.9264  
G01 X-0.4889 Y1.9261  
G01 X-0.4879 Y1.9251  
G01 X-0.4868 Y1.9241  
G01 X-0.4864 Y1.9236  
G01 X-0.4859 Y1.9232  
G01 X-0.4856 Y1.9227  
G01 X-0.4852 Y1.9223  
G01 X-0.4844 Y1.9211  
G01 X-0.4834 Y1.9200  
G01 X-0.4831 Y1.9194  
G01 X-0.4827 Y1.9188  
G01 X-0.4825 Y1.9183  
G01 X-0.4822 Y1.9179  
G01 X-0.4816 Y1.9165  
G01 X-0.4810 Y1.9152  
G01 X-0.4808 Y1.9146  
G01 X-0.4805 Y1.9140  
G01 X-0.4804 Y1.9134  
G01 X-0.4801 Y1.9129  
G01 X-0.4799 Y1.9115  
G01 X-0.4697 Y1.8768  
G01 X-0.3369 Y1.9258  
G01 X-0.1984 Y2.0102  
G01 X-0.1984 Y2.2213  
G01 X-0.4075 Y2.4304  
G01 X-0.4681 Y2.4304  
G01 X-0.4689 Y2.4302  
G01 X-0.4708 Y2.4304  
G01 X-0.4727 Y2.4304  
G01 X-0.4734 Y2.4305  
G01 X-0.4742 Y2.4305  
G01 X-0.4761 Y2.4310  
G01 X-0.4779 Y2.4314  
G01 X-0.4786 Y2.4317  
G01 X-0.4794 Y2.4319  
G01 X-0.4811 Y2.4327  
G01 X-0.4829 Y2.4334  
G01 X-0.4835 Y2.4339  
G01 X-0.4842 Y2.4342  
G01 X-0.4857 Y2.4354  
G01 X-0.4873 Y2.4364  
G01 X-0.4879 Y2.4370  
G01 X-0.5672 Y2.4967  
G01 X-0.5689 Y2.4980  
G01 X-0.5693 Y2.4983  
G01 X-0.5697 Y2.4987  
G01 X-0.5711 Y2.5003  
G01 X-0.5726 Y2.5018  
G01 X-0.5729 Y2.5023  
G01 X-0.5733 Y2.5027  
G01 X-0.5744 Y2.5045  
G01 X-0.5755 Y2.5063  
G01 X-0.5757 Y2.5068  
G01 X-0.5760 Y2.5073  
G01 X-0.5767 Y2.5093  
G01 X-0.5775 Y2.5113  
G01 X-0.5776 Y2.5118  
G01 X-0.5778 Y2.5123  
G01 X-0.5781 Y2.5144  
G01 X-0.5784 Y2.5165  
G01 X-0.5784 Y2.5171  
G01 X-0.5785 Y2.5176  
G01 X-0.5784 Y2.5197  
G01 X-0.5784 Y2.5219  
G01 X-0.5782 Y2.5224  
G01 X-0.5782 Y2.5230  
G01 X-0.5777 Y2.5250  
G01 X-0.5581 Y2.6156  
G01 X-0.5579 Y2.6169  
G01 X-0.5575 Y2.6182  
G01 X-0.5572 Y2.6196  
G01 X-0.5567 Y2.6208  
G01 X-0.5563 Y2.6220  
G01 X-0.5557 Y2.6232  
G01 X-0.5551 Y2.6245  
G01 X-0.5544 Y2.6256  
G01 X-0.5538 Y2.6267  
G01 X-0.5529 Y2.6277  
G01 X-0.5520 Y2.6289  
G01 X-0.5511 Y2.6298  
G01 X-0.5503 Y2.6308  
G01 X-0.5492 Y2.6316  
G01 X-0.5482 Y2.6326  
G01 X-0.5471 Y2.6333  
G01 X-0.5461 Y2.6341  
G01 X-0.5449 Y2.6348  
G01 X-0.5437 Y2.6355  
G01 X-0.5425 Y2.6360  
G01 X-0.4941 Y2.6611  
G01 X-0.4941 Y2.6683  
G01 X-0.4683 Y2.6941  
G01 X-0.4317 Y2.6941  
G01 X-0.4147 Y2.6771  
G01 X-0.3853 Y2.6771  
G01 X-0.3771 Y2.6853  
G01 X-0.3771 Y2.7147  
G01 X-0.3790 Y2.7166  
G01 X-0.4210 Y2.7166  
G01 X-0.4317 Y2.7059  
G01 X-0.4683 Y2.7059  
G01 X-0.4941 Y2.7317  
G01 X-0.4941 Y2.7558  
G01 X-0.5112 Y2.7729  
G01 X-0.9803 Y2.7729  
G01 X-0.9863 Y2.7669  
G01 X-1.0137 Y2.7669  
G01 X-1.0331 Y2.7863  
G01 X-1.0331 Y2.8137  
G01 X-1.0137 Y2.8331  
G01 X-0.9863 Y2.8331  
G01 X-0.9803 Y2.8271  
G01 X-0.5112 Y2.8271  
G01 X-0.4941 Y2.8442  
G01 X-0.4941 Y2.8683  
G01 X-0.4683 Y2.8941  
G01 X-0.4317 Y2.8941  
G01 X-0.4147 Y2.8771  
G01 X-0.3853 Y2.8771  
G01 X-0.3683 Y2.8941  
G01 X-0.3317 Y2.8941  
G01 X-0.3059 Y2.8683  
G01 X-0.3059 Y2.8317  
G01 X-0.3317 Y2.8059  
G01 X-0.3683 Y2.8059  
G01 X-0.3853 Y2.8229  
G01 X-0.4147 Y2.8229  
G01 X-0.4317 Y2.8059  
G01 X-0.4558 Y2.8059  
G01 X-0.4616 Y2.8000  
G01 X-0.4558 Y2.7941  
G01 X-0.4317 Y2.7941  
G01 X-0.4085 Y2.7709  
G01 X-0.3915 Y2.7709  
G01 X-0.3683 Y2.7941  
G01 X-0.3317 Y2.7941  
G01 X-0.3059 Y2.7683  
G01 X-0.3059 Y2.7317  
G01 X-0.3229 Y2.7147  
G01 X-0.3229 Y2.6853  
G01 X-0.3059 Y2.6683  
G01 X-0.3059 Y2.6317  
G01 X-0.3317 Y2.6059  
G01 X-0.3683 Y2.6059  
G01 X-0.3853 Y2.6229  
G01 X-0.4147 Y2.6229  
G01 X-0.4317 Y2.6059  
G01 X-0.4683 Y2.6059  
G01 X-0.4732 Y2.6108  
G01 X-0.5074 Y2.5930  
G01 X-0.5210 Y2.5300  
G01 X-0.4609 Y2.4846  
G01 X-0.3936 Y2.4846  
G01 X-0.3883 Y2.4836  
G01 X-0.3834 Y2.4816  
G01 X-0.3789 Y2.4786  
G01 X-0.1539 Y2.2536  
G01 X-0.1502 Y2.2498  
G01 X-0.1472 Y2.2454  
G01 X-0.1451 Y2.2404  
G01 X-0.1441 Y2.2352  
G01 X-0.1441 Y1.9971  
G01 X-0.1440 Y1.9965  
G01 X-0.1441 Y1.9944  
G01 X-0.1441 Y1.9923  
G01 X-0.1442 Y1.9918  
G01 X-0.1442 Y1.9912  
G01 X-0.1447 Y1.9892  
G01 X-0.1451 Y1.9871  
G01 X-0.1454 Y1.9866  
G01 X-0.1455 Y1.9860  
G01 X-0.1464 Y1.9841  
G01 X-0.1472 Y1.9821  
G01 X-0.1475 Y1.9817  
G01 X-0.1477 Y1.9812  
G01 X-0.1490 Y1.9794  
G01 X-0.1502 Y1.9777  
G01 X-0.1506 Y1.9773  
G01 X-0.1509 Y1.9768  
G01 X-0.1525 Y1.9754  
G01 X-0.1539 Y1.9739  
G01 X-0.1544 Y1.9736  
G01 X-0.1548 Y1.9732  
G01 X-0.1566 Y1.9721  
G01 X-0.1584 Y1.9709  
G01 X-0.1589 Y1.9707  
G01 X-0.3108 Y1.8781  
G01 X-0.3131 Y1.8767  
G01 X-0.3156 Y1.8758  
G01 X-0.4765 Y1.8164  
G01 X-0.4773 Y1.8160  
G01 X-0.4790 Y1.8155  
G01 X-0.4791 Y1.8154  
G01 X-0.4791 Y1.5019  
G01 X-0.4789 Y1.5017  
G01 X-0.4743 Y1.4971  
G01 X-0.4706 Y1.4917  
G01 X-0.4681 Y1.4857  
G01 X-0.4669 Y1.4793  
G01 X-0.4669 Y1.4207  
G01 X-0.4681 Y1.4143  
G01 X-0.4706 Y1.4083  
G01 X-0.4729 Y1.4050  
G01 X-0.4729 Y1.2697  
G01 X-0.4669 Y1.2637  
G01 X-0.4669 Y1.2552  
G01 X-0.3289 Y1.1173  
G01 X-0.3259 Y1.1129  
G01 X-0.3239 Y1.1079  
G01 X-0.3229 Y1.1027  
G01 X-0.3229 Y1.0697  
G01 X-0.3169 Y1.0637  
G01 X-0.3169 Y1.0363  
G01 X-0.3363 Y1.0169  
G01 X-0.3637 Y1.0169  
G01 X-0.3792 Y1.0324  
G01 X-0.5169 Y0.8948  
G01 X-0.5169 Y0.8863  
G00 Z0.0500  
G00 X-0.5137 Y1.0169  
G01 Z-0.0040 F10    
G01 X-0.5237 Y1.0269  F20    
G01 X-0.7023 Y1.0269  
G01 X-0.7068 Y1.0277  
G01 X-0.7110 Y1.0295  
G01 X-0.7148 Y1.0320  
G01 X-0.7496 Y1.0669  
G01 X-0.7637 Y1.0669  
G01 X-0.7831 Y1.0863  
G01 X-0.7831 Y1.1137  
G01 X-0.7637 Y1.1331  
G01 X-0.7363 Y1.1331  
G01 X-0.7169 Y1.1137  
G01 X-0.7169 Y1.0996  
G01 X-0.6904 Y1.0731  
G01 X-0.5237 Y1.0731  
G01 X-0.5137 Y1.0831  
G01 X-0.4863 Y1.0831  
G01 X-0.4669 Y1.0637  
G01 X-0.4669 Y1.0363  
G01 X-0.4863 Y1.0169  
G01 X-0.5137 Y1.0169  
G00 Z0.0500  
G00 X-0.3637 Y1.2169  
G01 Z-0.0040 F10    
G01 X-0.3831 Y1.2363  F20    
G01 X-0.3831 Y1.2637  
G01 X-0.3731 Y1.2737  
G01 X-0.3731 Y1.3779  
G01 X-0.3882 Y1.3930  
G01 X-0.3903 Y1.3921  
G01 X-0.3967 Y1.3909  
G01 X-0.4033 Y1.3909  
G01 X-0.4097 Y1.3921  
G01 X-0.4157 Y1.3946  
G01 X-0.4211 Y1.3983  
G01 X-0.4257 Y1.4029  
G01 X-0.4294 Y1.4083  
G01 X-0.4319 Y1.4143  
G01 X-0.4331 Y1.4207  
G01 X-0.4331 Y1.4793  
G01 X-0.4319 Y1.4857  
G01 X-0.4294 Y1.4917  
G01 X-0.4257 Y1.4971  
G01 X-0.4231 Y1.4997  
G01 X-0.4231 Y1.7263  
G01 X-0.4331 Y1.7363  
G01 X-0.4331 Y1.7637  
G01 X-0.4137 Y1.7831  
G01 X-0.3863 Y1.7831  
G01 X-0.3669 Y1.7637  
G01 X-0.3669 Y1.7363  
G01 X-0.3769 Y1.7263  
G01 X-0.3769 Y1.4997  
G01 X-0.3743 Y1.4971  
G01 X-0.3706 Y1.4917  
G01 X-0.3681 Y1.4857  
G01 X-0.3669 Y1.4793  
G01 X-0.3669 Y1.4371  
G01 X-0.3320 Y1.4023  
G01 X-0.3295 Y1.3985  
G01 X-0.3277 Y1.3943  
G01 X-0.3269 Y1.3898  
G01 X-0.3269 Y1.2737  
G01 X-0.3169 Y1.2637  
G01 X-0.3169 Y1.2363  
G01 X-0.3363 Y1.2169  
G01 X-0.3637 Y1.2169  
G00 Z0.0500  
G00 X-0.3211 Y1.3983  
G01 Z-0.0040 F10    
G01 X-0.3257 Y1.4029  F20    
G01 X-0.3294 Y1.4083  
G01 X-0.3319 Y1.4143  
G01 X-0.3331 Y1.4207  
G01 X-0.3331 Y1.4793  
G01 X-0.3319 Y1.4857  
G01 X-0.3294 Y1.4917  
G01 X-0.3257 Y1.4971  
G01 X-0.3231 Y1.4997  
G01 X-0.3231 Y1.8023  
G01 X-0.3223 Y1.8068  
G01 X-0.3205 Y1.8110  
G01 X-0.3180 Y1.8148  
G01 X-0.2831 Y1.8496  
G01 X-0.2831 Y1.8637  
G01 X-0.2637 Y1.8831  
G01 X-0.2363 Y1.8831  
G01 X-0.2169 Y1.8637  
G01 X-0.2169 Y1.8363  
G01 X-0.2363 Y1.8169  
G01 X-0.2504 Y1.8169  
G01 X-0.2769 Y1.7904  
G01 X-0.2769 Y1.4997  
G01 X-0.2743 Y1.4971  
G01 X-0.2706 Y1.4917  
G01 X-0.2681 Y1.4857  
G01 X-0.2669 Y1.4793  
G01 X-0.2669 Y1.4207  
G01 X-0.2681 Y1.4143  
G01 X-0.2706 Y1.4083  
G01 X-0.2743 Y1.4029  
G01 X-0.2789 Y1.3983  
G01 X-0.2843 Y1.3946  
G01 X-0.2903 Y1.3921  
G01 X-0.2967 Y1.3909  
G01 X-0.3033 Y1.3909  
G01 X-0.3097 Y1.3921  
G01 X-0.3157 Y1.3946  
G01 X-0.3211 Y1.3983  
G00 Z0.0500  
G00 X-0.6243 Y1.4029  
G01 Z-0.0040 F10    
G01 X-0.6289 Y1.3983  F20    
G01 X-0.6343 Y1.3946  
G01 X-0.6403 Y1.3921  
G01 X-0.6467 Y1.3909  
G01 X-0.6533 Y1.3909  
G01 X-0.6597 Y1.3921  
G01 X-0.6657 Y1.3946  
G01 X-0.6711 Y1.3983  
G01 X-0.6757 Y1.4029  
G01 X-0.6794 Y1.4083  
G01 X-0.6819 Y1.4143  
G01 X-0.6831 Y1.4207  
G01 X-0.6831 Y1.4793  
G01 X-0.6819 Y1.4857  
G01 X-0.6794 Y1.4917  
G01 X-0.6757 Y1.4971  
G01 X-0.6711 Y1.5017  
G01 X-0.6657 Y1.5054  
G01 X-0.6597 Y1.5079  
G01 X-0.6533 Y1.5091  
G01 X-0.6467 Y1.5091  
G01 X-0.6403 Y1.5079  
G01 X-0.6343 Y1.5054  
G01 X-0.6289 Y1.5017  
G01 X-0.6243 Y1.4971  
G01 X-0.6206 Y1.4917  
G01 X-0.6181 Y1.4857  
G01 X-0.6169 Y1.4793  
G01 X-0.6169 Y1.4207  
G01 X-0.6181 Y1.4143  
G01 X-0.6206 Y1.4083  
G01 X-0.6243 Y1.4029  
G00 Z0.0500  
G00 X-0.8243 Y1.4029  
G01 Z-0.0040 F10    
G01 X-0.8289 Y1.3983  F20    
G01 X-0.8343 Y1.3946  
G01 X-0.8403 Y1.3921  
G01 X-0.8467 Y1.3909  
G01 X-0.8533 Y1.3909  
G01 X-0.8597 Y1.3921  
G01 X-0.8657 Y1.3946  
G01 X-0.8711 Y1.3983  
G01 X-0.8757 Y1.4029  
G01 X-0.8794 Y1.4083  
G01 X-0.8819 Y1.4143  
G01 X-0.8831 Y1.4207  
G01 X-0.8831 Y1.4269  
G01 X-1.2690 Y1.4269  
G01 X-1.2700 Y1.4254  
G01 X-1.2754 Y1.4200  
G01 X-1.2817 Y1.4157  
G01 X-1.2887 Y1.4128  
G01 X-1.2962 Y1.4114  
G01 X-1.3038 Y1.4114  
G01 X-1.3113 Y1.4128  
G01 X-1.3183 Y1.4157  
G01 X-1.3246 Y1.4200  
G01 X-1.3300 Y1.4254  
G01 X-1.3343 Y1.4317  
G01 X-1.3372 Y1.4387  
G01 X-1.3386 Y1.4462  
G01 X-1.3386 Y1.4531  
G01 X-1.4191 Y1.4943  
G01 X-1.4210 Y1.4952  
G01 X-1.4211 Y1.4953  
G01 X-1.4213 Y1.4954  
G01 X-1.4230 Y1.4967  
G01 X-1.4246 Y1.4980  
G01 X-1.4247 Y1.4981  
G01 X-1.4249 Y1.4983  
G01 X-1.4262 Y1.4998  
G01 X-1.4276 Y1.5014  
G01 X-1.4277 Y1.5016  
G01 X-1.4279 Y1.5017  
G01 X-1.4289 Y1.5035  
G01 X-1.4299 Y1.5053  
G01 X-1.4300 Y1.5055  
G01 X-1.4301 Y1.5057  
G01 X-1.4307 Y1.5077  
G01 X-1.4314 Y1.5096  
G01 X-1.4314 Y1.5099  
G01 X-1.4315 Y1.5101  
G01 X-1.4317 Y1.5121  
G01 X-1.4320 Y1.5142  
G01 X-1.4320 Y1.5144  
G01 X-1.4320 Y1.5146  
G01 X-1.4318 Y1.5166  
G01 X-1.4219 Y1.6758  
G01 X-1.4219 Y1.6775  
G01 X-1.4218 Y1.6781  
G01 X-1.4217 Y1.6787  
G01 X-1.4213 Y1.6803  
G01 X-1.4210 Y1.6819  
G01 X-1.4207 Y1.6825  
G01 X-1.4205 Y1.6831  
G01 X-1.4198 Y1.6846  
G01 X-1.4192 Y1.6861  
G01 X-1.4188 Y1.6867  
G01 X-1.4185 Y1.6872  
G01 X-1.4175 Y1.6885  
G01 X-1.3757 Y1.7501  
G01 X-1.3747 Y1.7517  
G01 X-1.3744 Y1.7520  
G01 X-1.3741 Y1.7524  
G01 X-1.3728 Y1.7537  
G01 X-1.3716 Y1.7550  
G01 X-1.3712 Y1.7553  
G01 X-1.3709 Y1.7556  
G01 X-1.3693 Y1.7566  
G01 X-1.3679 Y1.7576  
G01 X-1.3674 Y1.7578  
G01 X-1.3670 Y1.7581  
G01 X-1.3654 Y1.7588  
G01 X-1.3637 Y1.7595  
G01 X-1.3633 Y1.7596  
G01 X-1.3628 Y1.7598  
G01 X-1.3610 Y1.7602  
G01 X-1.3593 Y1.7606  
G01 X-1.3588 Y1.7606  
G01 X-1.3583 Y1.7607  
G01 X-1.3565 Y1.7607  
G01 X-1.0593 Y1.7704  
G01 X-0.9535 Y1.8667  
G01 X-0.9523 Y1.8680  
G01 X-0.9518 Y1.8683  
G01 X-0.9514 Y1.8686  
G01 X-0.9499 Y1.8695  
G01 X-0.9485 Y1.8705  
G01 X-0.9480 Y1.8707  
G01 X-0.9475 Y1.8710  
G01 X-0.9459 Y1.8716  
G01 X-0.9443 Y1.8723  
G01 X-0.9437 Y1.8724  
G01 X-0.9432 Y1.8725  
G01 X-0.9415 Y1.8728  
G01 X-0.9398 Y1.8731  
G01 X-0.9392 Y1.8731  
G01 X-0.9387 Y1.8732  
G01 X-0.9370 Y1.8731  
G01 X-0.8237 Y1.8731  
G01 X-0.8137 Y1.8831  
G01 X-0.7863 Y1.8831  
G01 X-0.7669 Y1.8637  
G01 X-0.7669 Y1.8363  
G01 X-0.7863 Y1.8169  
G01 X-0.8137 Y1.8169  
G01 X-0.8237 Y1.8269  
G01 X-0.9285 Y1.8269  
G01 X-1.0337 Y1.7310  
G01 X-1.0347 Y1.7300  
G01 X-1.0354 Y1.7295  
G01 X-1.0361 Y1.7289  
G01 X-1.0373 Y1.7281  
G01 X-1.0384 Y1.7274  
G01 X-1.0392 Y1.7270  
G01 X-1.0400 Y1.7265  
G01 X-1.0413 Y1.7260  
G01 X-1.0425 Y1.7255  
G01 X-1.0434 Y1.7253  
G01 X-1.0443 Y1.7249  
G01 X-1.0456 Y1.7247  
G01 X-1.0470 Y1.7244  
G01 X-1.0479 Y1.7244  
G01 X-1.0488 Y1.7243  
G01 X-1.0502 Y1.7243  
G01 X-1.3437 Y1.7147  
G01 X-1.3760 Y1.6672  
G01 X-1.3847 Y1.5287  
G01 X-1.3058 Y1.4883  
G01 X-1.3038 Y1.4886  
G01 X-1.2962 Y1.4886  
G01 X-1.2887 Y1.4872  
G01 X-1.2817 Y1.4843  
G01 X-1.2754 Y1.4800  
G01 X-1.2700 Y1.4746  
G01 X-1.2690 Y1.4731  
G01 X-0.8831 Y1.4731  
G01 X-0.8831 Y1.4793  
G01 X-0.8819 Y1.4857  
G01 X-0.8794 Y1.4917  
G01 X-0.8757 Y1.4971  
G01 X-0.8711 Y1.5017  
G01 X-0.8657 Y1.5054  
G01 X-0.8597 Y1.5079  
G01 X-0.8533 Y1.5091  
G01 X-0.8467 Y1.5091  
G01 X-0.8403 Y1.5079  
G01 X-0.8343 Y1.5054  
G01 X-0.8289 Y1.5017  
G01 X-0.8243 Y1.4971  
G01 X-0.8206 Y1.4917  
G01 X-0.8181 Y1.4857  
G01 X-0.8169 Y1.4793  
G01 X-0.8169 Y1.4207  
G01 X-0.8181 Y1.4143  
G01 X-0.8206 Y1.4083  
G01 X-0.8243 Y1.4029  
G00 Z0.0500  
G00 X-0.8248 Y1.5306  
G01 Z-0.0040 F10    
G01 X-0.8265 Y1.5295  F20    
G01 X-0.8267 Y1.5294  
G01 X-0.8269 Y1.5293  
G01 X-0.8289 Y1.5285  
G01 X-0.8307 Y1.5277  
G01 X-0.8310 Y1.5277  
G01 X-0.8312 Y1.5276  
G01 X-0.8332 Y1.5273  
G01 X-0.8352 Y1.5269  
G01 X-0.8355 Y1.5269  
G01 X-0.8357 Y1.5268  
G01 X-0.8377 Y1.5269  
G01 X-1.2685 Y1.5269  
G01 X-1.2840 Y1.5114  
G01 X-1.3160 Y1.5114  
G01 X-1.3386 Y1.5340  
G01 X-1.3386 Y1.5660  
G01 X-1.3231 Y1.5815  
G01 X-1.3231 Y1.6191  
G01 X-1.3252 Y1.6191  
G01 X-1.3278 Y1.6202  
G01 X-1.3298 Y1.6222  
G01 X-1.3309 Y1.6248  
G01 X-1.3309 Y1.6752  
G01 X-1.3298 Y1.6778  
G01 X-1.3278 Y1.6798  
G01 X-1.3252 Y1.6809  
G01 X-1.2748 Y1.6809  
G01 X-1.2722 Y1.6798  
G01 X-1.2702 Y1.6778  
G01 X-1.2691 Y1.6752  
G01 X-1.2691 Y1.6248  
G01 X-1.2702 Y1.6222  
G01 X-1.2722 Y1.6202  
G01 X-1.2748 Y1.6191  
G01 X-1.2769 Y1.6191  
G01 X-1.2769 Y1.5815  
G01 X-1.2685 Y1.5731  
G01 X-0.8443 Y1.5731  
G01 X-0.6099 Y1.7232  
G01 X-0.6013 Y1.8652  
G01 X-0.6854 Y1.9407  
G01 X-0.8026 Y1.9595  
G01 X-0.8039 Y1.9596  
G01 X-0.8049 Y1.9598  
G01 X-0.8059 Y1.9600  
G01 X-0.8071 Y1.9604  
G01 X-0.8878 Y1.9825  
G01 X-0.8893 Y1.9827  
G01 X-0.8900 Y1.9831  
G01 X-0.8908 Y1.9833  
G01 X-0.8921 Y1.9839  
G01 X-0.8935 Y1.9845  
G01 X-0.8941 Y1.9849  
G01 X-0.8949 Y1.9853  
G01 X-0.8960 Y1.9862  
G01 X-0.8973 Y1.9870  
G01 X-0.8978 Y1.9876  
G01 X-0.8985 Y1.9881  
G01 X-0.8994 Y1.9892  
G01 X-0.9005 Y1.9902  
G01 X-0.9009 Y1.9909  
G01 X-0.9015 Y1.9915  
G01 X-0.9022 Y1.9928  
G01 X-0.9030 Y1.9940  
G01 X-0.9033 Y1.9948  
G01 X-0.9037 Y1.9955  
G01 X-0.9042 Y1.9969  
G01 X-0.9048 Y1.9982  
G01 X-0.9049 Y1.9990  
G01 X-0.9052 Y1.9998  
G01 X-0.9054 Y2.0013  
G01 X-0.9056 Y2.0027  
G01 X-0.9056 Y2.0035  
G01 X-0.9058 Y2.0043  
G01 X-0.9056 Y2.0058  
G01 X-0.9056 Y2.1136  
G01 X-0.9058 Y2.1144  
G01 X-0.9056 Y2.1159  
G01 X-0.9056 Y2.1173  
G01 X-0.9055 Y2.1181  
G01 X-0.9054 Y2.1190  
G01 X-0.9050 Y2.1204  
G01 X-0.9048 Y2.1218  
G01 X-0.9044 Y2.1225  
G01 X-0.9042 Y2.1234  
G01 X-0.9036 Y2.1246  
G01 X-0.9030 Y2.1260  
G01 X-0.9025 Y2.1267  
G01 X-0.9021 Y2.1275  
G01 X-0.9013 Y2.1286  
G01 X-0.9005 Y2.1298  
G01 X-0.8999 Y2.1304  
G01 X-0.8993 Y2.1310  
G01 X-0.8983 Y2.1320  
G01 X-0.8973 Y2.1330  
G01 X-0.8965 Y2.1335  
G01 X-0.8331 Y2.1881  
G01 X-0.8331 Y2.2137  
G01 X-0.8137 Y2.2331  
G01 X-0.7863 Y2.2331  
G01 X-0.7669 Y2.2137  
G01 X-0.7669 Y2.1863  
G01 X-0.7863 Y2.1669  
G01 X-0.7894 Y2.1669  
G01 X-0.7898 Y2.1660  
G01 X-0.7901 Y2.1656  
G01 X-0.7904 Y2.1650  
G01 X-0.7914 Y2.1637  
G01 X-0.7924 Y2.1623  
G01 X-0.7928 Y2.1619  
G01 X-0.7932 Y2.1615  
G01 X-0.7945 Y2.1603  
G01 X-0.7957 Y2.1591  
G01 X-0.7962 Y2.1588  
G01 X-0.8594 Y2.1044  
G01 X-0.8594 Y2.0227  
G01 X-0.7951 Y2.0052  
G01 X-0.6715 Y1.9854  
G01 X-0.6695 Y1.9851  
G01 X-0.6693 Y1.9850  
G01 X-0.6691 Y1.9850  
G01 X-0.6671 Y1.9843  
G01 X-0.6652 Y1.9836  
G01 X-0.6650 Y1.9835  
G01 X-0.6648 Y1.9834  
G01 X-0.6630 Y1.9823  
G01 X-0.6612 Y1.9813  
G01 X-0.6611 Y1.9811  
G01 X-0.6609 Y1.9810  
G01 X-0.6594 Y1.9796  
G01 X-0.5627 Y1.8929  
G01 X-0.5617 Y1.8921  
G01 X-0.5611 Y1.8913  
G01 X-0.5603 Y1.8907  
G01 X-0.5595 Y1.8896  
G01 X-0.5587 Y1.8886  
G01 X-0.5582 Y1.8878  
G01 X-0.5576 Y1.8871  
G01 X-0.5570 Y1.8859  
G01 X-0.5564 Y1.8847  
G01 X-0.5560 Y1.8838  
G01 X-0.5556 Y1.8829  
G01 X-0.5553 Y1.8817  
G01 X-0.5549 Y1.8804  
G01 X-0.5547 Y1.8794  
G01 X-0.5545 Y1.8785  
G01 X-0.5544 Y1.8772  
G01 X-0.5543 Y1.8759  
G01 X-0.5543 Y1.8749  
G01 X-0.5543 Y1.8740  
G01 X-0.5544 Y1.8727  
G01 X-0.5644 Y1.7091  
G01 X-0.5644 Y1.7073  
G01 X-0.5645 Y1.7068  
G01 X-0.5645 Y1.7063  
G01 X-0.5650 Y1.7046  
G01 X-0.5654 Y1.7028  
G01 X-0.5656 Y1.7024  
G01 X-0.5657 Y1.7019  
G01 X-0.5665 Y1.7003  
G01 X-0.5672 Y1.6986  
G01 X-0.5675 Y1.6982  
G01 X-0.5677 Y1.6978  
G01 X-0.5688 Y1.6964  
G01 X-0.5698 Y1.6949  
G01 X-0.5702 Y1.6946  
G01 X-0.5704 Y1.6942  
G01 X-0.5718 Y1.6930  
G01 X-0.5731 Y1.6917  
G01 X-0.5735 Y1.6915  
G01 X-0.5739 Y1.6912  
G01 X-0.5754 Y1.6902  
G01 X-0.8248 Y1.5306  
G00 Z0.0500  
G00 X-0.8289 Y1.5983  
G01 Z-0.0040 F10    
G01 X-0.8343 Y1.5946  F20    
G01 X-0.8403 Y1.5921  
G01 X-0.8467 Y1.5909  
G01 X-0.8533 Y1.5909  
G01 X-0.8597 Y1.5921  
G01 X-0.8657 Y1.5946  
G01 X-0.8711 Y1.5983  
G01 X-0.8757 Y1.6029  
G01 X-0.8794 Y1.6083  
G01 X-0.8819 Y1.6143  
G01 X-0.8831 Y1.6207  
G01 X-0.8831 Y1.6793  
G01 X-0.8819 Y1.6857  
G01 X-0.8794 Y1.6917  
G01 X-0.8757 Y1.6971  
G01 X-0.8711 Y1.7017  
G01 X-0.8657 Y1.7054  
G01 X-0.8597 Y1.7079  
G01 X-0.8533 Y1.7091  
G01 X-0.8467 Y1.7091  
G01 X-0.8403 Y1.7079  
G01 X-0.8343 Y1.7054  
G01 X-0.8289 Y1.7017  
G01 X-0.8243 Y1.6971  
G01 X-0.8206 Y1.6917  
G01 X-0.8190 Y1.6877  
G01 X-0.7386 Y1.7266  
G01 X-0.6886 Y1.7568  
G01 X-0.6767 Y1.8299  
G01 X-0.6831 Y1.8363  
G01 X-0.6831 Y1.8637  
G01 X-0.6637 Y1.8831  
G01 X-0.6363 Y1.8831  
G01 X-0.6169 Y1.8637  
G01 X-0.6169 Y1.8363  
G01 X-0.6311 Y1.8220  
G01 X-0.6444 Y1.7401  
G01 X-0.6445 Y1.7392  
G01 X-0.6448 Y1.7379  
G01 X-0.6450 Y1.7365  
G01 X-0.6453 Y1.7357  
G01 X-0.6456 Y1.7347  
G01 X-0.6461 Y1.7335  
G01 X-0.6466 Y1.7323  
G01 X-0.6471 Y1.7315  
G01 X-0.6475 Y1.7306  
G01 X-0.6483 Y1.7295  
G01 X-0.6490 Y1.7284  
G01 X-0.6497 Y1.7277  
G01 X-0.6502 Y1.7269  
G01 X-0.6512 Y1.7260  
G01 X-0.6521 Y1.7250  
G01 X-0.6529 Y1.7245  
G01 X-0.6536 Y1.7239  
G01 X-0.6547 Y1.7232  
G01 X-0.6558 Y1.7224  
G01 X-0.6567 Y1.7220  
G01 X-0.7145 Y1.6871  
G01 X-0.7154 Y1.6864  
G01 X-0.7164 Y1.6859  
G01 X-0.7175 Y1.6853  
G01 X-0.7185 Y1.6849  
G01 X-0.8169 Y1.6373  
G01 X-0.8169 Y1.6207  
G01 X-0.8181 Y1.6143  
G01 X-0.8206 Y1.6083  
G01 X-0.8243 Y1.6029  
G01 X-0.8289 Y1.5983  
G00 Z0.0500  
G00 X-0.9243 Y1.6029  
G01 Z-0.0040 F10    
G01 X-0.9289 Y1.5983  F20    
G01 X-0.9343 Y1.5946  
G01 X-0.9403 Y1.5921  
G01 X-0.9467 Y1.5909  
G01 X-0.9533 Y1.5909  
G01 X-0.9597 Y1.5921  
G01 X-0.9657 Y1.5946  
G01 X-0.9711 Y1.5983  
G01 X-0.9757 Y1.6029  
G01 X-0.9794 Y1.6083  
G01 X-0.9819 Y1.6143  
G01 X-0.9831 Y1.6207  
G01 X-0.9831 Y1.6793  
G01 X-0.9819 Y1.6857  
G01 X-0.9794 Y1.6917  
G01 X-0.9757 Y1.6971  
G01 X-0.9711 Y1.7017  
G01 X-0.9657 Y1.7054  
G01 X-0.9597 Y1.7079  
G01 X-0.9533 Y1.7091  
G01 X-0.9467 Y1.7091  
G01 X-0.9432 Y1.7085  
G01 X-0.8941 Y1.7707  
G01 X-0.8937 Y1.7714  
G01 X-0.8927 Y1.7725  
G01 X-0.8918 Y1.7736  
G01 X-0.8911 Y1.7742  
G01 X-0.8906 Y1.7747  
G01 X-0.8894 Y1.7756  
G01 X-0.8883 Y1.7766  
G01 X-0.8876 Y1.7770  
G01 X-0.8869 Y1.7775  
G01 X-0.8856 Y1.7781  
G01 X-0.8843 Y1.7788  
G01 X-0.8835 Y1.7791  
G01 X-0.8828 Y1.7794  
G01 X-0.8814 Y1.7798  
G01 X-0.8800 Y1.7802  
G01 X-0.8792 Y1.7803  
G01 X-0.7687 Y1.8079  
G01 X-0.7506 Y1.8326  
G01 X-0.7506 Y1.8654  
G01 X-0.7842 Y1.8990  
G01 X-0.9950 Y1.8903  
G01 X-0.9884 Y1.8836  
G01 X-0.9884 Y1.8564  
G01 X-1.0076 Y1.8371  
G01 X-1.0349 Y1.8371  
G01 X-1.0542 Y1.8564  
G01 X-1.0542 Y1.8836  
G01 X-1.0419 Y1.8959  
G01 X-1.0419 Y1.9120  
G01 X-1.0420 Y1.9138  
G01 X-1.0419 Y1.9143  
G01 X-1.0419 Y2.0335  
G01 X-1.0410 Y2.0380  
G01 X-1.0393 Y2.0422  
G01 X-1.0367 Y2.0460  
G01 X-1.0331 Y2.0496  
G01 X-1.0331 Y2.0637  
G01 X-1.0137 Y2.0831  
G01 X-0.9863 Y2.0831  
G01 X-0.9669 Y2.0637  
G01 X-0.9669 Y2.0363  
G01 X-0.9863 Y2.0169  
G01 X-0.9956 Y2.0169  
G01 X-0.9956 Y1.9366  
G01 X-0.7777 Y1.9456  
G01 X-0.7773 Y1.9456  
G01 X-0.7755 Y1.9456  
G01 X-0.7737 Y1.9457  
G01 X-0.7732 Y1.9456  
G01 X-0.7727 Y1.9456  
G01 X-0.7710 Y1.9453  
G01 X-0.7692 Y1.9450  
G01 X-0.7687 Y1.9449  
G01 X-0.7682 Y1.9448  
G01 X-0.7666 Y1.9441  
G01 X-0.7649 Y1.9434  
G01 X-0.7645 Y1.9432  
G01 X-0.7640 Y1.9430  
G01 X-0.7625 Y1.9420  
G01 X-0.7610 Y1.9411  
G01 X-0.7606 Y1.9407  
G01 X-0.7602 Y1.9405  
G01 X-0.7590 Y1.9392  
G01 X-0.7576 Y1.9380  
G01 X-0.7574 Y1.9376  
G01 X-0.7095 Y1.8898  
G01 X-0.7070 Y1.8860  
G01 X-0.7052 Y1.8818  
G01 X-0.7044 Y1.8773  
G01 X-0.7044 Y1.8268  
G01 X-0.7043 Y1.8263  
G01 X-0.7044 Y1.8245  
G01 X-0.7044 Y1.8227  
G01 X-0.7044 Y1.8222  
G01 X-0.7045 Y1.8217  
G01 X-0.7049 Y1.8200  
G01 X-0.7052 Y1.8182  
G01 X-0.7054 Y1.8178  
G01 X-0.7056 Y1.8173  
G01 X-0.7063 Y1.8157  
G01 X-0.7070 Y1.8140  
G01 X-0.7073 Y1.8136  
G01 X-0.7075 Y1.8131  
G01 X-0.7085 Y1.8117  
G01 X-0.7095 Y1.8102  
G01 X-0.7099 Y1.8099  
G01 X-0.7357 Y1.7747  
G01 X-0.7363 Y1.7736  
G01 X-0.7370 Y1.7728  
G01 X-0.7377 Y1.7720  
G01 X-0.7386 Y1.7712  
G01 X-0.7394 Y1.7703  
G01 X-0.7402 Y1.7696  
G01 X-0.7410 Y1.7689  
G01 X-0.7421 Y1.7683  
G01 X-0.7431 Y1.7675  
G01 X-0.7440 Y1.7671  
G01 X-0.7449 Y1.7665  
G01 X-0.7461 Y1.7661  
G01 X-0.7472 Y1.7656  
G01 X-0.7482 Y1.7653  
G01 X-0.7492 Y1.7650  
G01 X-0.7504 Y1.7648  
G01 X-0.8617 Y1.7370  
G01 X-0.9169 Y1.6671  
G01 X-0.9169 Y1.6207  
G01 X-0.9181 Y1.6143  
G01 X-0.9206 Y1.6083  
G01 X-0.9243 Y1.6029  
G00 Z0.0500  
G00 X-1.0243 Y1.6029  
G01 Z-0.0040 F10    
G01 X-1.0289 Y1.5983  F20    
G01 X-1.0343 Y1.5946  
G01 X-1.0403 Y1.5921  
G01 X-1.0467 Y1.5909  
G01 X-1.0533 Y1.5909  
G01 X-1.0597 Y1.5921  
G01 X-1.0657 Y1.5946  
G01 X-1.0711 Y1.5983  
G01 X-1.0757 Y1.6029  
G01 X-1.0794 Y1.6083  
G01 X-1.0819 Y1.6143  
G01 X-1.0831 Y1.6207  
G01 X-1.0831 Y1.6269  
G01 X-1.1091 Y1.6269  
G01 X-1.1091 Y1.6248  
G01 X-1.1102 Y1.6222  
G01 X-1.1122 Y1.6202  
G01 X-1.1148 Y1.6191  
G01 X-1.1652 Y1.6191  
G01 X-1.1678 Y1.6202  
G01 X-1.1698 Y1.6222  
G01 X-1.1709 Y1.6248  
G01 X-1.1709 Y1.6752  
G01 X-1.1698 Y1.6778  
G01 X-1.1678 Y1.6798  
G01 X-1.1652 Y1.6809  
G01 X-1.1148 Y1.6809  
G01 X-1.1122 Y1.6798  
G01 X-1.1102 Y1.6778  
G01 X-1.1091 Y1.6752  
G01 X-1.1091 Y1.6731  
G01 X-1.0831 Y1.6731  
G01 X-1.0831 Y1.6793  
G01 X-1.0819 Y1.6857  
G01 X-1.0794 Y1.6917  
G01 X-1.0757 Y1.6971  
G01 X-1.0711 Y1.7017  
G01 X-1.0657 Y1.7054  
G01 X-1.0597 Y1.7079  
G01 X-1.0533 Y1.7091  
G01 X-1.0467 Y1.7091  
G01 X-1.0403 Y1.7079  
G01 X-1.0343 Y1.7054  
G01 X-1.0289 Y1.7017  
G01 X-1.0243 Y1.6971  
G01 X-1.0206 Y1.6917  
G01 X-1.0181 Y1.6857  
G01 X-1.0169 Y1.6793  
G01 X-1.0169 Y1.6207  
G01 X-1.0181 Y1.6143  
G01 X-1.0206 Y1.6083  
G01 X-1.0243 Y1.6029  
G00 Z0.0500  
G00 X-1.0987 Y1.7922  
G01 Z-0.0040 F10    
G01 X-1.1001 Y1.7909  F20    
G01 X-1.1015 Y1.7895  
G01 X-1.1018 Y1.7893  
G01 X-1.1020 Y1.7891  
G01 X-1.1037 Y1.7881  
G01 X-1.1053 Y1.7870  
G01 X-1.1056 Y1.7869  
G01 X-1.1059 Y1.7867  
G01 X-1.1077 Y1.7860  
G01 X-1.1095 Y1.7852  
G01 X-1.1098 Y1.7852  
G01 X-1.1101 Y1.7851  
G01 X-1.1121 Y1.7847  
G01 X-1.1140 Y1.7844  
G01 X-1.1143 Y1.7844  
G01 X-1.1146 Y1.7843  
G01 X-1.1166 Y1.7844  
G01 X-1.3607 Y1.7844  
G01 X-1.3612 Y1.7843  
G01 X-1.3630 Y1.7844  
G01 X-1.3648 Y1.7844  
G01 X-1.3653 Y1.7844  
G01 X-1.3658 Y1.7845  
G01 X-1.3675 Y1.7849  
G01 X-1.3693 Y1.7852  
G01 X-1.3697 Y1.7854  
G01 X-1.3702 Y1.7856  
G01 X-1.3718 Y1.7863  
G01 X-1.3735 Y1.7870  
G01 X-1.3739 Y1.7873  
G01 X-1.3744 Y1.7875  
G01 X-1.3758 Y1.7885  
G01 X-1.3773 Y1.7895  
G01 X-1.3776 Y1.7899  
G01 X-1.4437 Y1.8384  
G01 X-1.4636 Y1.8384  
G01 X-1.4709 Y1.8456  
G01 X-1.6717 Y1.8456  
G01 X-1.7169 Y1.8004  
G01 X-1.7169 Y1.7863  
G01 X-1.7363 Y1.7669  
G01 X-1.7637 Y1.7669  
G01 X-1.7681 Y1.7712  
G01 X-1.7684 Y1.7713  
G01 X-1.7693 Y1.7715  
G01 X-1.7706 Y1.7720  
G01 X-1.7720 Y1.7725  
G01 X-1.7727 Y1.7729  
G01 X-1.7735 Y1.7732  
G01 X-1.7747 Y1.7740  
G01 X-1.7759 Y1.7748  
G01 X-1.7766 Y1.7753  
G01 X-1.7773 Y1.7758  
G01 X-1.7783 Y1.7768  
G01 X-1.7794 Y1.7778  
G01 X-1.7799 Y1.7784  
G01 X-1.9273 Y1.9258  
G01 X-1.9363 Y1.9169  
G01 X-1.9637 Y1.9169  
G01 X-1.9677 Y1.9208  
G01 X-1.9891 Y1.8725  
G01 X-1.9891 Y1.8348  
G01 X-1.9902 Y1.8322  
G01 X-1.9922 Y1.8302  
G01 X-1.9948 Y1.8291  
G01 X-2.0452 Y1.8291  
G01 X-2.0478 Y1.8302  
G01 X-2.0498 Y1.8322  
G01 X-2.0509 Y1.8348  
G01 X-2.0509 Y1.8852  
G01 X-2.0498 Y1.8878  
G01 X-2.0478 Y1.8898  
G01 X-2.0452 Y1.8909  
G01 X-2.0316 Y1.8909  
G01 X-2.0013 Y1.9591  
G01 X-2.0005 Y1.9610  
G01 X-2.0003 Y1.9612  
G01 X-2.0002 Y1.9615  
G01 X-1.9991 Y1.9631  
G01 X-1.9980 Y1.9648  
G01 X-1.9978 Y1.9650  
G01 X-1.9976 Y1.9652  
G01 X-1.9962 Y1.9666  
G01 X-1.9948 Y1.9680  
G01 X-1.9945 Y1.9681  
G01 X-1.9943 Y1.9684  
G01 X-1.9926 Y1.9694  
G01 X-1.9910 Y1.9705  
G01 X-1.9907 Y1.9706  
G01 X-1.9904 Y1.9708  
G01 X-1.9886 Y1.9715  
G01 X-1.9868 Y1.9723  
G01 X-1.9865 Y1.9723  
G01 X-1.9862 Y1.9724  
G01 X-1.9842 Y1.9728  
G01 X-1.9823 Y1.9731  
G01 X-1.9820 Y1.9731  
G01 X-1.9817 Y1.9732  
G01 X-1.9797 Y1.9731  
G01 X-1.9737 Y1.9731  
G01 X-1.9637 Y1.9831  
G01 X-1.9363 Y1.9831  
G01 X-1.9263 Y1.9731  
G01 X-1.9165 Y1.9731  
G01 X-1.9120 Y1.9723  
G01 X-1.9078 Y1.9705  
G01 X-1.9040 Y1.9680  
G01 X-1.7664 Y1.8304  
G01 X-1.7637 Y1.8331  
G01 X-1.7496 Y1.8331  
G01 X-1.6960 Y1.8867  
G01 X-1.6922 Y1.8893  
G01 X-1.6880 Y1.8910  
G01 X-1.6835 Y1.8919  
G01 X-1.4759 Y1.8919  
G01 X-1.4636 Y1.9042  
G01 X-1.4364 Y1.9042  
G01 X-1.4171 Y1.8849  
G01 X-1.4171 Y1.8762  
G01 X-1.3549 Y1.8306  
G01 X-1.1312 Y1.8306  
G01 X-1.1231 Y1.8487  
G01 X-1.1231 Y2.3503  
G01 X-1.1257 Y2.3529  
G01 X-1.1294 Y2.3583  
G01 X-1.1319 Y2.3643  
G01 X-1.1331 Y2.3707  
G01 X-1.1331 Y2.4293  
G01 X-1.1319 Y2.4357  
G01 X-1.1294 Y2.4417  
G01 X-1.1257 Y2.4471  
G01 X-1.1211 Y2.4517  
G01 X-1.1157 Y2.4554  
G01 X-1.1097 Y2.4579  
G01 X-1.1033 Y2.4591  
G01 X-1.0967 Y2.4591  
G01 X-1.0903 Y2.4579  
G01 X-1.0843 Y2.4554  
G01 X-1.0789 Y2.4517  
G01 X-1.0743 Y2.4471  
G01 X-1.0706 Y2.4417  
G01 X-1.0681 Y2.4357  
G01 X-1.0669 Y2.4293  
G01 X-1.0669 Y2.3707  
G01 X-1.0681 Y2.3643  
G01 X-1.0706 Y2.3583  
G01 X-1.0743 Y2.3529  
G01 X-1.0769 Y2.3503  
G01 X-1.0769 Y1.8457  
G01 X-1.0768 Y1.8454  
G01 X-1.0769 Y1.8434  
G01 X-1.0769 Y1.8415  
G01 X-1.0769 Y1.8411  
G01 X-1.0769 Y1.8408  
G01 X-1.0774 Y1.8389  
G01 X-1.0777 Y1.8370  
G01 X-1.0779 Y1.8367  
G01 X-1.0779 Y1.8364  
G01 X-1.0787 Y1.8346  
G01 X-1.0795 Y1.8328  
G01 X-1.0797 Y1.8325  
G01 X-1.0950 Y1.7983  
G01 X-1.0957 Y1.7965  
G01 X-1.0959 Y1.7963  
G01 X-1.0961 Y1.7959  
G01 X-1.0972 Y1.7944  
G01 X-1.0983 Y1.7927  
G01 X-1.0985 Y1.7925  
G01 X-1.0987 Y1.7922  
G00 Z0.0500  
G00 X-1.1458 Y1.8564  
G01 Z-0.0040 F10    
G01 X-1.1651 Y1.8371  F20    
G01 X-1.1924 Y1.8371  
G01 X-1.2037 Y1.8484  
G01 X-1.3338 Y1.8568  
G01 X-1.3347 Y1.8568  
G01 X-1.3361 Y1.8570  
G01 X-1.3375 Y1.8570  
G01 X-1.3384 Y1.8573  
G01 X-1.3392 Y1.8574  
G01 X-1.3406 Y1.8579  
G01 X-1.3419 Y1.8582  
G01 X-1.3427 Y1.8586  
G01 X-1.3435 Y1.8589  
G01 X-1.3448 Y1.8596  
G01 X-1.3460 Y1.8602  
G01 X-1.3467 Y1.8608  
G01 X-1.4376 Y1.9144  
G01 X-1.8198 Y1.9144  
G01 X-1.8243 Y1.9152  
G01 X-1.8285 Y1.9170  
G01 X-1.8323 Y1.9195  
G01 X-1.9021 Y1.9894  
G01 X-1.9966 Y1.9894  
G01 X-2.0849 Y1.8360  
G01 X-2.0859 Y1.8342  
G01 X-2.0861 Y1.8340  
G01 X-2.0875 Y1.8323  
G01 X-2.0889 Y1.8307  
G01 X-2.0891 Y1.8305  
G01 X-2.0908 Y1.8292  
G01 X-2.0925 Y1.8279  
G01 X-2.0926 Y1.8278  
G01 X-2.0946 Y1.8268  
G01 X-2.0966 Y1.8258  
G01 X-2.0967 Y1.8258  
G01 X-2.0968 Y1.8257  
G01 X-2.0989 Y1.8252  
G01 X-2.1010 Y1.8246  
G01 X-2.1011 Y1.8246  
G01 X-2.1012 Y1.8246  
G01 X-2.1033 Y1.8244  
G01 X-2.1055 Y1.8242  
G01 X-2.1056 Y1.8243  
G01 X-2.1057 Y1.8242  
G01 X-2.1079 Y1.8245  
G01 X-2.4183 Y1.8619  
G01 X-2.4188 Y1.8613  
G01 X-2.4195 Y1.8602  
G01 X-2.4202 Y1.8595  
G01 X-2.4987 Y1.7620  
G01 X-2.5216 Y1.6685  
G01 X-2.5169 Y1.6637  
G01 X-2.5169 Y1.6363  
G01 X-2.5363 Y1.6169  
G01 X-2.5637 Y1.6169  
G01 X-2.5831 Y1.6363  
G01 X-2.5831 Y1.6637  
G01 X-2.5664 Y1.6805  
G01 X-2.5429 Y1.7763  
G01 X-2.5429 Y1.7768  
G01 X-2.5424 Y1.7785  
G01 X-2.5419 Y1.7802  
G01 X-2.5417 Y1.7807  
G01 X-2.5416 Y1.7812  
G01 X-2.5408 Y1.7828  
G01 X-2.5400 Y1.7844  
G01 X-2.5397 Y1.7848  
G01 X-2.5395 Y1.7852  
G01 X-2.5384 Y1.7866  
G01 X-2.5373 Y1.7880  
G01 X-2.5369 Y1.7884  
G01 X-2.4758 Y1.8644  
G01 X-2.5898 Y1.8644  
G01 X-2.5943 Y1.8652  
G01 X-2.5981 Y1.8669  
G01 X-2.6033 Y1.8669  
G01 X-2.6097 Y1.8681  
G01 X-2.6157 Y1.8706  
G01 X-2.6211 Y1.8743  
G01 X-2.6257 Y1.8789  
G01 X-2.6294 Y1.8843  
G01 X-2.6319 Y1.8903  
G01 X-2.6331 Y1.8967  
G01 X-2.6331 Y1.9033  
G01 X-2.6319 Y1.9097  
G01 X-2.6294 Y1.9157  
G01 X-2.6257 Y1.9211  
G01 X-2.6211 Y1.9257  
G01 X-2.6157 Y1.9294  
G01 X-2.6097 Y1.9319  
G01 X-2.6033 Y1.9331  
G01 X-2.5967 Y1.9331  
G01 X-2.5903 Y1.9319  
G01 X-2.5843 Y1.9294  
G01 X-2.5789 Y1.9257  
G01 X-2.5743 Y1.9211  
G01 X-2.5706 Y1.9157  
G01 X-2.5685 Y1.9106  
G01 X-2.4384 Y1.9106  
G01 X-2.4370 Y1.9108  
G01 X-2.4361 Y1.9106  
G01 X-2.4352 Y1.9106  
G01 X-2.4339 Y1.9104  
G01 X-2.1174 Y1.8723  
G01 X-2.0308 Y2.0227  
G01 X-2.0305 Y2.0235  
G01 X-2.0297 Y2.0247  
G01 X-2.0289 Y2.0260  
G01 X-2.0284 Y2.0266  
G01 X-2.0280 Y2.0273  
G01 X-2.0269 Y2.0283  
G01 X-2.0259 Y2.0295  
G01 X-2.0253 Y2.0299  
G01 X-2.0248 Y2.0305  
G01 X-2.0235 Y2.0313  
G01 X-2.0223 Y2.0322  
G01 X-2.0216 Y2.0326  
G01 X-2.0210 Y2.0330  
G01 X-2.0196 Y2.0336  
G01 X-2.0182 Y2.0343  
G01 X-2.0175 Y2.0345  
G01 X-2.0168 Y2.0348  
G01 X-2.0153 Y2.0351  
G01 X-2.0138 Y2.0354  
G01 X-2.0130 Y2.0355  
G01 X-2.0123 Y2.0356  
G01 X-2.0108 Y2.0356  
G01 X-2.0093 Y2.0358  
G01 X-2.0085 Y2.0356  
G01 X-1.8902 Y2.0356  
G01 X-1.8857 Y2.0348  
G01 X-1.8815 Y2.0330  
G01 X-1.8777 Y2.0305  
G01 X-1.8745 Y2.0273  
G01 X-1.8079 Y1.9606  
G01 X-1.4319 Y1.9606  
G01 X-1.4303 Y1.9607  
G01 X-1.4296 Y1.9606  
G01 X-1.4290 Y1.9606  
G01 X-1.4274 Y1.9603  
G01 X-1.4258 Y1.9601  
G01 X-1.4251 Y1.9599  
G01 X-1.4245 Y1.9598  
G01 X-1.4230 Y1.9591  
G01 X-1.4215 Y1.9586  
G01 X-1.4209 Y1.9583  
G01 X-1.4203 Y1.9580  
G01 X-1.4189 Y1.9571  
G01 X-1.3267 Y1.9027  
G01 X-1.2007 Y1.8946  
G01 X-1.1924 Y1.9029  
G01 X-1.1651 Y1.9029  
G01 X-1.1458 Y1.8836  
G01 X-1.1458 Y1.8564  
G00 Z0.0500  
G00 X-1.1669 Y2.0363  
G01 Z-0.0040 F10    
G01 X-1.1863 Y2.0169  F20    
G01 X-1.2137 Y2.0169  
G01 X-1.2331 Y2.0363  
G01 X-1.2331 Y2.0637  
G01 X-1.2268 Y2.0701  
G01 X-1.4133 Y2.1145  
G01 X-1.4135 Y2.1145  
G01 X-1.4155 Y2.1150  
G01 X-1.4176 Y2.1155  
G01 X-1.4177 Y2.1156  
G01 X-1.4179 Y2.1156  
G01 X-1.4198 Y2.1165  
G01 X-1.4217 Y2.1174  
G01 X-1.4219 Y2.1175  
G01 X-1.5198 Y2.1642  
G01 X-1.6663 Y2.0910  
G01 X-1.6936 Y2.0637  
G01 X-1.6951 Y2.0621  
G01 X-1.6952 Y2.0620  
G01 X-1.6971 Y2.0608  
G01 X-1.6989 Y2.0596  
G01 X-1.6990 Y2.0595  
G01 X-1.7011 Y2.0586  
G01 X-1.7031 Y2.0578  
G01 X-1.7032 Y2.0577  
G01 X-1.7054 Y2.0573  
G01 X-1.7076 Y2.0569  
G01 X-1.7077 Y2.0569  
G01 X-1.7099 Y2.0569  
G01 X-2.1226 Y2.0544  
G01 X-2.1249 Y2.0544  
G01 X-2.1271 Y2.0543  
G01 X-2.1294 Y2.0548  
G01 X-2.1316 Y2.0552  
G01 X-2.1338 Y2.0561  
G01 X-2.1358 Y2.0569  
G01 X-2.1378 Y2.0582  
G01 X-2.1396 Y2.0594  
G01 X-2.1413 Y2.0610  
G01 X-2.1429 Y2.0626  
G01 X-2.1442 Y2.0645  
G01 X-2.1454 Y2.0664  
G01 X-2.2655 Y2.2447  
G01 X-2.2900 Y2.2618  
G01 X-2.3826 Y2.3169  
G01 X-2.4035 Y2.3169  
G01 X-2.4044 Y2.3167  
G01 X-2.4058 Y2.3169  
G01 X-2.4073 Y2.3169  
G01 X-2.4081 Y2.3170  
G01 X-2.4089 Y2.3171  
G01 X-2.4103 Y2.3175  
G01 X-2.4118 Y2.3177  
G01 X-2.4125 Y2.3181  
G01 X-2.4133 Y2.3183  
G01 X-2.4146 Y2.3189  
G01 X-2.4158 Y2.3194  
G01 X-2.4977 Y2.2634  
G01 X-2.4995 Y2.2621  
G01 X-2.5013 Y2.2609  
G01 X-2.5014 Y2.2608  
G01 X-2.5015 Y2.2607  
G01 X-2.5035 Y2.2599  
G01 X-2.5055 Y2.2591  
G01 X-2.5056 Y2.2590  
G01 X-2.5057 Y2.2590  
G01 X-2.5079 Y2.2586  
G01 X-2.5100 Y2.2581  
G01 X-2.5101 Y2.2581  
G01 X-2.5102 Y2.2581  
G01 X-2.5124 Y2.2581  
G01 X-2.5145 Y2.2581  
G01 X-2.5147 Y2.2581  
G01 X-2.5159 Y2.2581  
G01 X-2.6494 Y2.1337  
G01 X-2.6494 Y1.8795  
G01 X-2.5942 Y1.8326  
G01 X-2.5903 Y1.8319  
G01 X-2.5843 Y1.8294  
G01 X-2.5789 Y1.8257  
G01 X-2.5743 Y1.8211  
G01 X-2.5706 Y1.8157  
G01 X-2.5681 Y1.8097  
G01 X-2.5669 Y1.8033  
G01 X-2.5669 Y1.7967  
G01 X-2.5681 Y1.7903  
G01 X-2.5706 Y1.7843  
G01 X-2.5743 Y1.7789  
G01 X-2.5789 Y1.7743  
G01 X-2.5843 Y1.7706  
G01 X-2.5845 Y1.7705  
G01 X-2.6070 Y1.6936  
G01 X-2.6093 Y1.6457  
G01 X-2.5921 Y1.4831  
G01 X-2.5863 Y1.4831  
G01 X-2.5669 Y1.4637  
G01 X-2.5669 Y1.4363  
G01 X-2.5817 Y1.4215  
G01 X-2.6094 Y1.2688  
G01 X-2.6081 Y1.2657  
G01 X-2.6069 Y1.2593  
G01 X-2.6069 Y1.2007  
G01 X-2.6081 Y1.1943  
G01 X-2.6106 Y1.1883  
G01 X-2.6143 Y1.1829  
G01 X-2.6189 Y1.1783  
G01 X-2.6243 Y1.1746  
G01 X-2.6303 Y1.1721  
G01 X-2.6367 Y1.1709  
G01 X-2.6433 Y1.1709  
G01 X-2.6497 Y1.1721  
G01 X-2.6557 Y1.1746  
G01 X-2.6611 Y1.1783  
G01 X-2.6657 Y1.1829  
G01 X-2.6694 Y1.1883  
G01 X-2.6719 Y1.1943  
G01 X-2.6731 Y1.2007  
G01 X-2.6731 Y1.2593  
G01 X-2.6719 Y1.2657  
G01 X-2.6694 Y1.2717  
G01 X-2.6657 Y1.2771  
G01 X-2.6611 Y1.2817  
G01 X-2.6557 Y1.2854  
G01 X-2.6533 Y1.2864  
G01 X-2.6271 Y1.4302  
G01 X-2.6331 Y1.4363  
G01 X-2.6331 Y1.4457  
G01 X-2.6337 Y1.4468  
G01 X-2.6338 Y1.4470  
G01 X-2.6339 Y1.4472  
G01 X-2.6345 Y1.4491  
G01 X-2.6352 Y1.4511  
G01 X-2.6352 Y1.4513  
G01 X-2.6353 Y1.4515  
G01 X-2.6355 Y1.4536  
G01 X-2.6358 Y1.4556  
G01 X-2.6357 Y1.4558  
G01 X-2.6555 Y1.6421  
G01 X-2.6557 Y1.6438  
G01 X-2.6557 Y1.6443  
G01 X-2.6558 Y1.6448  
G01 X-2.6556 Y1.6466  
G01 X-2.6532 Y1.6968  
G01 X-2.6533 Y1.6973  
G01 X-2.6531 Y1.6991  
G01 X-2.6530 Y1.7009  
G01 X-2.6529 Y1.7013  
G01 X-2.6529 Y1.7018  
G01 X-2.6524 Y1.7035  
G01 X-2.6519 Y1.7053  
G01 X-2.6517 Y1.7057  
G01 X-2.6289 Y1.7836  
G01 X-2.6294 Y1.7843  
G01 X-2.6319 Y1.7903  
G01 X-2.6331 Y1.7967  
G01 X-2.6331 Y1.8033  
G01 X-2.6329 Y1.8047  
G01 X-2.6865 Y1.8502  
G01 X-2.6873 Y1.8508  
G01 X-2.6882 Y1.8517  
G01 X-2.6892 Y1.8526  
G01 X-2.6898 Y1.8533  
G01 X-2.6905 Y1.8540  
G01 X-2.6912 Y1.8551  
G01 X-2.6921 Y1.8562  
G01 X-2.6925 Y1.8570  
G01 X-2.6930 Y1.8578  
G01 X-2.6935 Y1.8590  
G01 X-2.6941 Y1.8602  
G01 X-2.6944 Y1.8611  
G01 X-2.6948 Y1.8620  
G01 X-2.6950 Y1.8633  
G01 X-2.6954 Y1.8646  
G01 X-2.6955 Y1.8655  
G01 X-2.6956 Y1.8665  
G01 X-2.6956 Y1.8678  
G01 X-2.6958 Y1.8691  
G01 X-2.6956 Y1.8701  
G01 X-2.6956 Y2.1419  
G01 X-2.6957 Y2.1423  
G01 X-2.6956 Y2.1442  
G01 X-2.6956 Y2.1460  
G01 X-2.6956 Y2.1464  
G01 X-2.6956 Y2.1468  
G01 X-2.6951 Y2.1487  
G01 X-2.6948 Y2.1505  
G01 X-2.6946 Y2.1509  
G01 X-2.6945 Y2.1513  
G01 X-2.6937 Y2.1530  
G01 X-2.6930 Y2.1547  
G01 X-2.6928 Y2.1551  
G01 X-2.6926 Y2.1554  
G01 X-2.6915 Y2.1569  
G01 X-2.6905 Y2.1585  
G01 X-2.6902 Y2.1588  
G01 X-2.6900 Y2.1591  
G01 X-2.6886 Y2.1604  
G01 X-2.6873 Y2.1617  
G01 X-2.6869 Y2.1620  
G01 X-2.5411 Y2.2979  
G01 X-2.5398 Y2.2992  
G01 X-2.5394 Y2.2995  
G01 X-2.5391 Y2.2997  
G01 X-2.5375 Y2.3007  
G01 X-2.5360 Y2.3018  
G01 X-2.5356 Y2.3019  
G01 X-2.5352 Y2.3021  
G01 X-2.5335 Y2.3028  
G01 X-2.5318 Y2.3035  
G01 X-2.5314 Y2.3036  
G01 X-2.5310 Y2.3037  
G01 X-2.5291 Y2.3040  
G01 X-2.5273 Y2.3044  
G01 X-2.5269 Y2.3044  
G01 X-2.5265 Y2.3045  
G01 X-2.5246 Y2.3044  
G01 X-2.5197 Y2.3044  
G01 X-2.4406 Y2.3585  
G01 X-2.4406 Y2.4494  
G01 X-2.4407 Y2.4510  
G01 X-2.4406 Y2.4516  
G01 X-2.4406 Y2.4523  
G01 X-2.4403 Y2.4539  
G01 X-2.4401 Y2.4555  
G01 X-2.4399 Y2.4561  
G01 X-2.4398 Y2.4568  
G01 X-2.4391 Y2.4583  
G01 X-2.4386 Y2.4598  
G01 X-2.4383 Y2.4604  
G01 X-2.4380 Y2.4610  
G01 X-2.4371 Y2.4623  
G01 X-2.3658 Y2.5829  
G01 X-2.3655 Y2.5835  
G01 X-2.3646 Y2.5848  
G01 X-2.3638 Y2.5863  
G01 X-2.3633 Y2.5867  
G01 X-2.3630 Y2.5873  
G01 X-2.3618 Y2.5884  
G01 X-2.3607 Y2.5896  
G01 X-2.3602 Y2.5900  
G01 X-2.3598 Y2.5905  
G01 X-2.3584 Y2.5914  
G01 X-2.3571 Y2.5924  
G01 X-2.3565 Y2.5927  
G01 X-2.3560 Y2.5930  
G01 X-2.3544 Y2.5936  
G01 X-2.3530 Y2.5944  
G01 X-2.3523 Y2.5945  
G01 X-2.3518 Y2.5948  
G01 X-2.3501 Y2.5951  
G01 X-2.3485 Y2.5955  
G01 X-2.3479 Y2.5955  
G01 X-2.3473 Y2.5956  
G01 X-2.3456 Y2.5956  
G01 X-2.3440 Y2.5957  
G01 X-2.3434 Y2.5956  
G01 X-2.2662 Y2.5956  
G01 X-2.2652 Y2.5958  
G01 X-2.2640 Y2.5956  
G01 X-2.2627 Y2.5956  
G01 X-2.2617 Y2.5954  
G01 X-2.2607 Y2.5954  
G01 X-2.2595 Y2.5950  
G01 X-2.2582 Y2.5948  
G01 X-2.2573 Y2.5944  
G01 X-2.2563 Y2.5941  
G01 X-2.2552 Y2.5935  
G01 X-2.2540 Y2.5930  
G01 X-2.2532 Y2.5924  
G01 X-2.2523 Y2.5920  
G01 X-2.2513 Y2.5912  
G01 X-2.2502 Y2.5905  
G01 X-2.2495 Y2.5898  
G01 X-2.2487 Y2.5891  
G01 X-2.2479 Y2.5881  
G01 X-2.2470 Y2.5873  
G01 X-2.2464 Y2.5864  
G01 X-2.1517 Y2.4731  
G01 X-2.0737 Y2.4731  
G01 X-2.0711 Y2.4757  
G01 X-2.0657 Y2.4794  
G01 X-2.0597 Y2.4819  
G01 X-2.0533 Y2.4831  
G01 X-2.0467 Y2.4831  
G01 X-2.0403 Y2.4819  
G01 X-2.0343 Y2.4794  
G01 X-2.0289 Y2.4757  
G01 X-2.0243 Y2.4711  
G01 X-2.0206 Y2.4657  
G01 X-2.0181 Y2.4597  
G01 X-2.0169 Y2.4533  
G01 X-2.0169 Y2.4467  
G01 X-2.0181 Y2.4403  
G01 X-2.0206 Y2.4343  
G01 X-2.0243 Y2.4289  
G01 X-2.0289 Y2.4243  
G01 X-2.0343 Y2.4206  
G01 X-2.0403 Y2.4181  
G01 X-2.0467 Y2.4169  
G01 X-2.0533 Y2.4169  
G01 X-2.0597 Y2.4181  
G01 X-2.0657 Y2.4206  
G01 X-2.0711 Y2.4243  
G01 X-2.0737 Y2.4269  
G01 X-2.1613 Y2.4269  
G01 X-2.1623 Y2.4267  
G01 X-2.1635 Y2.4269  
G01 X-2.1648 Y2.4269  
G01 X-2.1658 Y2.4271  
G01 X-2.1668 Y2.4271  
G01 X-2.1680 Y2.4275  
G01 X-2.1693 Y2.4277  
G01 X-2.1702 Y2.4281  
G01 X-2.1712 Y2.4284  
G01 X-2.1723 Y2.4290  
G01 X-2.1735 Y2.4295  
G01 X-2.1743 Y2.4301  
G01 X-2.1752 Y2.4305  
G01 X-2.1762 Y2.4313  
G01 X-2.1773 Y2.4320  
G01 X-2.1780 Y2.4327  
G01 X-2.1788 Y2.4334  
G01 X-2.1796 Y2.4344  
G01 X-2.1805 Y2.4352  
G01 X-2.1811 Y2.4361  
G01 X-2.2758 Y2.5494  
G01 X-2.3318 Y2.5494  
G01 X-2.3944 Y2.4437  
G01 X-2.3944 Y2.3631  
G01 X-2.3769 Y2.3631  
G01 X-2.3752 Y2.3632  
G01 X-2.3746 Y2.3631  
G01 X-2.3740 Y2.3631  
G01 X-2.3723 Y2.3628  
G01 X-2.3707 Y2.3626  
G01 X-2.3701 Y2.3624  
G01 X-2.3695 Y2.3623  
G01 X-2.3680 Y2.3616  
G01 X-2.3664 Y2.3611  
G01 X-2.3658 Y2.3607  
G01 X-2.3653 Y2.3605  
G01 X-2.3639 Y2.3596  
G01 X-2.2669 Y2.3019  
G01 X-2.2662 Y2.3016  
G01 X-2.2650 Y2.3007  
G01 X-2.2637 Y2.3000  
G01 X-2.2631 Y2.2994  
G01 X-2.2357 Y2.2804  
G01 X-2.2341 Y2.2793  
G01 X-2.2339 Y2.2791  
G01 X-2.2337 Y2.2790  
G01 X-2.2323 Y2.2775  
G01 X-2.2308 Y2.2761  
G01 X-2.2307 Y2.2759  
G01 X-2.2305 Y2.2757  
G01 X-2.2294 Y2.2740  
G01 X-2.1127 Y2.1007  
G01 X-1.7196 Y2.1031  
G01 X-1.6970 Y2.1258  
G01 X-1.6960 Y2.1269  
G01 X-1.6953 Y2.1274  
G01 X-1.6948 Y2.1280  
G01 X-1.6935 Y2.1288  
G01 X-1.6924 Y2.1297  
G01 X-1.6917 Y2.1301  
G01 X-1.6910 Y2.1305  
G01 X-1.6896 Y2.1311  
G01 X-1.5311 Y2.2103  
G01 X-1.5299 Y2.2111  
G01 X-1.5291 Y2.2113  
G01 X-1.5283 Y2.2117  
G01 X-1.5269 Y2.2121  
G01 X-1.5256 Y2.2126  
G01 X-1.5247 Y2.2127  
G01 X-1.5239 Y2.2129  
G01 X-1.5225 Y2.2130  
G01 X-1.5211 Y2.2132  
G01 X-1.5202 Y2.2132  
G01 X-1.5194 Y2.2133  
G01 X-1.5179 Y2.2131  
G01 X-1.5165 Y2.2130  
G01 X-1.5157 Y2.2128  
G01 X-1.5148 Y2.2127  
G01 X-1.5135 Y2.2122  
G01 X-1.5121 Y2.2119  
G01 X-1.5113 Y2.2115  
G01 X-1.5105 Y2.2112  
G01 X-1.5093 Y2.2105  
G01 X-1.4022 Y2.1595  
G01 X-1.2231 Y2.1168  
G01 X-1.2231 Y2.1520  
G01 X-1.3766 Y2.2866  
G01 X-1.3773 Y2.2870  
G01 X-1.3783 Y2.2881  
G01 X-1.3795 Y2.2891  
G01 X-1.3799 Y2.2897  
G01 X-1.3805 Y2.2902  
G01 X-1.3813 Y2.2915  
G01 X-1.3823 Y2.2927  
G01 X-1.3826 Y2.2934  
G01 X-1.3830 Y2.2940  
G01 X-1.3836 Y2.2954  
G01 X-1.3843 Y2.2968  
G01 X-1.3845 Y2.2975  
G01 X-1.3848 Y2.2982  
G01 X-1.3851 Y2.2997  
G01 X-1.3855 Y2.3012  
G01 X-1.3855 Y2.3020  
G01 X-1.3856 Y2.3027  
G01 X-1.3856 Y2.3042  
G01 X-1.3857 Y2.3058  
G01 X-1.3856 Y2.3065  
G01 X-1.3856 Y2.7273  
G01 X-1.3848 Y2.7318  
G01 X-1.3830 Y2.7360  
G01 X-1.3805 Y2.7398  
G01 X-1.2075 Y2.9127  
G01 X-1.2065 Y2.9139  
G01 X-1.2059 Y2.9143  
G01 X-1.2054 Y2.9149  
G01 X-1.1555 Y2.9648  
G01 X-1.1523 Y2.9680  
G01 X-1.1485 Y2.9705  
G01 X-1.1443 Y2.9723  
G01 X-1.1398 Y2.9731  
G01 X-0.4893 Y2.9731  
G01 X-0.4683 Y2.9941  
G01 X-0.4317 Y2.9941  
G01 X-0.4107 Y2.9731  
G01 X-0.3893 Y2.9731  
G01 X-0.3683 Y2.9941  
G01 X-0.3317 Y2.9941  
G01 X-0.3059 Y2.9683  
G01 X-0.3059 Y2.9317  
G01 X-0.3317 Y2.9059  
G01 X-0.3683 Y2.9059  
G01 X-0.3893 Y2.9269  
G01 X-0.4107 Y2.9269  
G01 X-0.4317 Y2.9059  
G01 X-0.4683 Y2.9059  
G01 X-0.4893 Y2.9269  
G01 X-1.1279 Y2.9269  
G01 X-1.1599 Y2.8948  
G01 X-1.0501 Y2.7511  
G01 X-0.8026 Y2.7606  
G01 X-0.8007 Y2.7608  
G01 X-0.8003 Y2.7607  
G01 X-0.7999 Y2.7607  
G01 X-0.7980 Y2.7604  
G01 X-0.7962 Y2.7602  
G01 X-0.7958 Y2.7601  
G01 X-0.7954 Y2.7600  
G01 X-0.7936 Y2.7594  
G01 X-0.7918 Y2.7588  
G01 X-0.7915 Y2.7586  
G01 X-0.7911 Y2.7584  
G01 X-0.7895 Y2.7574  
G01 X-0.7879 Y2.7565  
G01 X-0.7876 Y2.7563  
G01 X-0.7872 Y2.7560  
G01 X-0.7858 Y2.7548  
G01 X-0.7844 Y2.7536  
G01 X-0.7842 Y2.7532  
G01 X-0.7838 Y2.7529  
G01 X-0.7828 Y2.7514  
G01 X-0.6825 Y2.6231  
G01 X-0.6737 Y2.6231  
G01 X-0.6637 Y2.6331  
G01 X-0.6363 Y2.6331  
G01 X-0.6169 Y2.6137  
G01 X-0.6169 Y2.5863  
G01 X-0.6363 Y2.5669  
G01 X-0.6637 Y2.5669  
G01 X-0.6737 Y2.5769  
G01 X-0.6929 Y2.5769  
G01 X-0.6943 Y2.5767  
G01 X-0.6952 Y2.5769  
G01 X-0.6960 Y2.5769  
G01 X-0.6974 Y2.5771  
G01 X-0.6988 Y2.5773  
G01 X-0.6997 Y2.5776  
G01 X-0.7005 Y2.5777  
G01 X-0.7018 Y2.5783  
G01 X-0.7032 Y2.5787  
G01 X-0.7039 Y2.5792  
G01 X-0.7047 Y2.5795  
G01 X-0.7059 Y2.5803  
G01 X-0.7071 Y2.5810  
G01 X-0.7078 Y2.5815  
G01 X-0.7085 Y2.5820  
G01 X-0.7095 Y2.5830  
G01 X-0.7106 Y2.5839  
G01 X-0.7111 Y2.5846  
G01 X-0.7117 Y2.5852  
G01 X-0.7125 Y2.5864  
G01 X-0.8122 Y2.7139  
G01 X-1.0601 Y2.7044  
G01 X-1.0621 Y2.7043  
G01 X-1.0623 Y2.7043  
G01 X-1.0626 Y2.7043  
G01 X-1.0646 Y2.7046  
G01 X-1.0666 Y2.7049  
G01 X-1.0669 Y2.7050  
G01 X-1.0671 Y2.7050  
G01 X-1.0690 Y2.7057  
G01 X-1.0709 Y2.7063  
G01 X-1.0711 Y2.7065  
G01 X-1.0714 Y2.7066  
G01 X-1.0731 Y2.7076  
G01 X-1.0748 Y2.7086  
G01 X-1.0751 Y2.7088  
G01 X-1.0753 Y2.7090  
G01 X-1.0768 Y2.7103  
G01 X-1.0783 Y2.7116  
G01 X-1.0784 Y2.7119  
G01 X-1.0787 Y2.7121  
G01 X-1.0798 Y2.7137  
G01 X-1.1930 Y2.8618  
G01 X-1.3394 Y2.7154  
G01 X-1.3394 Y2.3155  
G01 X-1.1859 Y2.1809  
G01 X-1.1852 Y2.1805  
G01 X-1.1842 Y2.1794  
G01 X-1.1830 Y2.1784  
G01 X-1.1826 Y2.1778  
G01 X-1.1820 Y2.1773  
G01 X-1.1812 Y2.1760  
G01 X-1.1802 Y2.1748  
G01 X-1.1799 Y2.1741  
G01 X-1.1795 Y2.1735  
G01 X-1.1789 Y2.1721  
G01 X-1.1782 Y2.1707  
G01 X-1.1780 Y2.1700  
G01 X-1.1777 Y2.1693  
G01 X-1.1774 Y2.1678  
G01 X-1.1770 Y2.1663  
G01 X-1.1770 Y2.1655  
G01 X-1.1769 Y2.1648  
G01 X-1.1769 Y2.1633  
G01 X-1.1768 Y2.1617  
G01 X-1.1769 Y2.1610  
G01 X-1.1769 Y2.0893  
G01 X-1.1768 Y2.0889  
G01 X-1.1769 Y2.0871  
G01 X-1.1769 Y2.0737  
G01 X-1.1669 Y2.0637  
G01 X-1.1669 Y2.0363  
G00 Z0.0500  
G00 X-1.4171 Y2.0424  
G01 Z-0.0040 F10    
G01 X-1.4171 Y2.0151  F20    
G01 X-1.4364 Y1.9958  
G01 X-1.4636 Y1.9958  
G01 X-1.4696 Y2.0019  
G01 X-1.5555 Y2.0019  
G01 X-1.5561 Y2.0015  
G01 X-1.5568 Y2.0008  
G01 X-1.5577 Y2.0004  
G01 X-1.5584 Y1.9998  
G01 X-1.5588 Y1.9997  
G01 X-1.5669 Y1.9943  
G01 X-1.5669 Y1.9863  
G01 X-1.5863 Y1.9669  
G01 X-1.6137 Y1.9669  
G01 X-1.6331 Y1.9863  
G01 X-1.6331 Y1.9897  
G01 X-1.7235 Y1.9797  
G01 X-1.7363 Y1.9669  
G01 X-1.7637 Y1.9669  
G01 X-1.7831 Y1.9863  
G01 X-1.7831 Y2.0137  
G01 X-1.7637 Y2.0331  
G01 X-1.7363 Y2.0331  
G01 X-1.7288 Y2.0257  
G01 X-1.5919 Y2.0409  
G01 X-1.5898 Y2.0430  
G01 X-1.5860 Y2.0455  
G01 X-1.5818 Y2.0473  
G01 X-1.5801 Y2.0476  
G01 X-1.5509 Y2.0942  
G01 X-1.5509 Y2.1252  
G01 X-1.5498 Y2.1278  
G01 X-1.5478 Y2.1298  
G01 X-1.5452 Y2.1309  
G01 X-1.4948 Y2.1309  
G01 X-1.4922 Y2.1298  
G01 X-1.4902 Y2.1278  
G01 X-1.4891 Y2.1252  
G01 X-1.4891 Y2.0748  
G01 X-1.4902 Y2.0722  
G01 X-1.4922 Y2.0702  
G01 X-1.4948 Y2.0691  
G01 X-1.5120 Y2.0691  
G01 X-1.5251 Y2.0481  
G01 X-1.4771 Y2.0481  
G01 X-1.4636 Y2.0616  
G01 X-1.4364 Y2.0616  
G01 X-1.4171 Y2.0424  
G00 Z0.0500  
G00 X-1.4220 Y2.2352  
G01 Z-0.0040 F10    
G01 X-1.4252 Y2.2320  F20    
G01 X-1.4290 Y2.2295  
G01 X-1.4332 Y2.2277  
G01 X-1.4377 Y2.2269  
G01 X-1.5831 Y2.2269  
G01 X-1.6684 Y2.1716  
G01 X-1.6687 Y2.1712  
G01 X-1.6703 Y2.1703  
G01 X-1.6718 Y2.1693  
G01 X-1.6723 Y2.1692  
G01 X-1.7178 Y2.1422  
G01 X-1.7181 Y2.1403  
G01 X-1.7206 Y2.1343  
G01 X-1.7243 Y2.1289  
G01 X-1.7289 Y2.1243  
G01 X-1.7343 Y2.1206  
G01 X-1.7403 Y2.1181  
G01 X-1.7467 Y2.1169  
G01 X-1.7533 Y2.1169  
G01 X-1.7597 Y2.1181  
G01 X-1.7657 Y2.1206  
G01 X-1.7711 Y2.1243  
G01 X-1.7757 Y2.1289  
G01 X-1.7794 Y2.1343  
G01 X-1.7819 Y2.1403  
G01 X-1.7831 Y2.1467  
G01 X-1.7831 Y2.1533  
G01 X-1.7819 Y2.1597  
G01 X-1.7794 Y2.1657  
G01 X-1.7757 Y2.1711  
G01 X-1.7711 Y2.1757  
G01 X-1.7657 Y2.1794  
G01 X-1.7597 Y2.1819  
G01 X-1.7533 Y2.1831  
G01 X-1.7467 Y2.1831  
G01 X-1.7413 Y2.1821  
G01 X-1.6947 Y2.2097  
G01 X-1.6027 Y2.2693  
G01 X-1.6010 Y2.2705  
G01 X-1.6008 Y2.2706  
G01 X-1.6007 Y2.2707  
G01 X-1.5987 Y2.2714  
G01 X-1.5968 Y2.2723  
G01 X-1.5966 Y2.2723  
G01 X-1.5964 Y2.2724  
G01 X-1.5944 Y2.2727  
G01 X-1.5923 Y2.2731  
G01 X-1.5921 Y2.2731  
G01 X-1.5920 Y2.2732  
G01 X-1.5898 Y2.2731  
G01 X-1.4631 Y2.2731  
G01 X-1.4631 Y2.3046  
G01 X-1.4632 Y2.3066  
G01 X-1.4631 Y2.3069  
G01 X-1.4631 Y2.3073  
G01 X-1.4628 Y2.3092  
G01 X-1.4625 Y2.3111  
G01 X-1.4623 Y2.3114  
G01 X-1.4623 Y2.3118  
G01 X-1.4615 Y2.3135  
G01 X-1.4608 Y2.3153  
G01 X-1.4607 Y2.3156  
G01 X-1.4605 Y2.3160  
G01 X-1.4594 Y2.3176  
G01 X-1.4506 Y2.3316  
G01 X-1.4506 Y2.5720  
G01 X-1.5397 Y2.6261  
G01 X-1.5400 Y2.6262  
G01 X-1.5417 Y2.6273  
G01 X-1.5433 Y2.6283  
G01 X-1.5436 Y2.6285  
G01 X-1.5439 Y2.6287  
G01 X-1.5453 Y2.6301  
G01 X-1.5467 Y2.6314  
G01 X-1.5469 Y2.6316  
G01 X-1.5471 Y2.6318  
G01 X-1.5483 Y2.6335  
G01 X-1.5494 Y2.6350  
G01 X-1.5495 Y2.6353  
G01 X-1.5497 Y2.6356  
G01 X-1.5505 Y2.6374  
G01 X-1.5513 Y2.6392  
G01 X-1.5514 Y2.6395  
G01 X-1.5902 Y2.7294  
G01 X-2.9183 Y2.7294  
G01 X-2.9210 Y2.7151  
G01 X-2.8448 Y2.6721  
G01 X-2.8440 Y2.6718  
G01 X-2.8429 Y2.6710  
G01 X-2.8416 Y2.6703  
G01 X-2.8410 Y2.6697  
G01 X-2.8402 Y2.6692  
G01 X-2.8392 Y2.6682  
G01 X-2.8382 Y2.6673  
G01 X-2.8376 Y2.6666  
G01 X-2.8370 Y2.6660  
G01 X-2.8362 Y2.6648  
G01 X-2.8354 Y2.6637  
G01 X-2.8350 Y2.6629  
G01 X-2.8345 Y2.6622  
G01 X-2.8339 Y2.6609  
G01 X-2.8333 Y2.6597  
G01 X-2.8331 Y2.6588  
G01 X-2.8327 Y2.6580  
G01 X-2.8325 Y2.6566  
G01 X-2.8321 Y2.6553  
G01 X-2.8320 Y2.6544  
G01 X-2.8319 Y2.6535  
G01 X-2.8319 Y2.6521  
G01 X-2.8317 Y2.6507  
G01 X-2.8319 Y2.6498  
G01 X-2.8319 Y2.1263  
G01 X-2.8317 Y2.1254  
G01 X-2.8319 Y2.1241  
G01 X-2.8319 Y2.1227  
G01 X-2.8320 Y2.1218  
G01 X-2.8321 Y2.1208  
G01 X-2.8325 Y2.1196  
G01 X-2.8327 Y2.1182  
G01 X-2.8331 Y2.1174  
G01 X-2.8334 Y2.1164  
G01 X-2.8340 Y2.1153  
G01 X-2.8345 Y2.1140  
G01 X-2.8350 Y2.1132  
G01 X-2.8355 Y2.1124  
G01 X-2.8363 Y2.1113  
G01 X-2.8370 Y2.1102  
G01 X-2.8377 Y2.1096  
G01 X-2.8383 Y2.1088  
G01 X-2.8393 Y2.1080  
G01 X-2.8402 Y2.1070  
G01 X-2.8410 Y2.1065  
G01 X-2.8418 Y2.1059  
G01 X-2.8429 Y2.1052  
G01 X-2.8440 Y2.1045  
G01 X-2.8449 Y2.1041  
G01 X-2.8679 Y2.0913  
G01 X-2.8681 Y2.0903  
G01 X-2.8706 Y2.0843  
G01 X-2.8743 Y2.0789  
G01 X-2.8789 Y2.0743  
G01 X-2.8843 Y2.0706  
G01 X-2.8903 Y2.0681  
G01 X-2.8967 Y2.0669  
G01 X-2.9033 Y2.0669  
G01 X-2.9097 Y2.0681  
G01 X-2.9157 Y2.0706  
G01 X-2.9211 Y2.0743  
G01 X-2.9257 Y2.0789  
G01 X-2.9294 Y2.0843  
G01 X-2.9319 Y2.0903  
G01 X-2.9331 Y2.0967  
G01 X-2.9331 Y2.1033  
G01 X-2.9319 Y2.1097  
G01 X-2.9294 Y2.1157  
G01 X-2.9257 Y2.1211  
G01 X-2.9211 Y2.1257  
G01 X-2.9157 Y2.1294  
G01 X-2.9097 Y2.1319  
G01 X-2.9033 Y2.1331  
G01 X-2.8967 Y2.1331  
G01 X-2.8903 Y2.1319  
G01 X-2.8781 Y2.1386  
G01 X-2.8781 Y2.6377  
G01 X-2.9569 Y2.6822  
G01 X-2.9577 Y2.6825  
G01 X-2.9578 Y2.6826  
G01 X-2.9590 Y2.6834  
G01 X-2.9602 Y2.6841  
G01 X-2.9608 Y2.6846  
G01 X-2.9615 Y2.6850  
G01 X-2.9616 Y2.6851  
G01 X-2.9626 Y2.6861  
G01 X-2.9637 Y2.6871  
G01 X-2.9642 Y2.6877  
G01 X-2.9647 Y2.6882  
G01 X-3.2283 Y2.9519  
G01 X-3.6729 Y2.9519  
G01 X-3.8319 Y2.8204  
G01 X-3.8319 Y1.6265  
G01 X-3.5647 Y1.2731  
G01 X-3.2237 Y1.2731  
G01 X-3.2137 Y1.2831  
G01 X-3.1863 Y1.2831  
G01 X-3.1669 Y1.2637  
G01 X-3.1669 Y1.2363  
G01 X-3.1863 Y1.2169  
G01 X-3.2137 Y1.2169  
G01 X-3.2237 Y1.2269  
G01 X-3.5756 Y1.2269  
G01 X-3.5772 Y1.2268  
G01 X-3.5779 Y1.2269  
G01 X-3.5785 Y1.2269  
G01 X-3.5801 Y1.2272  
G01 X-3.5817 Y1.2274  
G01 X-3.5823 Y1.2276  
G01 X-3.5830 Y1.2277  
G01 X-3.5845 Y1.2284  
G01 X-3.5860 Y1.2289  
G01 X-3.5866 Y1.2292  
G01 X-3.5872 Y1.2295  
G01 X-3.5886 Y1.2304  
G01 X-3.5899 Y1.2312  
G01 X-3.5904 Y1.2316  
G01 X-3.5910 Y1.2320  
G01 X-3.5921 Y1.2332  
G01 X-3.5933 Y1.2342  
G01 X-3.5938 Y1.2348  
G01 X-3.5942 Y1.2352  
G01 X-3.5951 Y1.2366  
G01 X-3.8725 Y1.6035  
G01 X-3.8730 Y1.6040  
G01 X-3.8739 Y1.6053  
G01 X-3.8748 Y1.6066  
G01 X-3.8751 Y1.6072  
G01 X-3.8755 Y1.6078  
G01 X-3.8761 Y1.6093  
G01 X-3.8768 Y1.6107  
G01 X-3.8770 Y1.6114  
G01 X-3.8773 Y1.6120  
G01 X-3.8776 Y1.6136  
G01 X-3.8780 Y1.6151  
G01 X-3.8780 Y1.6158  
G01 X-3.8781 Y1.6165  
G01 X-3.8781 Y1.6181  
G01 X-3.8782 Y1.6197  
G01 X-3.8781 Y1.6204  
G01 X-3.8781 Y2.8301  
G01 X-3.8783 Y2.8312  
G01 X-3.8781 Y2.8323  
G01 X-3.8781 Y2.8335  
G01 X-3.8779 Y2.8346  
G01 X-3.8778 Y2.8357  
G01 X-3.8775 Y2.8368  
G01 X-3.8773 Y2.8380  
G01 X-3.8768 Y2.8390  
G01 X-3.8765 Y2.8401  
G01 X-3.8760 Y2.8411  
G01 X-3.8755 Y2.8422  
G01 X-3.8749 Y2.8431  
G01 X-3.8744 Y2.8441  
G01 X-3.8736 Y2.8450  
G01 X-3.8730 Y2.8460  
G01 X-3.8722 Y2.8468  
G01 X-3.8715 Y2.8476  
G01 X-3.8706 Y2.8484  
G01 X-3.8698 Y2.8492  
G01 X-3.8688 Y2.8498  
G01 X-3.6968 Y2.9921  
G01 X-3.6960 Y2.9930  
G01 X-3.6951 Y2.9936  
G01 X-3.6943 Y2.9943  
G01 X-3.6932 Y2.9949  
G01 X-3.6922 Y2.9955  
G01 X-3.6912 Y2.9959  
G01 X-3.6902 Y2.9965  
G01 X-3.6891 Y2.9968  
G01 X-3.6880 Y2.9973  
G01 X-3.6869 Y2.9975  
G01 X-3.6859 Y2.9978  
G01 X-3.6847 Y2.9979  
G01 X-3.6835 Y2.9981  
G01 X-3.6824 Y2.9981  
G01 X-3.6813 Y2.9983  
G01 X-3.6802 Y2.9981  
G01 X-3.2165 Y2.9981  
G01 X-3.2120 Y2.9973  
G01 X-3.2078 Y2.9955  
G01 X-3.2040 Y2.9930  
G01 X-2.9615 Y2.7504  
G01 X-2.9606 Y2.7547  
G01 X-2.9606 Y2.7548  
G01 X-2.9602 Y2.7569  
G01 X-2.9598 Y2.7591  
G01 X-2.9598 Y2.7593  
G01 X-2.9589 Y2.7613  
G01 X-2.9581 Y2.7633  
G01 X-2.9580 Y2.7635  
G01 X-2.9568 Y2.7653  
G01 X-2.9556 Y2.7671  
G01 X-2.9555 Y2.7673  
G01 X-2.9539 Y2.7688  
G01 X-2.9524 Y2.7704  
G01 X-2.9523 Y2.7705  
G01 X-2.9504 Y2.7717  
G01 X-2.9486 Y2.7729  
G01 X-2.9485 Y2.7730  
G01 X-2.9465 Y2.7738  
G01 X-2.9444 Y2.7747  
G01 X-2.9443 Y2.7748  
G01 X-2.9421 Y2.7752  
G01 X-2.9400 Y2.7756  
G01 X-2.9399 Y2.7756  
G01 X-2.9398 Y2.7756  
G01 X-2.9376 Y2.7756  
G01 X-2.9354 Y2.7757  
G01 X-1.5752 Y2.7756  
G01 X-1.5731 Y2.7757  
G01 X-1.5729 Y2.7756  
G01 X-1.5727 Y2.7756  
G01 X-1.5707 Y2.7752  
G01 X-1.5686 Y2.7749  
G01 X-1.5684 Y2.7748  
G01 X-1.5682 Y2.7748  
G01 X-1.5663 Y2.7740  
G01 X-1.5643 Y2.7732  
G01 X-1.5642 Y2.7731  
G01 X-1.5640 Y2.7730  
G01 X-1.5623 Y2.7718  
G01 X-1.5605 Y2.7707  
G01 X-1.5604 Y2.7706  
G01 X-1.5602 Y2.7705  
G01 X-1.5588 Y2.7690  
G01 X-1.5572 Y2.7675  
G01 X-1.5571 Y2.7674  
G01 X-1.5570 Y2.7673  
G01 X-1.5558 Y2.7655  
G01 X-1.5547 Y2.7638  
G01 X-1.5546 Y2.7636  
G01 X-1.5545 Y2.7635  
G01 X-1.5537 Y2.7615  
G01 X-1.5218 Y2.6878  
G01 X-1.1693 Y3.0496  
G01 X-1.1692 Y3.0498  
G01 X-1.1677 Y3.0513  
G01 X-1.1662 Y3.0528  
G01 X-1.1661 Y3.0529  
G01 X-1.1660 Y3.0530  
G01 X-1.1642 Y3.0542  
G01 X-1.1625 Y3.0554  
G01 X-1.1623 Y3.0554  
G01 X-1.1622 Y3.0555  
G01 X-1.1602 Y3.0563  
G01 X-1.1583 Y3.0572  
G01 X-1.1581 Y3.0572  
G01 X-1.1580 Y3.0573  
G01 X-1.1559 Y3.0577  
G01 X-1.1538 Y3.0581  
G01 X-1.1537 Y3.0581  
G01 X-1.1535 Y3.0581  
G01 X-1.1514 Y3.0581  
G01 X-1.1493 Y3.0582  
G01 X-1.1491 Y3.0581  
G01 X-0.3227 Y3.0581  
G01 X-0.3182 Y3.0573  
G01 X-0.3140 Y3.0555  
G01 X-0.3102 Y3.0530  
G01 X-0.3070 Y3.0498  
G01 X-0.2470 Y2.9898  
G01 X-0.2445 Y2.9860  
G01 X-0.2427 Y2.9818  
G01 X-0.2419 Y2.9773  
G01 X-0.2419 Y2.6003  
G01 X-0.2418 Y2.5997  
G01 X-0.2419 Y2.5981  
G01 X-0.2419 Y2.5965  
G01 X-0.2420 Y2.5958  
G01 X-0.2420 Y2.5951  
G01 X-0.2424 Y2.5936  
G01 X-0.2427 Y2.5920  
G01 X-0.2430 Y2.5914  
G01 X-0.2432 Y2.5907  
G01 X-0.2439 Y2.5893  
G01 X-0.2445 Y2.5878  
G01 X-0.2449 Y2.5872  
G01 X-0.2452 Y2.5866  
G01 X-0.2461 Y2.5853  
G01 X-0.2470 Y2.5840  
G01 X-0.2475 Y2.5835  
G01 X-0.2479 Y2.5830  
G01 X-0.2491 Y2.5819  
G01 X-0.2502 Y2.5808  
G01 X-0.2508 Y2.5804  
G01 X-0.2513 Y2.5799  
G01 X-0.2527 Y2.5791  
G01 X-0.2540 Y2.5782  
G01 X-0.2547 Y2.5780  
G01 X-0.3059 Y2.5480  
G01 X-0.3059 Y2.5317  
G01 X-0.3317 Y2.5059  
G01 X-0.3683 Y2.5059  
G01 X-0.3893 Y2.5269  
G01 X-0.4107 Y2.5269  
G01 X-0.4317 Y2.5059  
G01 X-0.4683 Y2.5059  
G01 X-0.4941 Y2.5317  
G01 X-0.4941 Y2.5683  
G01 X-0.4683 Y2.5941  
G01 X-0.4317 Y2.5941  
G01 X-0.4107 Y2.5731  
G01 X-0.3893 Y2.5731  
G01 X-0.3683 Y2.5941  
G01 X-0.3317 Y2.5941  
G01 X-0.3269 Y2.5893  
G01 X-0.2881 Y2.6120  
G01 X-0.2881 Y2.9654  
G01 X-0.3346 Y3.0119  
G01 X-1.1415 Y3.0119  
G01 X-1.4925 Y2.6516  
G01 X-1.4170 Y2.6057  
G01 X-1.4165 Y2.6055  
G01 X-1.4151 Y2.6045  
G01 X-1.4135 Y2.6036  
G01 X-1.4132 Y2.6033  
G01 X-1.4127 Y2.6030  
G01 X-1.4115 Y2.6017  
G01 X-1.4102 Y2.6005  
G01 X-1.4099 Y2.6001  
G01 X-1.4095 Y2.5998  
G01 X-1.4085 Y2.5983  
G01 X-1.4075 Y2.5968  
G01 X-1.4073 Y2.5964  
G01 X-1.4070 Y2.5960  
G01 X-1.4063 Y2.5943  
G01 X-1.4056 Y2.5927  
G01 X-1.4054 Y2.5922  
G01 X-1.4052 Y2.5918  
G01 X-1.4049 Y2.5900  
G01 X-1.4045 Y2.5883  
G01 X-1.4044 Y2.5878  
G01 X-1.4044 Y2.5873  
G01 X-1.4044 Y2.5855  
G01 X-1.4043 Y2.5837  
G01 X-1.4044 Y2.5832  
G01 X-1.4044 Y2.3254  
G01 X-1.4043 Y2.3234  
G01 X-1.4044 Y2.3231  
G01 X-1.4044 Y2.3227  
G01 X-1.4047 Y2.3208  
G01 X-1.4050 Y2.3189  
G01 X-1.4052 Y2.3186  
G01 X-1.4052 Y2.3182  
G01 X-1.4060 Y2.3165  
G01 X-1.4067 Y2.3147  
G01 X-1.4068 Y2.3144  
G01 X-1.4070 Y2.3140  
G01 X-1.4081 Y2.3124  
G01 X-1.4169 Y2.2984  
G01 X-1.4169 Y2.2477  
G01 X-1.4177 Y2.2432  
G01 X-1.4195 Y2.2390  
G01 X-1.4220 Y2.2352  
G00 Z0.0500  
G00 X-1.4669 Y2.3363  
G01 Z-0.0040 F10    
G01 X-1.4863 Y2.3169  F20    
G01 X-1.5137 Y2.3169  
G01 X-1.5237 Y2.3269  
G01 X-1.5763 Y2.3269  
G01 X-1.5863 Y2.3169  
G01 X-1.6067 Y2.3169  
G01 X-1.6915 Y2.2320  
G01 X-1.6953 Y2.2295  
G01 X-1.6995 Y2.2277  
G01 X-1.7040 Y2.2269  
G01 X-1.7263 Y2.2269  
G01 X-1.7289 Y2.2243  
G01 X-1.7343 Y2.2206  
G01 X-1.7403 Y2.2181  
G01 X-1.7467 Y2.2169  
G01 X-1.7533 Y2.2169  
G01 X-1.7597 Y2.2181  
G01 X-1.7657 Y2.2206  
G01 X-1.7711 Y2.2243  
G01 X-1.7757 Y2.2289  
G01 X-1.7794 Y2.2343  
G01 X-1.7819 Y2.2403  
G01 X-1.7831 Y2.2467  
G01 X-1.7831 Y2.2533  
G01 X-1.7819 Y2.2597  
G01 X-1.7794 Y2.2657  
G01 X-1.7757 Y2.2711  
G01 X-1.7711 Y2.2757  
G01 X-1.7657 Y2.2794  
G01 X-1.7597 Y2.2819  
G01 X-1.7533 Y2.2831  
G01 X-1.7467 Y2.2831  
G01 X-1.7403 Y2.2819  
G01 X-1.7343 Y2.2794  
G01 X-1.7289 Y2.2757  
G01 X-1.7263 Y2.2731  
G01 X-1.7158 Y2.2731  
G01 X-1.6331 Y2.3558  
G01 X-1.6331 Y2.3637  
G01 X-1.6137 Y2.3831  
G01 X-1.5863 Y2.3831  
G01 X-1.5763 Y2.3731  
G01 X-1.5237 Y2.3731  
G01 X-1.5137 Y2.3831  
G01 X-1.4863 Y2.3831  
G01 X-1.4669 Y2.3637  
G01 X-1.4669 Y2.3363  
G00 Z0.0500  
G00 X-1.3331 Y2.3363  
G01 Z-0.0040 F10    
G01 X-1.3331 Y2.3637  F20    
G01 X-1.3231 Y2.3737  
G01 X-1.3231 Y2.5263  
G01 X-1.3331 Y2.5363  
G01 X-1.3331 Y2.5637  
G01 X-1.3169 Y2.5800  
G01 X-1.3169 Y2.6416  
G01 X-1.3169 Y2.6438  
G01 X-1.3169 Y2.6460  
G01 X-1.3169 Y2.6462  
G01 X-1.3164 Y2.6484  
G01 X-1.3160 Y2.6505  
G01 X-1.3160 Y2.6507  
G01 X-1.3151 Y2.6527  
G01 X-1.3143 Y2.6547  
G01 X-1.3142 Y2.6549  
G01 X-1.3129 Y2.6567  
G01 X-1.3117 Y2.6585  
G01 X-1.2501 Y2.7491  
G01 X-1.2326 Y2.7857  
G01 X-1.2331 Y2.7863  
G01 X-1.2331 Y2.8137  
G01 X-1.2137 Y2.8331  
G01 X-1.1863 Y2.8331  
G01 X-1.1669 Y2.8137  
G01 X-1.1669 Y2.7863  
G01 X-1.1863 Y2.7669  
G01 X-1.1902 Y2.7669  
G01 X-1.2089 Y2.7280  
G01 X-1.2096 Y2.7264  
G01 X-1.2099 Y2.7259  
G01 X-1.2101 Y2.7254  
G01 X-1.2112 Y2.7240  
G01 X-1.2706 Y2.6366  
G01 X-1.2706 Y2.5675  
G01 X-1.2669 Y2.5637  
G01 X-1.2669 Y2.5363  
G01 X-1.2769 Y2.5263  
G01 X-1.2769 Y2.3737  
G01 X-1.2669 Y2.3637  
G01 X-1.2669 Y2.3363  
G01 X-1.2863 Y2.3169  
G01 X-1.3137 Y2.3169  
G01 X-1.3331 Y2.3363  
G00 Z0.0500  
G00 X-1.0211 Y2.3483  
G01 Z-0.0040 F10    
G01 X-1.0257 Y2.3529  F20    
G01 X-1.0294 Y2.3583  
G01 X-1.0319 Y2.3643  
G01 X-1.0331 Y2.3707  
G01 X-1.0331 Y2.4129  
G01 X-1.2180 Y2.5977  
G01 X-1.2205 Y2.6015  
G01 X-1.2223 Y2.6057  
G01 X-1.2231 Y2.6102  
G01 X-1.2231 Y2.6263  
G01 X-1.2331 Y2.6363  
G01 X-1.2331 Y2.6637  
G01 X-1.2137 Y2.6831  
G01 X-1.1863 Y2.6831  
G01 X-1.1669 Y2.6637  
G01 X-1.1669 Y2.6363  
G01 X-1.1769 Y2.6263  
G01 X-1.1769 Y2.6221  
G01 X-1.0118 Y2.4570  
G01 X-1.0097 Y2.4579  
G01 X-1.0033 Y2.4591  
G01 X-0.9967 Y2.4591  
G01 X-0.9903 Y2.4579  
G01 X-0.9843 Y2.4554  
G01 X-0.9789 Y2.4517  
G01 X-0.9743 Y2.4471  
G01 X-0.9706 Y2.4417  
G01 X-0.9681 Y2.4357  
G01 X-0.9669 Y2.4293  
G01 X-0.9669 Y2.3789  
G01 X-0.9324 Y2.3256  
G01 X-0.8668 Y2.3256  
G01 X-0.7440 Y2.4957  
G01 X-0.7430 Y2.4973  
G01 X-0.7427 Y2.4976  
G01 X-0.7424 Y2.4979  
G01 X-0.7411 Y2.4992  
G01 X-0.7398 Y2.5005  
G01 X-0.7394 Y2.5007  
G01 X-0.7391 Y2.5010  
G01 X-0.7375 Y2.5020  
G01 X-0.7360 Y2.5030  
G01 X-0.7356 Y2.5032  
G01 X-0.7352 Y2.5034  
G01 X-0.7335 Y2.5040  
G01 X-0.7318 Y2.5048  
G01 X-0.7313 Y2.5048  
G01 X-0.7309 Y2.5050  
G01 X-0.7291 Y2.5053  
G01 X-0.7273 Y2.5056  
G01 X-0.7269 Y2.5056  
G01 X-0.7264 Y2.5057  
G01 X-0.7246 Y2.5056  
G01 X-0.6256 Y2.5056  
G01 X-0.6239 Y2.5057  
G01 X-0.6233 Y2.5056  
G01 X-0.6227 Y2.5056  
G01 X-0.6211 Y2.5053  
G01 X-0.6194 Y2.5051  
G01 X-0.6188 Y2.5049  
G01 X-0.6182 Y2.5048  
G01 X-0.6167 Y2.5041  
G01 X-0.6151 Y2.5036  
G01 X-0.6146 Y2.5032  
G01 X-0.6140 Y2.5030  
G01 X-0.6126 Y2.5021  
G01 X-0.6112 Y2.5012  
G01 X-0.6107 Y2.5008  
G01 X-0.6102 Y2.5005  
G01 X-0.6091 Y2.4993  
G01 X-0.5138 Y2.4135  
G01 X-0.4300 Y2.4044  
G01 X-0.4290 Y2.4044  
G01 X-0.4277 Y2.4042  
G01 X-0.4265 Y2.4040  
G01 X-0.4255 Y2.4037  
G01 X-0.4245 Y2.4035  
G01 X-0.4233 Y2.4030  
G01 X-0.4221 Y2.4027  
G01 X-0.4212 Y2.4022  
G01 X-0.4203 Y2.4018  
G01 X-0.4192 Y2.4011  
G01 X-0.4181 Y2.4005  
G01 X-0.4174 Y2.3998  
G01 X-0.4165 Y2.3992  
G01 X-0.4156 Y2.3983  
G01 X-0.4146 Y2.3975  
G01 X-0.4140 Y2.3967  
G01 X-0.2320 Y2.2148  
G01 X-0.2295 Y2.2110  
G01 X-0.2277 Y2.2068  
G01 X-0.2269 Y2.2023  
G01 X-0.2269 Y2.0737  
G01 X-0.2169 Y2.0637  
G01 X-0.2169 Y2.0363  
G01 X-0.2363 Y2.0169  
G01 X-0.2637 Y2.0169  
G01 X-0.2831 Y2.0363  
G01 X-0.2831 Y2.0637  
G01 X-0.2731 Y2.0737  
G01 X-0.2731 Y2.1904  
G01 X-0.4418 Y2.3591  
G01 X-0.5244 Y2.3680  
G01 X-0.5248 Y2.3680  
G01 X-0.5267 Y2.3683  
G01 X-0.5285 Y2.3685  
G01 X-0.5289 Y2.3686  
G01 X-0.5293 Y2.3687  
G01 X-0.5311 Y2.3693  
G01 X-0.5329 Y2.3698  
G01 X-0.5332 Y2.3701  
G01 X-0.5336 Y2.3702  
G01 X-0.5352 Y2.3711  
G01 X-0.5369 Y2.3720  
G01 X-0.5372 Y2.3723  
G01 X-0.5376 Y2.3725  
G01 X-0.5389 Y2.3738  
G01 X-0.5404 Y2.3750  
G01 X-0.5406 Y2.3753  
G01 X-0.6339 Y2.4594  
G01 X-0.7132 Y2.4594  
G01 X-0.8360 Y2.2893  
G01 X-0.8370 Y2.2877  
G01 X-0.8373 Y2.2874  
G01 X-0.8376 Y2.2871  
G01 X-0.8389 Y2.2858  
G01 X-0.8402 Y2.2845  
G01 X-0.8406 Y2.2843  
G01 X-0.8409 Y2.2840  
G01 X-0.8425 Y2.2830  
G01 X-0.8440 Y2.2820  
G01 X-0.8444 Y2.2818  
G01 X-0.8448 Y2.2816  
G01 X-0.8465 Y2.2810  
G01 X-0.8482 Y2.2802  
G01 X-0.8487 Y2.2802  
G01 X-0.8491 Y2.2800  
G01 X-0.8509 Y2.2797  
G01 X-0.8527 Y2.2794  
G01 X-0.8531 Y2.2794  
G01 X-0.8536 Y2.2793  
G01 X-0.8554 Y2.2794  
G01 X-0.9429 Y2.2794  
G01 X-0.9431 Y2.2793  
G01 X-0.9452 Y2.2794  
G01 X-0.9473 Y2.2794  
G01 X-0.9474 Y2.2794  
G01 X-0.9476 Y2.2794  
G01 X-0.9497 Y2.2798  
G01 X-0.9518 Y2.2802  
G01 X-0.9519 Y2.2803  
G01 X-0.9521 Y2.2803  
G01 X-0.9540 Y2.2812  
G01 X-0.9560 Y2.2820  
G01 X-0.9561 Y2.2821  
G01 X-0.9563 Y2.2821  
G01 X-0.9580 Y2.2833  
G01 X-0.9598 Y2.2845  
G01 X-0.9599 Y2.2846  
G01 X-0.9600 Y2.2847  
G01 X-0.9615 Y2.2863  
G01 X-0.9630 Y2.2877  
G01 X-0.9631 Y2.2879  
G01 X-0.9632 Y2.2880  
G01 X-0.9643 Y2.2898  
G01 X-0.9655 Y2.2915  
G01 X-0.9656 Y2.2917  
G01 X-0.9974 Y2.3409  
G01 X-1.0033 Y2.3409  
G01 X-1.0097 Y2.3421  
G01 X-1.0157 Y2.3446  
G01 X-1.0211 Y2.3483  
G00 Z0.0500  
G00 X-0.9211 Y2.3483  
G01 Z-0.0040 F10    
G01 X-0.9257 Y2.3529  F20    
G01 X-0.9294 Y2.3583  
G01 X-0.9319 Y2.3643  
G01 X-0.9331 Y2.3707  
G01 X-0.9331 Y2.4293  
G01 X-0.9319 Y2.4357  
G01 X-0.9294 Y2.4417  
G01 X-0.9257 Y2.4471  
G01 X-0.9231 Y2.4497  
G01 X-0.9231 Y2.5419  
G01 X-0.9235 Y2.5420  
G01 X-0.9273 Y2.5445  
G01 X-0.9305 Y2.5477  
G01 X-0.9996 Y2.6169  
G01 X-1.0137 Y2.6169  
G01 X-1.0331 Y2.6363  
G01 X-1.0331 Y2.6637  
G01 X-1.0137 Y2.6831  
G01 X-0.9863 Y2.6831  
G01 X-0.9669 Y2.6637  
G01 X-0.9669 Y2.6496  
G01 X-0.9226 Y2.6053  
G01 X-0.9223 Y2.6068  
G01 X-0.9205 Y2.6110  
G01 X-0.9180 Y2.6148  
G01 X-0.8996 Y2.6331  
G01 X-0.8996 Y2.6706  
G01 X-0.8706 Y2.6996  
G01 X-0.8294 Y2.6996  
G01 X-0.8004 Y2.6706  
G01 X-0.8004 Y2.6294  
G01 X-0.8294 Y2.6004  
G01 X-0.8669 Y2.6004  
G01 X-0.8769 Y2.5904  
G01 X-0.8769 Y2.4497  
G01 X-0.8743 Y2.4471  
G01 X-0.8706 Y2.4417  
G01 X-0.8681 Y2.4357  
G01 X-0.8669 Y2.4293  
G01 X-0.8669 Y2.3707  
G01 X-0.8681 Y2.3643  
G01 X-0.8706 Y2.3583  
G01 X-0.8743 Y2.3529  
G01 X-0.8789 Y2.3483  
G01 X-0.8843 Y2.3446  
G01 X-0.8903 Y2.3421  
G01 X-0.8967 Y2.3409  
G01 X-0.9033 Y2.3409  
G01 X-0.9097 Y2.3421  
G01 X-0.9157 Y2.3446  
G01 X-0.9211 Y2.3483  
G00 Z0.0500  
G00 X-0.6857 Y2.3936  
G01 Z-0.0040 F10    
G01 X-0.6858 Y2.3944  F20    
G01 X-0.6856 Y2.3959  
G01 X-0.6855 Y2.3973  
G01 X-0.6853 Y2.3981  
G01 X-0.6852 Y2.3989  
G01 X-0.6847 Y2.4003  
G01 X-0.6843 Y2.4017  
G01 X-0.6840 Y2.4025  
G01 X-0.6837 Y2.4032  
G01 X-0.6831 Y2.4043  
G01 X-0.6831 Y2.4137  
G01 X-0.6637 Y2.4331  
G01 X-0.6363 Y2.4331  
G01 X-0.6169 Y2.4137  
G01 X-0.6169 Y2.3974  
G01 X-0.5032 Y2.2686  
G01 X-0.4962 Y2.2686  
G01 X-0.4887 Y2.2672  
G01 X-0.4817 Y2.2643  
G01 X-0.4754 Y2.2600  
G01 X-0.4700 Y2.2546  
G01 X-0.4657 Y2.2483  
G01 X-0.4628 Y2.2413  
G01 X-0.4614 Y2.2338  
G01 X-0.4614 Y2.2262  
G01 X-0.4628 Y2.2187  
G01 X-0.4657 Y2.2117  
G01 X-0.4700 Y2.2054  
G01 X-0.4754 Y2.2000  
G01 X-0.4817 Y2.1957  
G01 X-0.4887 Y2.1928  
G01 X-0.4962 Y2.1914  
G01 X-0.5038 Y2.1914  
G01 X-0.5113 Y2.1928  
G01 X-0.5183 Y2.1957  
G01 X-0.5246 Y2.2000  
G01 X-0.5300 Y2.2054  
G01 X-0.5343 Y2.2117  
G01 X-0.5372 Y2.2187  
G01 X-0.5386 Y2.2262  
G01 X-0.5386 Y2.2338  
G01 X-0.5378 Y2.2379  
G01 X-0.6415 Y2.3554  
G01 X-0.6493 Y2.2164  
G01 X-0.6492 Y2.2157  
G01 X-0.6494 Y2.2142  
G01 X-0.6495 Y2.2127  
G01 X-0.6497 Y2.2119  
G01 X-0.6498 Y2.2111  
G01 X-0.6503 Y2.2097  
G01 X-0.6507 Y2.2083  
G01 X-0.6510 Y2.2075  
G01 X-0.6512 Y2.2068  
G01 X-0.6520 Y2.2055  
G01 X-0.6526 Y2.2041  
G01 X-0.6531 Y2.2035  
G01 X-0.6535 Y2.2028  
G01 X-0.6545 Y2.2017  
G01 X-0.6554 Y2.2005  
G01 X-0.6560 Y2.2000  
G01 X-0.7705 Y2.0674  
G01 X-0.7669 Y2.0637  
G01 X-0.7669 Y2.0363  
G01 X-0.7863 Y2.0169  
G01 X-0.8137 Y2.0169  
G01 X-0.8331 Y2.0363  
G01 X-0.8331 Y2.0637  
G01 X-0.8225 Y2.0743  
G01 X-0.8224 Y2.0747  
G01 X-0.8223 Y2.0755  
G01 X-0.8217 Y2.0768  
G01 X-0.8213 Y2.0782  
G01 X-0.8208 Y2.0789  
G01 X-0.8205 Y2.0797  
G01 X-0.8197 Y2.0809  
G01 X-0.8190 Y2.0822  
G01 X-0.8185 Y2.0828  
G01 X-0.8180 Y2.0835  
G01 X-0.8170 Y2.0845  
G01 X-0.6952 Y2.2254  
G01 X-0.6857 Y2.3936  
G00 Z0.0500  
G00 X-0.4996 Y2.0206  
G01 Z-0.0040 F10    
G01 X-0.4706 Y2.0496  F20    
G01 X-0.4294 Y2.0496  
G01 X-0.4004 Y2.0206  
G01 X-0.4004 Y1.9831  
G01 X-0.3863 Y1.9831  
G01 X-0.3669 Y1.9637  
G01 X-0.3669 Y1.9363  
G01 X-0.3863 Y1.9169  
G01 X-0.4137 Y1.9169  
G01 X-0.4331 Y1.9363  
G01 X-0.4331 Y1.9504  
G01 X-0.4706 Y1.9504  
G01 X-0.4996 Y1.9794  
G01 X-0.4996 Y2.0206  
G00 Z0.0500  
G00 X-0.8363 Y1.2331  
G01 Z-0.0040 F10    
G01 X-0.8169 Y1.2137  F20    
G01 X-0.8169 Y1.1863  
G01 X-0.8363 Y1.1669  
G01 X-0.8637 Y1.1669  
G01 X-0.8737 Y1.1769  
G01 X-0.9279 Y1.1769  
G01 X-1.0644 Y1.0404  
G01 X-1.0644 Y0.7264  
G01 X-1.0642 Y0.7254  
G01 X-1.0644 Y0.7241  
G01 X-1.0644 Y0.7227  
G01 X-1.0645 Y0.7218  
G01 X-1.0646 Y0.7209  
G01 X-1.0650 Y0.7196  
G01 X-1.0652 Y0.7182  
G01 X-1.0656 Y0.7174  
G01 X-1.0658 Y0.7165  
G01 X-1.0665 Y0.7153  
G01 X-1.0670 Y0.7140  
G01 X-1.0675 Y0.7133  
G01 X-1.0679 Y0.7124  
G01 X-1.0688 Y0.7114  
G01 X-1.0695 Y0.7102  
G01 X-1.0702 Y0.7096  
G01 X-1.1063 Y0.6639  
G01 X-1.1070 Y0.6627  
G01 X-1.1077 Y0.6621  
G01 X-1.1082 Y0.6614  
G01 X-1.1093 Y0.6605  
G01 X-1.1102 Y0.6595  
G01 X-1.1110 Y0.6590  
G01 X-1.1117 Y0.6584  
G01 X-1.1129 Y0.6577  
G01 X-1.1140 Y0.6570  
G01 X-1.1149 Y0.6566  
G01 X-1.1157 Y0.6562  
G01 X-1.1170 Y0.6558  
G01 X-1.1182 Y0.6552  
G01 X-1.1192 Y0.6551  
G01 X-1.1200 Y0.6548  
G01 X-1.1214 Y0.6546  
G01 X-1.1227 Y0.6544  
G01 X-1.1236 Y0.6544  
G01 X-1.1246 Y0.6542  
G01 X-1.1259 Y0.6544  
G01 X-1.5223 Y0.6544  
G01 X-1.5268 Y0.6552  
G01 X-1.5310 Y0.6570  
G01 X-1.5348 Y0.6595  
G01 X-1.5380 Y0.6627  
G01 X-1.5405 Y0.6665  
G01 X-1.5423 Y0.6707  
G01 X-1.5431 Y0.6752  
G01 X-1.5431 Y0.8222  
G01 X-1.7140 Y0.8671  
G01 X-1.7143 Y0.8671  
G01 X-1.7162 Y0.8677  
G01 X-1.7181 Y0.8682  
G01 X-1.7184 Y0.8683  
G01 X-1.7187 Y0.8684  
G01 X-1.7204 Y0.8693  
G01 X-1.7222 Y0.8702  
G01 X-1.7225 Y0.8704  
G01 X-1.7228 Y0.8706  
G01 X-1.7243 Y0.8718  
G01 X-1.7258 Y0.8730  
G01 X-1.7260 Y0.8732  
G01 X-1.7263 Y0.8734  
G01 X-1.7276 Y0.8749  
G01 X-1.7288 Y0.8764  
G01 X-1.7290 Y0.8767  
G01 X-1.7292 Y0.8769  
G01 X-1.7302 Y0.8786  
G01 X-1.7311 Y0.8803  
G01 X-1.7313 Y0.8806  
G01 X-1.7314 Y0.8809  
G01 X-1.7320 Y0.8828  
G01 X-1.7326 Y0.8846  
G01 X-1.7327 Y0.8849  
G01 X-1.7779 Y1.0298  
G01 X-1.9223 Y1.0569  
G01 X-1.9225 Y1.0569  
G01 X-1.9245 Y1.0573  
G01 X-1.9265 Y1.0577  
G01 X-1.9267 Y1.0578  
G01 X-1.9270 Y1.0578  
G01 X-1.9289 Y1.0586  
G01 X-1.9307 Y1.0594  
G01 X-1.9310 Y1.0595  
G01 X-1.9312 Y1.0596  
G01 X-1.9329 Y1.0608  
G01 X-1.9346 Y1.0619  
G01 X-1.9347 Y1.0620  
G01 X-1.9350 Y1.0622  
G01 X-1.9364 Y1.0636  
G01 X-1.9378 Y1.0650  
G01 X-1.9380 Y1.0653  
G01 X-1.9381 Y1.0654  
G01 X-1.9392 Y1.0671  
G01 X-1.9404 Y1.0688  
G01 X-1.9405 Y1.0690  
G01 X-1.9406 Y1.0693  
G01 X-1.9414 Y1.0711  
G01 X-1.9422 Y1.0730  
G01 X-1.9422 Y1.0733  
G01 X-1.9423 Y1.0735  
G01 X-1.9427 Y1.0755  
G01 X-1.9431 Y1.0775  
G01 X-1.9431 Y1.0777  
G01 X-1.9714 Y1.2286  
G01 X-2.0699 Y1.3248  
G01 X-2.4355 Y1.3443  
G01 X-2.4370 Y1.3443  
G01 X-2.4378 Y1.3445  
G01 X-2.4385 Y1.3445  
G01 X-2.4400 Y1.3449  
G01 X-2.4415 Y1.3452  
G01 X-2.4422 Y1.3454  
G01 X-2.4429 Y1.3456  
G01 X-2.4443 Y1.3463  
G01 X-2.4457 Y1.3469  
G01 X-2.4464 Y1.3473  
G01 X-2.4470 Y1.3476  
G01 X-2.4483 Y1.3485  
G01 X-2.5036 Y1.3846  
G01 X-2.5040 Y1.3848  
G01 X-2.5055 Y1.3858  
G01 X-2.5071 Y1.3869  
G01 X-2.5074 Y1.3872  
G01 X-2.5077 Y1.3874  
G01 X-2.5090 Y1.3888  
G01 X-2.5103 Y1.3900  
G01 X-2.5106 Y1.3904  
G01 X-2.5109 Y1.3907  
G01 X-2.5118 Y1.3923  
G01 X-2.5129 Y1.3938  
G01 X-2.5131 Y1.3942  
G01 X-2.5133 Y1.3946  
G01 X-2.5140 Y1.3963  
G01 X-2.5147 Y1.3980  
G01 X-2.5148 Y1.3984  
G01 X-2.5149 Y1.3988  
G01 X-2.5152 Y1.4007  
G01 X-2.5156 Y1.4025  
G01 X-2.5156 Y1.4029  
G01 X-2.5157 Y1.4033  
G01 X-2.5157 Y1.4052  
G01 X-2.5157 Y1.4070  
G01 X-2.5156 Y1.4075  
G01 X-2.5156 Y1.4079  
G01 X-2.5152 Y1.4097  
G01 X-2.5148 Y1.4115  
G01 X-2.5147 Y1.4119  
G01 X-2.4851 Y1.5423  
G01 X-2.4848 Y1.5443  
G01 X-2.4846 Y1.5445  
G01 X-2.4846 Y1.5448  
G01 X-2.4838 Y1.5466  
G01 X-2.4830 Y1.5485  
G01 X-2.4828 Y1.5487  
G01 X-2.4827 Y1.5490  
G01 X-2.4816 Y1.5506  
G01 X-2.4805 Y1.5523  
G01 X-2.4803 Y1.5525  
G01 X-2.4801 Y1.5527  
G01 X-2.4787 Y1.5541  
G01 X-2.3831 Y1.6496  
G01 X-2.3831 Y1.6637  
G01 X-2.3731 Y1.6737  
G01 X-2.3731 Y1.7763  
G01 X-2.3831 Y1.7863  
G01 X-2.3831 Y1.8137  
G01 X-2.3637 Y1.8331  
G01 X-2.3363 Y1.8331  
G01 X-2.3169 Y1.8137  
G01 X-2.3169 Y1.7863  
G01 X-2.3269 Y1.7763  
G01 X-2.3269 Y1.6737  
G01 X-2.3169 Y1.6637  
G01 X-2.3169 Y1.6363  
G01 X-2.3363 Y1.6169  
G01 X-2.3504 Y1.6169  
G01 X-2.4414 Y1.5259  
G01 X-2.4664 Y1.4156  
G01 X-2.4276 Y1.3903  
G01 X-2.0595 Y1.3707  
G01 X-2.0580 Y1.3707  
G01 X-2.0572 Y1.3705  
G01 X-2.0565 Y1.3705  
G01 X-2.0550 Y1.3701  
G01 X-2.0535 Y1.3698  
G01 X-2.0528 Y1.3696  
G01 X-2.0521 Y1.3694  
G01 X-2.0507 Y1.3687  
G01 X-2.0493 Y1.3681  
G01 X-2.0486 Y1.3677  
G01 X-2.0480 Y1.3674  
G01 X-2.0467 Y1.3665  
G01 X-2.0455 Y1.3657  
G01 X-2.0449 Y1.3651  
G01 X-2.0443 Y1.3647  
G01 X-2.0433 Y1.3635  
G01 X-1.9353 Y1.2580  
G01 X-1.9350 Y1.2578  
G01 X-1.9336 Y1.2564  
G01 X-1.9322 Y1.2550  
G01 X-1.9320 Y1.2547  
G01 X-1.9319 Y1.2546  
G01 X-1.9308 Y1.2529  
G01 X-1.9296 Y1.2512  
G01 X-1.9295 Y1.2510  
G01 X-1.9294 Y1.2507  
G01 X-1.9286 Y1.2489  
G01 X-1.9278 Y1.2470  
G01 X-1.9278 Y1.2468  
G01 X-1.9277 Y1.2465  
G01 X-1.9273 Y1.2445  
G01 X-1.9269 Y1.2425  
G01 X-1.9269 Y1.2423  
G01 X-1.9002 Y1.0998  
G01 X-1.7568 Y1.0730  
G01 X-1.7557 Y1.0729  
G01 X-1.7546 Y1.0725  
G01 X-1.7535 Y1.0723  
G01 X-1.7524 Y1.0719  
G01 X-1.7513 Y1.0716  
G01 X-1.7503 Y1.0710  
G01 X-1.7493 Y1.0706  
G01 X-1.7483 Y1.0700  
G01 X-1.7472 Y1.0694  
G01 X-1.7464 Y1.0688  
G01 X-1.7454 Y1.0681  
G01 X-1.7446 Y1.0673  
G01 X-1.7437 Y1.0666  
G01 X-1.7430 Y1.0657  
G01 X-1.7422 Y1.0650  
G01 X-1.7415 Y1.0640  
G01 X-1.7408 Y1.0631  
G01 X-1.7402 Y1.0621  
G01 X-1.7396 Y1.0612  
G01 X-1.7391 Y1.0601  
G01 X-1.7386 Y1.0591  
G01 X-1.7383 Y1.0580  
G01 X-1.7378 Y1.0570  
G01 X-1.7376 Y1.0558  
G01 X-1.6917 Y0.9091  
G01 X-1.5148 Y0.8626  
G01 X-1.5132 Y0.8623  
G01 X-1.5126 Y0.8620  
G01 X-1.5119 Y0.8618  
G01 X-1.5105 Y0.8611  
G01 X-1.5090 Y0.8605  
G01 X-1.5084 Y0.8601  
G01 X-1.5078 Y0.8598  
G01 X-1.5066 Y0.8589  
G01 X-1.5052 Y0.8580  
G01 X-1.5047 Y0.8575  
G01 X-1.5042 Y0.8570  
G01 X-1.5031 Y0.8559  
G01 X-1.5020 Y0.8548  
G01 X-1.5016 Y0.8542  
G01 X-1.5012 Y0.8536  
G01 X-1.5004 Y0.8523  
G01 X-1.4995 Y0.8510  
G01 X-1.4992 Y0.8503  
G01 X-1.4989 Y0.8497  
G01 X-1.4983 Y0.8482  
G01 X-1.4977 Y0.8468  
G01 X-1.4976 Y0.8461  
G01 X-1.4974 Y0.8454  
G01 X-1.4972 Y0.8438  
G01 X-1.4969 Y0.8423  
G01 X-1.4969 Y0.8416  
G01 X-1.4968 Y0.8409  
G01 X-1.4969 Y0.8393  
G01 X-1.4969 Y0.7006  
G01 X-1.1362 Y0.7006  
G01 X-1.1106 Y0.7330  
G01 X-1.1106 Y1.0523  
G01 X-1.1098 Y1.0568  
G01 X-1.1080 Y1.0610  
G01 X-1.1055 Y1.0648  
G01 X-1.1023 Y1.0680  
G01 X-0.9523 Y1.2180  
G01 X-0.9485 Y1.2205  
G01 X-0.9443 Y1.2223  
G01 X-0.9398 Y1.2231  
G01 X-0.8737 Y1.2231  
G01 X-0.8637 Y1.2331  
G01 X-0.8363 Y1.2331  
G00 Z0.0500  
G00 X-0.8363 Y1.1331  
G01 Z-0.0040 F10    
G01 X-0.8169 Y1.1137  F20    
G01 X-0.8169 Y1.0863  
G01 X-0.8363 Y1.0669  
G01 X-0.8637 Y1.0669  
G01 X-0.8831 Y1.0863  
G01 X-0.8831 Y1.1137  
G01 X-0.8637 Y1.1331  
G01 X-0.8363 Y1.1331  
G00 Z0.0500  
G00 X-0.9363 Y1.1331  
G01 Z-0.0040 F10    
G01 X-0.9169 Y1.1137  F20    
G01 X-0.9169 Y1.0863  
G01 X-0.9363 Y1.0669  
G01 X-0.9637 Y1.0669  
G01 X-0.9831 Y1.0863  
G01 X-0.9831 Y1.1137  
G01 X-0.9637 Y1.1331  
G01 X-0.9363 Y1.1331  
G00 Z0.0500  
G00 X-1.2446 Y1.1343  
G01 Z-0.0040 F10    
G01 X-1.2483 Y1.1289  F20    
G01 X-1.2529 Y1.1243  
G01 X-1.2583 Y1.1206  
G01 X-1.2643 Y1.1181  
G01 X-1.2707 Y1.1169  
G01 X-1.3293 Y1.1169  
G01 X-1.3357 Y1.1181  
G01 X-1.3417 Y1.1206  
G01 X-1.3471 Y1.1243  
G01 X-1.3517 Y1.1289  
G01 X-1.3554 Y1.1343  
G01 X-1.3579 Y1.1403  
G01 X-1.3591 Y1.1467  
G01 X-1.3591 Y1.1533  
G01 X-1.3579 Y1.1597  
G01 X-1.3554 Y1.1657  
G01 X-1.3517 Y1.1711  
G01 X-1.3495 Y1.1734  
G01 X-1.4160 Y1.2533  
G01 X-1.4170 Y1.2544  
G01 X-1.4175 Y1.2551  
G01 X-1.4180 Y1.2557  
G01 X-1.4187 Y1.2570  
G01 X-1.4195 Y1.2582  
G01 X-1.4198 Y1.2590  
G01 X-1.4202 Y1.2597  
G01 X-1.4206 Y1.2611  
G01 X-1.4211 Y1.2625  
G01 X-1.4213 Y1.2633  
G01 X-1.4215 Y1.2641  
G01 X-1.4217 Y1.2655  
G01 X-1.4296 Y1.3101  
G01 X-1.5497 Y1.3769  
G01 X-1.5763 Y1.3769  
G01 X-1.5863 Y1.3669  
G01 X-1.6137 Y1.3669  
G01 X-1.6331 Y1.3863  
G01 X-1.6331 Y1.4137  
G01 X-1.6137 Y1.4331  
G01 X-1.5863 Y1.4331  
G01 X-1.5763 Y1.4231  
G01 X-1.5447 Y1.4231  
G01 X-1.5434 Y1.4233  
G01 X-1.5424 Y1.4231  
G01 X-1.5415 Y1.4231  
G01 X-1.5402 Y1.4229  
G01 X-1.5388 Y1.4227  
G01 X-1.5379 Y1.4224  
G01 X-1.5370 Y1.4223  
G01 X-1.5358 Y1.4218  
G01 X-1.5345 Y1.4213  
G01 X-1.5337 Y1.4209  
G01 X-1.5328 Y1.4205  
G01 X-1.5317 Y1.4198  
G01 X-1.3985 Y1.3458  
G01 X-1.3974 Y1.3453  
G01 X-1.3965 Y1.3447  
G01 X-1.3955 Y1.3441  
G01 X-1.3946 Y1.3434  
G01 X-1.3936 Y1.3427  
G01 X-1.3929 Y1.3419  
G01 X-1.3920 Y1.3412  
G01 X-1.3913 Y1.3402  
G01 X-1.3905 Y1.3394  
G01 X-1.3899 Y1.3385  
G01 X-1.3892 Y1.3376  
G01 X-1.3887 Y1.3365  
G01 X-1.3880 Y1.3355  
G01 X-1.3876 Y1.3345  
G01 X-1.3871 Y1.3336  
G01 X-1.3868 Y1.3324  
G01 X-1.3864 Y1.3313  
G01 X-1.3862 Y1.3302  
G01 X-1.3859 Y1.3292  
G01 X-1.3858 Y1.3280  
G01 X-1.3770 Y1.2788  
G01 X-1.2975 Y1.1831  
G01 X-1.2707 Y1.1831  
G01 X-1.2643 Y1.1819  
G01 X-1.2583 Y1.1794  
G01 X-1.2529 Y1.1757  
G01 X-1.2483 Y1.1711  
G01 X-1.2446 Y1.1657  
G01 X-1.2421 Y1.1597  
G01 X-1.2409 Y1.1533  
G01 X-1.2409 Y1.1467  
G01 X-1.2421 Y1.1403  
G01 X-1.2446 Y1.1343  
G00 Z0.0500  
G00 X-1.2529 Y1.0757  
G01 Z-0.0040 F10    
G01 X-1.2483 Y1.0711  F20    
G01 X-1.2446 Y1.0657  
G01 X-1.2421 Y1.0597  
G01 X-1.2409 Y1.0533  
G01 X-1.2409 Y1.0529  
G01 X-1.1613 Y1.0140  
G01 X-1.1608 Y1.0138  
G01 X-1.1593 Y1.0130  
G01 X-1.1578 Y1.0123  
G01 X-1.1573 Y1.0119  
G01 X-1.1568 Y1.0116  
G01 X-1.1555 Y1.0105  
G01 X-1.1542 Y1.0095  
G01 X-1.1538 Y1.0091  
G01 X-1.1533 Y1.0087  
G01 X-1.1522 Y1.0074  
G01 X-1.1511 Y1.0061  
G01 X-1.1508 Y1.0056  
G01 X-1.1505 Y1.0051  
G01 X-1.1497 Y1.0036  
G01 X-1.1488 Y1.0022  
G01 X-1.1486 Y1.0016  
G01 X-1.1484 Y1.0011  
G01 X-1.1479 Y0.9994  
G01 X-1.1474 Y0.9979  
G01 X-1.1473 Y0.9973  
G01 X-1.1471 Y0.9967  
G01 X-1.1470 Y0.9950  
G01 X-1.1468 Y0.9933  
G01 X-1.1468 Y0.9927  
G01 X-1.1289 Y0.7758  
G01 X-1.1169 Y0.7637  
G01 X-1.1169 Y0.7363  
G01 X-1.1363 Y0.7169  
G01 X-1.1637 Y0.7169  
G01 X-1.1831 Y0.7363  
G01 X-1.1831 Y0.7637  
G01 X-1.1750 Y0.7719  
G01 X-1.1920 Y0.9775  
G01 X-1.2724 Y1.0169  
G01 X-1.3293 Y1.0169  
G01 X-1.3357 Y1.0181  
G01 X-1.3417 Y1.0206  
G01 X-1.3471 Y1.0243  
G01 X-1.3517 Y1.0289  
G01 X-1.3554 Y1.0343  
G01 X-1.3579 Y1.0403  
G01 X-1.3591 Y1.0467  
G01 X-1.3591 Y1.0533  
G01 X-1.3579 Y1.0597  
G01 X-1.3554 Y1.0657  
G01 X-1.3517 Y1.0711  
G01 X-1.3471 Y1.0757  
G01 X-1.3417 Y1.0794  
G01 X-1.3357 Y1.0819  
G01 X-1.3293 Y1.0831  
G01 X-1.2707 Y1.0831  
G01 X-1.2643 Y1.0819  
G01 X-1.2583 Y1.0794  
G01 X-1.2529 Y1.0757  
G00 Z0.0500  
G00 X-1.2529 Y0.9757  
G01 Z-0.0040 F10    
G01 X-1.2483 Y0.9711  F20    
G01 X-1.2446 Y0.9657  
G01 X-1.2421 Y0.9597  
G01 X-1.2409 Y0.9533  
G01 X-1.2409 Y0.9467  
G01 X-1.2421 Y0.9403  
G01 X-1.2446 Y0.9343  
G01 X-1.2483 Y0.9289  
G01 X-1.2529 Y0.9243  
G01 X-1.2583 Y0.9206  
G01 X-1.2643 Y0.9181  
G01 X-1.2707 Y0.9169  
G01 X-1.3004 Y0.9169  
G01 X-1.3769 Y0.8404  
G01 X-1.3769 Y0.7937  
G01 X-1.3669 Y0.7837  
G01 X-1.3669 Y0.7563  
G01 X-1.3863 Y0.7369  
G01 X-1.4137 Y0.7369  
G01 X-1.4331 Y0.7563  
G01 X-1.4331 Y0.7837  
G01 X-1.4231 Y0.7937  
G01 X-1.4231 Y0.8356  
G01 X-1.4238 Y0.8360  
G01 X-1.4249 Y0.8366  
G01 X-1.4257 Y0.8372  
G01 X-1.4266 Y0.8377  
G01 X-1.4275 Y0.8386  
G01 X-1.4285 Y0.8394  
G01 X-1.4292 Y0.8401  
G01 X-1.5654 Y0.9669  
G01 X-1.5763 Y0.9669  
G01 X-1.5789 Y0.9643  
G01 X-1.5843 Y0.9606  
G01 X-1.5903 Y0.9581  
G01 X-1.5967 Y0.9569  
G01 X-1.6033 Y0.9569  
G01 X-1.6097 Y0.9581  
G01 X-1.6157 Y0.9606  
G01 X-1.6211 Y0.9643  
G01 X-1.6257 Y0.9689  
G01 X-1.6294 Y0.9743  
G01 X-1.6319 Y0.9803  
G01 X-1.6331 Y0.9867  
G01 X-1.6331 Y0.9933  
G01 X-1.6319 Y0.9997  
G01 X-1.6294 Y1.0057  
G01 X-1.6257 Y1.0111  
G01 X-1.6211 Y1.0157  
G01 X-1.6157 Y1.0194  
G01 X-1.6097 Y1.0219  
G01 X-1.6033 Y1.0231  
G01 X-1.5967 Y1.0231  
G01 X-1.5903 Y1.0219  
G01 X-1.5843 Y1.0194  
G01 X-1.5789 Y1.0157  
G01 X-1.5763 Y1.0131  
G01 X-1.5567 Y1.0131  
G01 X-1.5548 Y1.0132  
G01 X-1.5544 Y1.0131  
G01 X-1.5540 Y1.0131  
G01 X-1.5521 Y1.0128  
G01 X-1.5503 Y1.0125  
G01 X-1.5499 Y1.0123  
G01 X-1.5495 Y1.0123  
G01 X-1.5478 Y1.0115  
G01 X-1.5460 Y1.0109  
G01 X-1.5457 Y1.0107  
G01 X-1.5453 Y1.0105  
G01 X-1.5437 Y1.0095  
G01 X-1.5421 Y1.0085  
G01 X-1.5418 Y1.0082  
G01 X-1.5415 Y1.0080  
G01 X-1.5402 Y1.0067  
G01 X-1.4034 Y0.8794  
G01 X-1.3526 Y0.9301  
G01 X-1.3554 Y0.9343  
G01 X-1.3579 Y0.9403  
G01 X-1.3591 Y0.9467  
G01 X-1.3591 Y0.9533  
G01 X-1.3579 Y0.9597  
G01 X-1.3554 Y0.9657  
G01 X-1.3517 Y0.9711  
G01 X-1.3471 Y0.9757  
G01 X-1.3417 Y0.9794  
G01 X-1.3357 Y0.9819  
G01 X-1.3293 Y0.9831  
G01 X-1.2707 Y0.9831  
G01 X-1.2643 Y0.9819  
G01 X-1.2583 Y0.9794  
G01 X-1.2529 Y0.9757  
G00 Z0.0500  
G00 X-0.9831 Y0.7637  
G01 Z-0.0040 F10    
G01 X-0.9637 Y0.7831  F20    
G01 X-0.9363 Y0.7831  
G01 X-0.9169 Y0.7637  
G01 X-0.9169 Y0.7363  
G01 X-0.9269 Y0.7263  
G01 X-0.9269 Y0.6000  
G01 X-0.9268 Y0.5977  
G01 X-0.9273 Y0.5955  
G01 X-0.9277 Y0.5933  
G01 X-0.9286 Y0.5911  
G01 X-0.9295 Y0.5891  
G01 X-0.9307 Y0.5872  
G01 X-0.9695 Y0.5290  
G01 X-0.9708 Y0.5271  
G01 X-0.9720 Y0.5253  
G01 X-0.9736 Y0.5236  
G01 X-0.9752 Y0.5220  
G01 X-0.9771 Y0.5208  
G01 X-0.9790 Y0.5195  
G01 X-0.9811 Y0.5186  
G01 X-0.9832 Y0.5177  
G01 X-0.9854 Y0.5173  
G01 X-0.9877 Y0.5169  
G01 X-0.9900 Y0.5169  
G01 X-0.9923 Y0.5168  
G01 X-3.2923 Y0.5169  
G01 X-3.2968 Y0.5177  
G01 X-3.3010 Y0.5195  
G01 X-3.3048 Y0.5220  
G01 X-3.6349 Y0.8522  
G01 X-3.6383 Y0.8511  
G01 X-3.6461 Y0.8499  
G01 X-3.6539 Y0.8499  
G01 X-3.6617 Y0.8511  
G01 X-3.6693 Y0.8535  
G01 X-3.6763 Y0.8571  
G01 X-3.6827 Y0.8617  
G01 X-3.6883 Y0.8673  
G01 X-3.6929 Y0.8737  
G01 X-3.6965 Y0.8807  
G01 X-3.6989 Y0.8883  
G01 X-3.7001 Y0.8961  
G01 X-3.7001 Y0.9039  
G01 X-3.6989 Y0.9117  
G01 X-3.6965 Y0.9193  
G01 X-3.6929 Y0.9263  
G01 X-3.6883 Y0.9327  
G01 X-3.6827 Y0.9383  
G01 X-3.6763 Y0.9429  
G01 X-3.6693 Y0.9465  
G01 X-3.6617 Y0.9489  
G01 X-3.6539 Y0.9501  
G01 X-3.6461 Y0.9501  
G01 X-3.6383 Y0.9489  
G01 X-3.6307 Y0.9465  
G01 X-3.6237 Y0.9429  
G01 X-3.6173 Y0.9383  
G01 X-3.6117 Y0.9327  
G01 X-3.6071 Y0.9263  
G01 X-3.6035 Y0.9193  
G01 X-3.6011 Y0.9117  
G01 X-3.5999 Y0.9039  
G01 X-3.5999 Y0.8961  
G01 X-3.6011 Y0.8883  
G01 X-3.6022 Y0.8849  
G01 X-3.2804 Y0.5631  
G01 X-1.0024 Y0.5631  
G01 X-0.9731 Y0.6070  
G01 X-0.9731 Y0.7263  
G01 X-0.9831 Y0.7363  
G01 X-0.9831 Y0.7637  
G00 Z0.0500  
G00 X-1.5669 Y0.7563  
G01 Z-0.0040 F10    
G01 X-1.5863 Y0.7369  F20    
G01 X-1.6137 Y0.7369  
G01 X-1.6214 Y0.7445  
G01 X-1.7605 Y0.7298  
G01 X-1.7754 Y0.7149  
G01 X-1.8046 Y0.7149  
G01 X-1.8251 Y0.7354  
G01 X-1.8251 Y0.7455  
G01 X-1.9249 Y0.8869  
G01 X-1.9337 Y0.8869  
G01 X-1.9531 Y0.9063  
G01 X-1.9531 Y0.9337  
G01 X-1.9337 Y0.9531  
G01 X-1.9063 Y0.9531  
G01 X-1.8869 Y0.9337  
G01 X-1.8869 Y0.9132  
G01 X-1.7965 Y0.7851  
G01 X-1.7754 Y0.7851  
G01 X-1.7661 Y0.7758  
G01 X-1.6264 Y0.7905  
G01 X-1.6137 Y0.8031  
G01 X-1.5863 Y0.8031  
G01 X-1.5669 Y0.7837  
G01 X-1.5669 Y0.7563  
G00 Z0.0500  
G00 X-1.5960 Y1.2264  
G01 Z-0.0040 F10    
G01 X-1.6153 Y1.2071  F20    
G01 X-1.6425 Y1.2071  
G01 X-1.6558 Y1.2204  
G01 X-1.7016 Y1.2269  
G01 X-1.7404 Y1.2269  
G01 X-1.7474 Y1.2199  
G01 X-1.7446 Y1.2157  
G01 X-1.7421 Y1.2097  
G01 X-1.7409 Y1.2033  
