(/Applications/pcbgcode.repo/pcb-gcode.ulp)
(Copyright 2005 - 2012 by John Johnson)
(See readme.txt for licensing terms.)
(This file generated from the board:)
(.../Dropbox/CAM/eurorack/808sn/808sn.brd)
(Current profile is .../pcbgcode.repo/profiles/mach.pp  )
(This file generated 1/10/15 7:38 PM)
(Settings from pcb-machine.h)
(spindle on time = 0.0000)
(spindle speed = 20000.0000)
(tool change at 0.0000  0.0000  3.0000  )
(feed rate xy = F0     )
(feed rate z  = F20    )
(Z Axis Settings)
(  High     Up        Down     Drill)
(1.0000  	0.0500  	-0.0040 	-0.0730 )
(Settings from pcb-defaults.h)
(isolate min = 0.0020)
(isolate max = 0.0050)
(isolate step = 0.0010)
(Generated bottom outlines, bottom drill, )
(Unit of measure: inch)
( Tool|       Size       |  Min Sub |  Max Sub |   Count )
( T01 | 0.800mm 0.0315in | 0.0000in | 0.0000in |       0 )
( T02 | 0.813mm 0.0320in | 0.0000in | 0.0000in |       0 )
( T03 | 0.914mm 0.0360in | 0.0000in | 0.0000in |       0 )
( T04 | 1.016mm 0.0400in | 0.0000in | 0.0000in |       0 )
( T05 | 1.118mm 0.0440in | 0.0000in | 0.0000in |       0 )
( T06 | 1.200mm 0.0472in | 0.0000in | 0.0000in |       0 )
(Inch Mode)
G20
(Absolute Coordinates)
G90
S20000
G00 Z1.0000  
G00 X0.0000  Y0.0000  
M03
G04 P0.000000
M05
G00 Z3.0000  
M06 T01  ; 0.0315  
G01 Z0.0000  F20    
M06 
G00 Z0.0500  
M03
G04 P0.000000
G82 X-1.0213 Y1.8700  Z-0.0730 F20    R0.0500  P0.010000
G82 X-1.1787 Y1.8700  
G82 X-1.1400 Y1.6500  
G82 X-1.3000 Y1.6500  
G82 X-1.4500 Y1.8713  
G82 X-1.4500 Y2.0287  
G82 X-1.5200 Y2.1000  
G82 X-1.6800 Y2.3800  
G82 X-2.1500 Y2.3800  
G82 X-2.3000 Y2.3787  
G82 X-2.3000 Y2.2213  
G82 X-2.5000 Y2.2213  
G82 X-2.5000 Y2.3787  
G82 X-2.6900 Y2.2500  
G82 X-3.0600 Y2.2000  
G82 X-2.4400 Y1.9600  
G82 X-2.2700 Y1.7100  
G82 X-2.0200 Y1.8600  
G82 X-1.7500 Y1.3100  
G82 X-1.6289 Y1.2400  
G82 X-1.4911 Y1.2400  
G82 X-2.3311 Y1.2000  
G82 X-2.4689 Y1.2000  
G82 X-2.4911 Y1.0500  
G82 X-2.6289 Y1.0500  
G82 X-2.8911 Y0.9400  
G82 X-3.0289 Y0.9400  
G82 X-3.3700 Y1.1200  
G82 X-2.3300 Y0.9389  
G82 X-2.3300 Y0.8011  
M05
G00 Z3.0000  
G00 X0.0000  Y0.0000  
M06 T02  ; 0.0320  
G01 Z0.0000  F20    
M06 
G00 Z0.0500  
M03
G04 P0.000000
G82 X-0.2500 Y1.8500  Z-0.0730 F20    R0.0500  P0.010000
G82 X-0.4000 Y1.9500  
G82 X-0.2500 Y2.0500  
G82 X-0.4000 Y2.2300  
G82 X-0.5000 Y2.2300  
G82 X-0.6000 Y2.2000  
G82 X-0.6500 Y2.0500  
G82 X-0.8000 Y2.0500  
G82 X-0.8000 Y2.2000  
G82 X-0.9000 Y2.4000  
G82 X-1.0000 Y2.4000  
G82 X-1.1000 Y2.4000  
G82 X-1.3000 Y2.3500  
G82 X-1.3000 Y2.5500  
G82 X-1.2000 Y2.6500  
G82 X-1.2000 Y2.8000  
G82 X-1.0000 Y2.8000  
G82 X-1.0000 Y2.6500  
G82 X-0.6500 Y2.6000  
G82 X-0.6500 Y2.4000  
G82 X-1.0000 Y2.0500  
G82 X-1.2000 Y2.0500  
G82 X-1.6000 Y2.0000  
G82 X-1.7500 Y2.0000  
G82 X-1.7500 Y2.1500  
G82 X-1.7500 Y2.2500  
G82 X-1.7500 Y2.3500  
G82 X-1.7500 Y2.4500  
G82 X-1.6000 Y2.5500  
G82 X-1.5000 Y2.5500  
G82 X-1.5000 Y2.3500  
G82 X-1.6000 Y2.3500  
G82 X-2.0500 Y2.3500  
G82 X-2.0500 Y2.2500  
G82 X-2.0500 Y2.1500  
G82 X-1.9500 Y1.9500  
G82 X-1.9500 Y1.7500  
G82 X-1.9600 Y1.5500  
G82 X-2.1600 Y1.5500  
G82 X-2.1500 Y1.7200  
G82 X-2.1500 Y1.9200  
G82 X-2.3500 Y2.0000  
G82 X-2.3500 Y1.8000  
G82 X-2.3500 Y1.6500  
G82 X-2.5500 Y1.6500  
G82 X-2.6000 Y1.8000  
G82 X-2.6000 Y1.9000  
G82 X-2.6000 Y2.0000  
G82 X-2.6000 Y2.1000  
G82 X-2.7000 Y2.3500  
G82 X-2.7000 Y2.5500  
G82 X-2.5000 Y2.5000  
G82 X-2.3000 Y2.5000  
G82 X-2.0500 Y2.4500  
G82 X-1.7500 Y1.8000  
G82 X-1.6000 Y1.8000  
G82 X-1.6600 Y1.6000  
G82 X-1.7400 Y1.6000  
G82 X-1.8000 Y1.4000  
G82 X-1.8000 Y1.2000  
G82 X-1.6000 Y1.0700  
G82 X-1.6000 Y0.9900  
G82 X-1.6000 Y0.7700  
G82 X-1.4000 Y0.7700  
G82 X-1.3000 Y0.9500  
G82 X-1.3000 Y1.0500  
G82 X-1.3000 Y1.1500  
G82 X-1.3000 Y1.4500  
G82 X-1.3000 Y1.5500  
G82 X-1.0500 Y1.6500  
G82 X-0.9500 Y1.6500  
G82 X-0.8500 Y1.6500  
G82 X-0.8500 Y1.4500  
G82 X-0.7500 Y1.4500  
G82 X-0.6500 Y1.4500  
G82 X-0.5000 Y1.4500  
G82 X-0.4000 Y1.4500  
G82 X-0.3000 Y1.4500  
G82 X-0.3500 Y1.2500  
G82 X-0.5000 Y1.2500  
G82 X-0.5000 Y1.0500  
G82 X-0.3500 Y1.0500  
G82 X-0.5500 Y0.9000  
G82 X-0.5500 Y0.7000  
G82 X-0.9500 Y0.7500  
G82 X-1.1500 Y0.7500  
G82 X-0.9500 Y1.1000  
G82 X-0.8500 Y1.1000  
G82 X-0.8500 Y1.2000  
G82 X-0.7500 Y1.1000  
G82 X-0.4000 Y1.7500  
G82 X-0.6500 Y1.8500  
G82 X-0.8000 Y1.8500  
G82 X-1.6000 Y1.4000  
G82 X-2.1000 Y1.2000  
G82 X-2.1200 Y0.9200  
G82 X-1.9200 Y0.9200  
G82 X-2.5600 Y0.8800  
G82 X-2.7600 Y0.8800  
G82 X-3.0100 Y1.0900  
G82 X-3.0000 Y1.2500  
G82 X-2.8400 Y1.2300  
G82 X-2.7400 Y1.2300  
G82 X-2.6400 Y1.2300  
G82 X-2.6000 Y1.4500  
G82 X-2.7000 Y1.5500  
G82 X-2.9000 Y1.5500  
G82 X-3.0500 Y1.7000  
G82 X-2.9000 Y1.8000  
G82 X-2.9000 Y1.9000  
G82 X-2.9000 Y2.0000  
G82 X-2.9000 Y2.1000  
G82 X-3.1000 Y2.0500  
G82 X-3.1300 Y2.2000  
G82 X-3.1500 Y2.3500  
G82 X-3.1500 Y2.5000  
G82 X-2.9500 Y2.5000  
G82 X-2.9500 Y2.3500  
G82 X-3.3300 Y2.2000  
G82 X-3.3000 Y2.0500  
G82 X-3.3000 Y1.8500  
G82 X-3.2000 Y1.8500  
G82 X-3.0500 Y1.9000  
G82 X-3.1500 Y1.5000  
G82 X-3.3500 Y1.5000  
G82 X-3.2000 Y1.2500  
G82 X-3.2100 Y1.0900  
G82 X-2.4000 Y1.4500  
G82 X-3.5100 Y2.2200  
G82 X-3.5900 Y2.2200  
M05
G00 Z3.0000  
G00 X0.0000  Y0.0000  
M06 T03  ; 0.0360  
G01 Z0.0000  F20    
M06 
G00 Z0.0500  
M03
G04 P0.000000
G82 X-1.7900 Y0.7500  Z-0.0730 F20    R0.0500  P0.010000
G82 X-2.0900 Y0.7500  
M05
G00 Z3.0000  
G00 X0.0000  Y0.0000  
M06 T04  ; 0.0400  
G01 Z0.0000  F20    
M06 
G00 Z0.0500  
M03
G04 P0.000000
G82 X-0.3500 Y2.5500  Z-0.0730 F20    R0.0500  P0.010000
G82 X-0.4500 Y2.5500  
G82 X-0.4500 Y2.6500  
G82 X-0.3500 Y2.6500  
G82 X-0.3500 Y2.7500  
G82 X-0.4500 Y2.7500  
G82 X-0.4500 Y2.8500  
G82 X-0.3500 Y2.8500  
G82 X-0.3500 Y2.9500  
G82 X-0.4500 Y2.9500  
M05
G00 Z3.0000  
G00 X0.0000  Y0.0000  
M06 T05  ; 0.0440  
G01 Z0.0000  F20    
M06 
G00 Z0.0500  
M03
G04 P0.000000
G82 X-0.4500 Y2.0000  Z-0.0730 F20    R0.0500  P0.010000
G82 X-0.8500 Y2.6500  
G82 X-2.9500 Y2.6000  
M05
G00 Z3.0000  
G00 X0.0000  Y0.0000  
M06 T06  ; 0.0472  
G01 Z0.0000  F20    
M06 
G00 Z0.0500  
M03
G04 P0.000000
G82 X-3.6500 Y0.7031  Z-0.0730 F20    R0.0500  P0.010000
G82 X-3.6500 Y0.9000  
G82 X-3.6500 Y1.0969  
G82 X-3.6500 Y1.5531  
G82 X-3.6500 Y1.7500  
G82 X-3.6500 Y1.9469  
G82 X-3.6500 Y2.5031  
G82 X-3.6500 Y2.7000  
G82 X-3.6500 Y2.8969  
T01 
G00 Z1.0000  
M05
M02
