(/Applications/pcbgcode.repo/pcb-gcode.ulp)
(Copyright 2005 - 2012 by John Johnson)
(See readme.txt for licensing terms.)
(This file generated from the board:)
(.../eurorack/808_snare/eagle/808sn.brd)
(Current profile is .../pcbgcode.repo/profiles/mach.pp  )
(This file generated 5/1/16 7:52 AM)
(Settings from pcb-machine.h)
(spindle on time = 0.0000)
(spindle speed = 20000.0000)
(tool change at 0.0000  0.0000  1.5000  )
(feed rate xy = F0     )
(feed rate z  = F20    )
(Z Axis Settings)
(  High     Up        Down     Drill)
(0.2500  	0.0500  	-0.0035 	-0.0750 )
(Settings from pcb-defaults.h)
(isolate min = 0.0060)
(isolate max = 0.0200)
(isolate step = 0.0015)
(Generated bottom outlines, bottom drill, )
(Unit of measure: inch)
( Tool|       Size       |  Min Sub |  Max Sub |   Count )
( T01 | 0.800mm 0.0315in | 0.0000in | 0.0000in |       0 )
( T02 | 0.813mm 0.0320in | 0.0000in | 0.0000in |       0 )
( T03 | 0.914mm 0.0360in | 0.0000in | 0.0000in |       0 )
( T04 | 1.000mm 0.0394in | 0.0000in | 0.0000in |       0 )
( T05 | 1.016mm 0.0400in | 0.0000in | 0.0000in |       0 )
( T06 | 1.200mm 0.0472in | 0.0000in | 0.0000in |       0 )
( T07 | 1.300mm 0.0512in | 0.0000in | 0.0000in |       0 )
(Inch Mode)
G20
(Absolute Coordinates)
G90
S20000
G00 Z0.2500  
G00 X0.0000  Y0.0000  
M03
G04 P0.000000
M05
G00 Z1.5000  
M06 T01  ; 0.0315  
G01 Z0.0000  F20    
M06 
G00 Z0.0500  
M03
G04 P0.000000
G82 X-0.9213 Y2.0000  Z-0.0750 F20    R0.0500  P0.020000
G82 X-1.0787 Y2.0000  
G82 X-1.0700 Y1.8400  
G82 X-1.3300 Y2.0900  
G82 X-1.5000 Y2.0600  
G82 X-1.7100 Y2.0600  
G82 X-1.7189 Y1.8000  
G82 X-1.5811 Y1.8000  
G82 X-1.5811 Y1.5000  
G82 X-1.7189 Y1.5000  
G82 X-1.5189 Y1.3500  
G82 X-1.3811 Y1.3500  
G82 X-1.3789 Y1.2300  
G82 X-1.2411 Y1.2300  
G82 X-2.0000 Y1.8116  
G82 X-2.0000 Y2.0084  
G82 X-2.1400 Y2.0600  
G82 X-2.3400 Y2.0600  
G82 X-2.6100 Y2.0184  
G82 X-2.6100 Y1.8216  
G82 X-2.8700 Y1.7600  
G82 X-3.0500 Y1.9300  
G82 X-3.2800 Y1.4700  
G82 X-3.4213 Y1.3500  
G82 X-3.5787 Y1.3500  
G82 X-3.2800 Y1.2700  
G82 X-2.7400 Y1.1487  
G82 X-2.6000 Y1.1287  
G82 X-2.6000 Y0.9713  
G82 X-2.7400 Y0.9913  
M05
G00 Z1.5000  
G00 X0.0000  Y0.0000  
M06 T02  ; 0.0320  
G01 Z0.0000  F20    
M06 
G00 Z0.0500  
M03
G04 P0.000000
G82 X-0.2000 Y1.4500  Z-0.0750 F20    R0.0500  P0.020000
G82 X-0.4000 Y1.4500  
G82 X-0.4500 Y1.6000  
G82 X-0.5500 Y1.6000  
G82 X-0.6500 Y1.6000  
G82 X-0.7500 Y1.6000  
G82 X-0.9000 Y1.6000  
G82 X-1.0000 Y1.6000  
G82 X-1.1500 Y1.5500  
G82 X-1.2800 Y1.5600  
G82 X-1.2800 Y1.3600  
G82 X-1.5000 Y1.5000  
G82 X-1.5700 Y1.2500  
G82 X-1.7500 Y1.2500  
G82 X-1.9500 Y1.1000  
G82 X-2.0000 Y1.2000  
G82 X-2.2500 Y1.1000  
G82 X-2.3000 Y1.2000  
G82 X-2.4200 Y1.1700  
G82 X-2.6000 Y1.2500  
G82 X-2.7500 Y1.3500  
G82 X-2.7500 Y1.5000  
G82 X-2.6000 Y1.5500  
G82 X-2.3750 Y1.3800  
G82 X-2.3000 Y1.3300  
G82 X-2.3000 Y1.4300  
G82 X-1.9900 Y1.5700  
G82 X-1.8500 Y1.5700  
G82 X-1.5000 Y1.8000  
G82 X-1.3700 Y1.8100  
G82 X-1.3200 Y1.8850  
G82 X-1.2700 Y1.8100  
G82 X-1.1500 Y1.7500  
G82 X-0.9000 Y2.0900  
G82 X-0.8000 Y2.0700  
G82 X-0.7500 Y1.9000  
G82 X-0.6500 Y1.9000  
G82 X-0.5500 Y1.9000  
G82 X-0.4500 Y1.9000  
G82 X-0.3500 Y1.9000  
G82 X-0.2500 Y1.9000  
G82 X-0.3200 Y2.0800  
G82 X-0.2300 Y2.1500  
G82 X-0.2300 Y2.2900  
G82 X-0.3100 Y2.4400  
G82 X-0.3500 Y2.5500  
G82 X-0.3000 Y2.6250  
G82 X-0.2500 Y2.5500  
G82 X-0.4500 Y2.3000  
G82 X-0.4500 Y2.2000  
G82 X-0.6500 Y2.1800  
G82 X-0.6500 Y2.2800  
G82 X-0.6100 Y2.4400  
G82 X-0.6000 Y2.5800  
G82 X-0.7000 Y2.5800  
G82 X-0.8000 Y2.5800  
G82 X-0.8000 Y2.3700  
G82 X-0.9000 Y2.3900  
G82 X-1.0000 Y2.4100  
G82 X-1.1100 Y2.2300  
G82 X-1.3000 Y2.4100  
G82 X-1.4100 Y2.2300  
G82 X-2.1500 Y1.9200  
G82 X-2.2500 Y1.9200  
G82 X-2.3700 Y1.9200  
G82 X-2.4700 Y1.9200  
G82 X-2.9600 Y2.2500  
G82 X-3.1600 Y2.2500  
G82 X-3.1500 Y2.0500  
G82 X-3.2850 Y2.0100  
G82 X-3.3600 Y1.9600  
G82 X-3.3600 Y2.0600  
G82 X-3.5600 Y1.9700  
G82 X-3.4500 Y1.8100  
G82 X-3.3500 Y1.8100  
G82 X-3.3000 Y1.7000  
G82 X-3.3750 Y1.6500  
G82 X-3.3000 Y1.6000  
G82 X-3.4600 Y1.5500  
G82 X-3.6600 Y1.5500  
G82 X-3.6700 Y1.3100  
G82 X-3.3800 Y1.2400  
G82 X-3.3800 Y1.0400  
G82 X-3.3500 Y0.9000  
G82 X-3.4500 Y0.9000  
G82 X-3.4500 Y0.7500  
G82 X-3.3500 Y0.7000  
G82 X-3.2000 Y0.8000  
G82 X-3.2000 Y0.9000  
G82 X-3.2000 Y1.0000  
G82 X-3.2000 Y1.1000  
G82 X-3.1600 Y1.2900  
G82 X-3.1600 Y1.4900  
G82 X-2.9500 Y1.5000  
G82 X-2.9500 Y1.3500  
G82 X-2.9000 Y1.1000  
G82 X-2.9000 Y1.0000  
G82 X-2.9000 Y0.9000  
G82 X-2.9000 Y0.8000  
G82 X-2.8000 Y0.7300  
G82 X-2.7000 Y0.7300  
G82 X-2.4200 Y0.6700  
G82 X-2.3000 Y0.7500  
G82 X-2.1300 Y0.7500  
G82 X-2.1300 Y0.6600  
G82 X-2.1300 Y0.4600  
G82 X-2.2200 Y0.4200  
G82 X-2.3000 Y0.5500  
G82 X-2.4200 Y0.4200  
G82 X-1.9500 Y0.7600  
G82 X-1.9500 Y0.8400  
G82 X-2.1300 Y0.9500  
G82 X-1.7500 Y0.9500  
G82 X-1.6500 Y0.8500  
G82 X-1.5700 Y0.9500  
G82 X-1.3500 Y1.0000  
G82 X-1.3000 Y1.1000  
G82 X-1.0500 Y1.0000  
G82 X-1.0000 Y1.1000  
G82 X-0.7300 Y1.2700  
G82 X-0.7300 Y1.3700  
G82 X-0.6200 Y1.4200  
G82 X-0.4800 Y1.3100  
G82 X-0.6200 Y1.2200  
G82 X-0.4800 Y1.0100  
G82 X-0.4500 Y0.7500  
G82 X-0.8500 Y0.7500  
G82 X-0.9500 Y0.6800  
G82 X-0.9500 Y0.6000  
G82 X-0.8500 Y0.4300  
G82 X-1.1500 Y0.4300  
G82 X-1.2000 Y0.7500  
G82 X-1.2500 Y0.8250  
G82 X-1.3000 Y0.7500  
G82 X-1.6500 Y0.6500  
G82 X-3.4000 Y0.4600  
G82 X-3.4000 Y0.2600  
G82 X-3.6500 Y0.7500  
G82 X-3.6500 Y0.9000  
G82 X-3.6700 Y1.0100  
G82 X-3.5600 Y1.7700  
G82 X-3.1500 Y1.8500  
G82 X-0.6200 Y2.0800  
M05
G00 Z1.5000  
G00 X0.0000  Y0.0000  
M06 T03  ; 0.0360  
G01 Z0.0000  F20    
M06 
G00 Z0.0500  
M03
G04 P0.000000
G82 X-0.5900 Y1.0000  Z-0.0750 F20    R0.0500  P0.020000
G82 X-0.8900 Y1.0000  
M05
G00 Z1.5000  
G00 X0.0000  Y0.0000  
M06 T04  ; 0.0394  
G01 Z0.0000  F20    
M06 
G00 Z0.0500  
M03
G04 P0.000000
G82 X-0.1500 Y1.7000  Z-0.0750 F20    R0.0500  P0.020000
G82 X-0.2500 Y1.7000  
G82 X-0.2500 Y1.0000  
G82 X-0.3500 Y1.0000  
M05
G00 Z1.5000  
G00 X0.0000  Y0.0000  
M06 T05  ; 0.0400  
G01 Z0.0000  F20    
M06 
G00 Z0.0500  
M03
G04 P0.000000
G82 X-1.9000 Y2.3500  Z-0.0750 F20    R0.0500  P0.020000
G82 X-1.9000 Y2.4500  
G82 X-2.0000 Y2.4500  
G82 X-2.0000 Y2.3500  
G82 X-2.1000 Y2.3500  
G82 X-2.1000 Y2.4500  
G82 X-2.2000 Y2.4500  
G82 X-2.3000 Y2.4500  
G82 X-2.3000 Y2.3500  
G82 X-2.2000 Y2.3500  
G82 X-2.4000 Y2.3500  
G82 X-2.4000 Y2.4500  
G82 X-2.5000 Y2.4500  
G82 X-2.5000 Y2.3500  
G82 X-2.6000 Y2.3500  
G82 X-2.6000 Y2.4500  
G82 X-2.8000 Y2.1000  
G82 X-3.0000 Y2.1000  
M05
G00 Z1.5000  
G00 X0.0000  Y0.0000  
M06 T06  ; 0.0472  
G01 Z0.0000  F20    
M06 
G00 Z0.0500  
M03
G04 P0.000000
G82 X-0.9531 Y0.1500  Z-0.0750 F20    R0.0500  P0.020000
G82 X-1.1500 Y0.1500  
G82 X-1.3469 Y0.1500  
G82 X-1.8431 Y0.1500  
G82 X-2.0400 Y0.1500  
G82 X-2.2369 Y0.1500  
G82 X-2.7631 Y0.1400  
G82 X-2.9600 Y0.1400  
G82 X-3.1569 Y0.1400  
M05
G00 Z1.5000  
G00 X0.0000  Y0.0000  
M06 T07  ; 0.0512  
G01 Z0.0000  F20    
M06 
G00 Z0.0500  
M03
G04 P0.000000
G82 X-0.3700 Y0.0980  Z-0.0750 F20    R0.0500  P0.020000
G82 X-0.4031 Y0.0984  
G82 X-0.4370 Y0.0980  
G82 X-0.6080 Y0.4980  
G82 X-0.6079 Y0.5315  
G82 X-0.6080 Y0.5650  
G82 X-0.4360 Y0.6180  
G82 X-0.4031 Y0.6181  
G82 X-0.3700 Y0.6180  
T01 
G00 Z0.2500  
M05
M02
