(/Applications/pcbgcode.repo/pcb-gcode.ulp)
(Copyright 2005 - 2012 by John Johnson)
(See readme.txt for licensing terms.)
(This file generated from the board:)
(.../eurorack/808_snare/eagle/808sn.brd)
(Current profile is .../pcbgcode.repo/profiles/mach.pp  )
(This file generated 5/1/16 7:52 AM)
(Settings from pcb-machine.h)
(spindle on time = 0.0000)
(spindle speed = 15000.0000)
(milling depth = -0.0700)
(tool change at 0.0000  0.0000  1.5000  )
(feed rate xy = F10    )
(feed rate z  = F5     )
(Z Axis Settings)
(  High     Up        Down     Drill)
(0.2500  	0.0500  	-0.0035 	-0.0750 )
(Settings from pcb-defaults.h)
(isolate min = 0.0060)
(isolate max = 0.0200)
(isolate step = 0.0015)
(Generated bottom outlines, bottom drill, )
(Unit of measure: inch)
(Inch Mode)
G20
(Absolute Coordinates)
G90
S15000
G00 Z0.2500  
G00 X0.0000  Y0.0000  
M03
G04 P0.000000
G00 Z0.0500  
G01 Z-0.0700 F5     
G01 X0.0500  Y-0.0500 F10    
G01 X3.7500  Y-0.0500 
G01 X3.8000  Y0.0000  
G01 X3.8000  Y2.8000  
G01 X3.7500  Y2.8500  
G01 X0.0500  Y2.8500  
G01 X0.0000  Y2.8000  
G01 X0.0000  Y0.0000  
G00 Z0.0500  
G00 X0.1500  Y0.2000  
G01 Z-0.0700 F5     
G01 X0.1500  Y0.2500  F10    
G01 X0.2000  Y0.2500  
G01 X0.2000  Y0.2000  
G01 X0.1500  Y0.2000  
G00 Z0.0500  
G00 X2.2000  Y1.6500  
G01 Z-0.0700 F5     
G01 X2.2000  Y1.7000  F10    
G01 X2.2500  Y1.7000  
G01 X2.2500  Y1.6500  
G01 X2.2000  Y1.6500  
G00 Z0.0500  
G00 X3.6000  Y2.6500  
G01 Z-0.0700 F5     
G01 X3.6000  Y2.7000  F10    
G01 X3.6500  Y2.7000  
G01 X3.6500  Y2.6500  
G01 X3.6000  Y2.6500  
G00 Z0.0500  
G00 X3.6000  Y0.1500  
G01 Z-0.0700 F5     
G01 X3.6000  Y0.1000  F10    
G01 X3.6500  Y0.1000  
G01 X3.6500  Y0.1500  
G01 X3.6000  Y0.1500  
G00 Z0.2500  
M05
M02
