(.../EAGLE-7.1.0/pcbgcode.repo/pcb-gcode.ulp)
(Copyright 2005 - 2012 by John Johnson)
(See readme.txt for licensing terms.)
(This file generated from the board:)
(.../eurorack/808_snare/eagle/808sn.brd)
(Current profile is .../pcbgcode.repo/profiles/mach.pp  )
(This file generated 1/18/15 2:17 PM)
(Settings from pcb-machine.h)
(spindle on time = 0.0000)
(spindle speed = 20000.0000)
(tool change at 0.0000  0.0000  3.0000  )
(feed rate xy = F0     )
(feed rate z  = F20    )
(Z Axis Settings)
(  High     Up        Down     Drill)
(1.0000  	0.0500  	-0.0040 	-0.0730 )
(Settings from pcb-defaults.h)
(isolate min = 0.0010)
(isolate max = 0.0060)
(isolate step = 0.0012)
(Generated bottom outlines, bottom drill, )
(Unit of measure: inch)
( Tool|       Size       |  Min Sub |  Max Sub |   Count )
( T01 | 0.800mm 0.0315in | 0.0000in | 0.0000in |       0 )
( T02 | 0.813mm 0.0320in | 0.0000in | 0.0000in |       0 )
( T03 | 0.900mm 0.0354in | 0.0000in | 0.0000in |       0 )
( T04 | 0.914mm 0.0360in | 0.0000in | 0.0000in |       0 )
( T05 | 1.016mm 0.0400in | 0.0000in | 0.0000in |       0 )
( T06 | 1.118mm 0.0440in | 0.0000in | 0.0000in |       0 )
( T07 | 1.200mm 0.0472in | 0.0000in | 0.0000in |       0 )
(Inch Mode)
G20
(Absolute Coordinates)
G90
S20000
G00 Z1.0000  
G00 X0.0000  Y0.0000  
M03
G04 P0.000000
M05
G00 Z3.0000  
M06 T01  ; 0.0315  
G01 Z0.0000  F20    
M06 
G00 Z0.0500  
M03
G04 P0.000000
G82 X-0.5413 Y2.3100  Z-0.0730 F20    R0.0500  P0.010000
G82 X-0.6987 Y2.3100  
G82 X-1.7200 Y2.3387  
G82 X-1.8700 Y2.3387  
G82 X-1.8700 Y2.1813  
G82 X-1.7200 Y2.1813  
G82 X-2.0913 Y1.9700  
G82 X-2.2487 Y1.9700  
G82 X-2.6300 Y1.1989  
G82 X-2.6300 Y1.0611  
G82 X-2.9311 Y1.0500  
G82 X-3.0689 Y1.0500  
G82 X-3.1189 Y0.8300  
G82 X-2.9811 Y0.8300  
G82 X-2.5300 Y0.7389  
G82 X-2.5300 Y0.6011  
G82 X-1.3389 Y1.3400  
G82 X-1.2011 Y1.3400  
M05
G00 Z3.0000  
G00 X0.0000  Y0.0000  
M06 T02  ; 0.0320  
G01 Z0.0000  F20    
M06 
G00 Z0.0500  
M03
G04 P0.000000
G82 X-0.1400 Y1.5100  Z-0.0730 F20    R0.0500  P0.010000
G82 X-0.3400 Y1.5100  
G82 X-0.3800 Y1.6800  
G82 X-0.5000 Y1.6800  
G82 X-0.7000 Y1.6800  
G82 X-0.7700 Y1.8500  
G82 X-0.9700 Y1.8500  
G82 X-1.1500 Y1.8100  
G82 X-1.1500 Y1.7100  
G82 X-1.0900 Y1.4500  
G82 X-0.8900 Y1.4500  
G82 X-0.8800 Y1.2200  
G82 X-0.7800 Y1.2200  
G82 X-0.6800 Y1.2200  
G82 X-0.4900 Y1.0900  
G82 X-0.3900 Y1.1400  
G82 X-0.3900 Y1.3400  
G82 X-0.4900 Y0.8900  
G82 X-0.4600 Y0.7000  
G82 X-0.4600 Y0.5000  
G82 X-0.7600 Y0.4400  
G82 X-0.9600 Y0.4400  
G82 X-0.9100 Y0.6700  
G82 X-0.8300 Y0.6700  
G82 X-0.7300 Y0.9500  
G82 X-0.9300 Y0.9500  
G82 X-1.2000 Y0.9100  
G82 X-1.3000 Y0.9100  
G82 X-1.4000 Y0.9100  
G82 X-1.3000 Y1.0100  
G82 X-1.2600 Y0.6700  
G82 X-1.2600 Y0.5700  
G82 X-1.2600 Y0.4700  
G82 X-1.4200 Y0.3600  
G82 X-1.4200 Y0.1600  
G82 X-1.6400 Y0.6900  
G82 X-1.9400 Y0.6900  
G82 X-1.9200 Y0.8900  
G82 X-1.8800 Y1.0500  
G82 X-2.0200 Y1.1800  
G82 X-2.0200 Y1.3800  
G82 X-1.9900 Y1.5500  
G82 X-1.9100 Y1.5500  
G82 X-1.8700 Y1.8300  
G82 X-1.8700 Y1.9800  
G82 X-1.6700 Y1.9800  
G82 X-1.6700 Y1.8300  
G82 X-1.5100 Y1.7100  
G82 X-1.5100 Y1.6100  
G82 X-1.5100 Y1.5100  
G82 X-1.6800 Y1.3450  
G82 X-1.6300 Y1.2700  
G82 X-1.7300 Y1.2700  
G82 X-1.6800 Y1.0500  
G82 X-2.1200 Y0.8900  
G82 X-2.2000 Y0.7900  
G82 X-2.2000 Y0.5900  
G82 X-2.1200 Y0.4800  
G82 X-2.3200 Y0.4800  
G82 X-2.6500 Y0.3600  
G82 X-2.6500 Y0.1600  
G82 X-3.2400 Y0.5400  
G82 X-3.2400 Y0.7400  
G82 X-3.4800 Y0.7100  
G82 X-3.4800 Y0.6300  
G82 X-3.4300 Y1.0900  
G82 X-3.2300 Y1.0900  
G82 X-3.2000 Y1.3900  
G82 X-3.0100 Y1.3600  
G82 X-2.9100 Y1.3600  
G82 X-2.8100 Y1.3600  
G82 X-2.7800 Y1.5500  
G82 X-2.5800 Y1.5500  
G82 X-2.4900 Y1.4000  
G82 X-2.2900 Y1.4000  
G82 X-2.3100 Y1.1500  
G82 X-2.3100 Y1.0500  
G82 X-2.5200 Y0.9200  
G82 X-2.7200 Y0.9200  
G82 X-3.0000 Y1.5700  
G82 X-3.0000 Y1.7700  
G82 X-2.7300 Y1.7900  
G82 X-2.5300 Y1.7900  
G82 X-2.5500 Y2.0100  
G82 X-2.6500 Y2.0100  
G82 X-2.6700 Y2.2300  
G82 X-2.6700 Y2.3300  
G82 X-2.6700 Y2.4300  
G82 X-2.6700 Y2.5300  
G82 X-2.5000 Y2.4300  
G82 X-2.5000 Y2.6300  
G82 X-2.3300 Y2.5900  
G82 X-2.2900 Y2.4300  
G82 X-2.2900 Y2.2300  
G82 X-2.0900 Y2.2200  
G82 X-2.0900 Y2.4200  
G82 X-2.1300 Y2.5900  
G82 X-1.8500 Y2.4600  
G82 X-1.6500 Y2.4600  
G82 X-1.4200 Y2.2900  
G82 X-1.4200 Y2.1900  
G82 X-1.4200 Y2.0900  
G82 X-1.4200 Y1.9900  
G82 X-1.1200 Y1.9900  
G82 X-1.1200 Y2.0900  
G82 X-1.1200 Y2.1900  
G82 X-1.1200 Y2.2900  
G82 X-1.2200 Y2.5400  
G82 X-1.3200 Y2.5400  
G82 X-1.2700 Y2.7400  
G82 X-1.0700 Y2.7400  
G82 X-0.8400 Y2.6700  
G82 X-0.7400 Y2.6700  
G82 X-0.6400 Y2.6700  
G82 X-0.6500 Y2.8400  
G82 X-0.8500 Y2.8400  
G82 X-0.6900 Y2.1900  
G82 X-0.6700 Y2.0400  
G82 X-0.8700 Y2.0400  
G82 X-0.4900 Y2.1900  
G82 X-0.3800 Y1.8800  
G82 X-2.2100 Y1.6600  
G82 X-2.3100 Y1.6600  
G82 X-2.9700 Y2.2300  
G82 X-2.9700 Y2.3300  
G82 X-2.9700 Y2.4300  
G82 X-2.9700 Y2.5300  
G82 X-3.1000 Y2.6200  
G82 X-3.1000 Y2.4200  
G82 X-3.2900 Y2.4500  
G82 X-3.4100 Y2.4400  
G82 X-3.4100 Y2.3400  
G82 X-3.2900 Y2.2500  
G82 X-3.3100 Y2.0800  
G82 X-3.3100 Y1.8800  
G82 X-3.4000 Y1.3900  
G82 X-2.7900 Y2.8100  
G82 X-2.6900 Y2.8100  
M05
G00 Z3.0000  
G00 X0.0000  Y0.0000  
M06 T03  ; 0.0354  
G01 Z0.0000  F20    
M06 
G00 Z0.0500  
M03
G04 P0.000000
G82 X-0.9900 Y2.8500  Z-0.0730 F20    R0.0500  P0.010000
G82 X-1.4800 Y2.2100  
G82 X-1.0300 Y2.0300  
G82 X-1.9100 Y1.1900  
G82 X-1.8400 Y0.8700  
G82 X-1.9700 Y0.4200  
G82 X-2.4300 Y1.1800  
G82 X-2.6000 Y2.5700  
M05
G00 Z3.0000  
G00 X0.0000  Y0.0000  
M06 T04  ; 0.0360  
G01 Z0.0000  F20    
M06 
G00 Z0.0500  
M03
G04 P0.000000
G82 X-2.8200 Y0.5100  Z-0.0730 F20    R0.0500  P0.010000
G82 X-2.8200 Y0.8100  
M05
G00 Z3.0000  
G00 X0.0000  Y0.0000  
M06 T05  ; 0.0400  
G01 Z0.0000  F20    
M06 
G00 Z0.0500  
M03
G04 P0.000000
G82 X-1.5600 Y2.8100  Z-0.0730 F20    R0.0500  P0.010000
G82 X-1.6600 Y2.8100  
G82 X-1.6600 Y2.9100  
G82 X-1.5600 Y2.9100  
G82 X-1.7600 Y2.9100  
G82 X-1.7600 Y2.8100  
G82 X-1.8600 Y2.8100  
G82 X-1.9600 Y2.8100  
G82 X-1.9600 Y2.9100  
G82 X-1.8600 Y2.9100  
M05
G00 Z3.0000  
G00 X0.0000  Y0.0000  
M06 T06  ; 0.0440  
G01 Z0.0000  F20    
M06 
G00 Z0.0500  
M03
G04 P0.000000
G82 X-0.4700 Y1.2800  Z-0.0730 F20    R0.0500  P0.010000
G82 X-0.5300 Y2.8300  
G82 X-3.2800 Y1.7600  
M05
G00 Z3.0000  
G00 X0.0000  Y0.0000  
M06 T07  ; 0.0472  
G01 Z0.0000  F20    
M06 
G00 Z0.0500  
M03
G04 P0.000000
G82 X-0.6231 Y0.1400  Z-0.0730 F20    R0.0500  P0.010000
G82 X-0.8200 Y0.1400  
G82 X-1.0169 Y0.1400  
G82 X-1.8331 Y0.1400  
G82 X-2.0300 Y0.1400  
G82 X-2.2269 Y0.1400  
G82 X-3.0531 Y0.1400  
G82 X-3.2500 Y0.1400  
G82 X-3.4469 Y0.1400  
T01 
G00 Z1.0000  
M05
M02
